;PYCAM-META-DATA: Filename: /home/matt/Documents/delta-cnc/code/cal3.dxf
;PYCAM-META-DATA: Timestamp: 2012-07-13 19:03:13.751166
;PYCAM-META-DATA: Version: 0.5.1
;Estimated machine time: 14 minutes
G40 (disable tool radius compensation)
G49 (disable tool length compensation)
G80 (cancel modal motion)
G54 (select coordinate system 1)
G90 (disable incremental moves)
G21 (metric)
G61 (exact path mode)
F200.00000
S1000.00000
;PYCAM_TOOLPATH_SETTINGS: START
;[Bounds]
;maxz = 0.0
;maxx = 47.5
;maxy = 47.5
;minx = -47.5
;miny = -47.5
;minz = 0.0
;
;[Tool]
;torus_radius = 0.25
;speed = 1000.0
;shape = SphericalCutter
;tool_radius = 0.5
;feedrate = 200.0
;
;[Process]
;engrave_offset = 0.0
;step_down = 1.0
;generator = EngraveCutter
;postprocessor = SimpleCutter
;overlap_percent = 0
;milling_style = conventional
;material_allowance = 0.0
;pocketing_type = none
;path_direction = x
;
;PYCAM_TOOLPATH_SETTINGS: END
T3 M6
G0 Z25.0000
M3 (start spindle)
G04 P3 (wait for 3 seconds)
 X-40.0000 Y-40.0000
G1 Z0.0000
 X-35.0000 Y-30.0000
 X-30.0000 Y-40.0000
 X-25.0000 Y-30.0000
 X-20.0000 Y-40.0000
 X-15.0000 Y-30.0000
 X-10.0000 Y-40.0000
 X-5.0000 Y-30.0000
 X0.0000 Y-40.0000
G0 Z25.0000
 X40.0000
G1 Z0.0000
 X35.0000 Y-30.0000
 X30.0000 Y-40.0000
 X25.0000 Y-30.0000
 X20.0000 Y-40.0000
 X15.0000 Y-30.0000
 X10.0000 Y-40.0000
 X5.0000 Y-30.0000
 X-0.0000 Y-40.0000
G0 Z25.0000
 X-40.0000 Y-30.0000
G1 Z0.0000
 X-35.0000 Y-20.0000
 X-30.0000 Y-30.0000
 X-25.0000 Y-20.0000
 X-20.0000 Y-30.0000
 X-15.0000 Y-20.0000
 X-10.0000 Y-30.0000
 X-5.0000 Y-20.0000
 X0.0000 Y-30.0000
G0 Z25.0000
 X40.0000
G1 Z0.0000
 X35.0000 Y-20.0000
 X30.0000 Y-30.0000
 X25.0000 Y-20.0000
 X20.0000 Y-30.0000
 X15.0000 Y-20.0000
 X10.0000 Y-30.0000
 X5.0000 Y-20.0000
 X-0.0000 Y-30.0000
G0 Z25.0000
 X-40.0000 Y-20.0000
G1 Z0.0000
 X-35.0000 Y-10.0000
 X-30.0000 Y-20.0000
 X-25.0000 Y-10.0000
 X-20.0000 Y-20.0000
 X-15.0000 Y-10.0000
 X-10.0000 Y-20.0000
 X-5.0000 Y-10.0000
 X0.0000 Y-20.0000
G0 Z25.0000
 X40.0000
G1 Z0.0000
 X35.0000 Y-10.0000
 X30.0000 Y-20.0000
 X25.0000 Y-10.0000
 X20.0000 Y-20.0000
 X15.0000 Y-10.0000
 X10.0000 Y-20.0000
 X5.0000 Y-10.0000
 X-0.0000 Y-20.0000
G0 Z25.0000
 X-40.0000 Y-10.0000
G1 Z0.0000
 X-35.0000 Y0.0000
 X-30.0000 Y-10.0000
 X-25.0000 Y0.0000
 X-20.0000 Y-10.0000
 X-15.0000 Y0.0000
 X-10.0000 Y-10.0000
 X-5.0000 Y0.0000
 X0.0000 Y-10.0000
G0 Z25.0000
 X40.0000
G1 Z0.0000
 X35.0000 Y0.0000
 X30.0000 Y-10.0000
 X25.0000 Y-0.0000
 X20.0000 Y-10.0000
 X15.0000 Y-0.0000
 X10.0000 Y-10.0000
 X5.0000 Y0.0000
 X-0.0000 Y-10.0000
G0 Z25.0000
 X-40.0000 Y0.0000
G1 Z0.0000
 X-35.0000 Y10.0000
 X-30.0000 Y0.0000
 X-25.0000 Y10.0000
 X-20.0000 Y0.0000
 X-15.0000 Y10.0000
 X-10.0000 Y0.0000
 X-5.0000 Y10.0000
 X0.0000 Y0.0000
G0 Z25.0000
 X40.0000
G1 Z0.0000
 X35.0000 Y10.0000
 X30.0000 Y-0.0000
 X25.0000 Y10.0000
 X20.0000 Y-0.0000
 X15.0000 Y10.0000
 X10.0000 Y0.0000
 X5.0000 Y10.0000
 X-0.0000 Y0.0000
G0 Z25.0000
 X-40.0000 Y10.0000
G1 Z0.0000
 X-35.0000 Y20.0000
 X-30.0000 Y10.0000
 X-25.0000 Y20.0000
 X-20.0000 Y10.0000
 X-15.0000 Y20.0000
 X-10.0000 Y10.0000
 X-5.0000 Y20.0000
 X0.0000 Y10.0000
G0 Z25.0000
 X40.0000
G1 Z0.0000
 X35.0000 Y20.0000
 X30.0000 Y10.0000
 X25.0000 Y20.0000
 X20.0000 Y10.0000
 X15.0000 Y20.0000
 X10.0000 Y10.0000
 X5.0000 Y20.0000
 X-0.0000 Y10.0000
G0 Z25.0000
 X-40.0000 Y20.0000
G1 Z0.0000
 X-35.0000 Y30.0000
 X-30.0000 Y20.0000
 X-25.0000 Y30.0000
 X-20.0000 Y20.0000
 X-15.0000 Y30.0000
 X-10.0000 Y20.0000
 X-5.0000 Y30.0000
 X0.0000 Y20.0000
G0 Z25.0000
 X40.0000
G1 Z0.0000
 X35.0000 Y30.0000
 X30.0000 Y20.0000
 X25.0000 Y30.0000
 X20.0000 Y20.0000
 X15.0000 Y30.0000
 X10.0000 Y20.0000
 X5.0000 Y30.0000
 X-0.0000 Y20.0000
G0 Z25.0000
 X-40.0000 Y30.0000
G1 Z0.0000
 X-35.0000 Y40.0000
 X-30.0000 Y30.0000
 X-25.0000 Y40.0000
 X-20.0000 Y30.0000
 X-15.0000 Y40.0000
 X-10.0000 Y30.0000
 X-5.0000 Y40.0000
 X0.0000 Y30.0000
G0 Z25.0000
 X40.0000
G1 Z0.0000
 X35.0000 Y40.0000
 X30.0000 Y30.0000
 X25.0000 Y40.0000
 X20.0000 Y30.0000
 X15.0000 Y40.0000
 X10.0000 Y30.0000
 X5.0000 Y40.0000
 X-0.0000 Y30.0000
G0 Z25.0000
M5 (stop spindle)
G04 P3 (wait for 3 seconds)
G0 Z25.0000
M2 (end program)
