;PYCAM-META-DATA: Filename: /home/matt/Documents/delta-cnc/code/cal2.dxf
;PYCAM-META-DATA: Timestamp: 2012-07-12 20:14:17.724685
;PYCAM-META-DATA: Version: 0.5.1
;Estimated machine time: 8 minutes
G40 (disable tool radius compensation)
G49 (disable tool length compensation)
G80 (cancel modal motion)
G54 (select coordinate system 1)
G90 (disable incremental moves)
G21 (metric)
G61 (exact path mode)
F200.00000
S1000.00000
;PYCAM_TOOLPATH_SETTINGS: START
;[Bounds]
;maxz = 0.0
;maxx = 59.5
;maxy = 59.5
;minx = -59.5
;miny = -59.5
;minz = 0.0
;
;[Tool]
;torus_radius = 0.25
;speed = 1000.0
;shape = SphericalCutter
;tool_radius = 0.5
;feedrate = 200.0
;
;[Process]
;engrave_offset = 0.0
;step_down = 1.0
;generator = EngraveCutter
;postprocessor = SimpleCutter
;overlap_percent = 0
;milling_style = conventional
;material_allowance = 0.0
;pocketing_type = none
;path_direction = x
;
;PYCAM_TOOLPATH_SETTINGS: END
T3 M6
G0 Z25.0000
M3 (start spindle)
G04 P3 (wait for 3 seconds)
 X5.0000 Y-0.0000
G1 Z0.0000
 X4.9039 Y-0.9755
 X4.6194 Y-1.9134
 X4.1573 Y-2.7779
 X3.5355 Y-3.5355
 X2.7779 Y-4.1573
 X1.9134 Y-4.6194
 X0.9755 Y-4.9039
 X-0.0000 Y-5.0000
 X-0.9755 Y-4.9039
 X-1.9134 Y-4.6194
 X-2.7779 Y-4.1573
 X-3.5355 Y-3.5355
 X-4.1573 Y-2.7779
 X-4.6194 Y-1.9134
 X-4.9039 Y-0.9755
 X-5.0000 Y0.0000
 X-4.9039 Y0.9755
 X-4.6194 Y1.9134
 X-4.1573 Y2.7779
 X-3.5355 Y3.5355
 X-2.7779 Y4.1573
 X-1.9134 Y4.6194
 X-0.9755 Y4.9039
 X0.0000 Y5.0000
 X0.9755 Y4.9039
 X1.9134 Y4.6194
 X2.7779 Y4.1573
 X3.5355 Y3.5355
 X4.1573 Y2.7779
 X4.6194 Y1.9134
 X4.9039 Y0.9755
 X5.0000 Y-0.0000
G0 Z25.0000
 X10.0000
G1 Z0.0000
 X9.8079 Y-1.9509
 X9.2388 Y-3.8268
 X8.3147 Y-5.5557
 X7.0711 Y-7.0711
 X5.5557 Y-8.3147
 X3.8268 Y-9.2388
 X1.9509 Y-9.8079
 X-0.0000 Y-10.0000
 X-1.9509 Y-9.8079
 X-3.8268 Y-9.2388
 X-5.5557 Y-8.3147
 X-7.0711 Y-7.0711
 X-8.3147 Y-5.5557
 X-9.2388 Y-3.8268
 X-9.8079 Y-1.9509
 X-10.0000 Y0.0000
 X-9.8079 Y1.9509
 X-9.2388 Y3.8268
 X-8.3147 Y5.5557
 X-7.0711 Y7.0711
 X-5.5557 Y8.3147
 X-3.8268 Y9.2388
 X-1.9509 Y9.8079
 X0.0000 Y10.0000
 X1.9509 Y9.8079
 X3.8268 Y9.2388
 X5.5557 Y8.3147
 X7.0711 Y7.0711
 X8.3147 Y5.5557
 X9.2388 Y3.8268
 X9.8079 Y1.9509
 X10.0000 Y-0.0000
G0 Z25.0000
 X15.0000
G1 Z0.0000
 X14.7118 Y-2.9264
 X13.8582 Y-5.7403
 X12.4720 Y-8.3336
 X10.6066 Y-10.6066
 X8.3336 Y-12.4720
 X5.7403 Y-13.8582
 X2.9264 Y-14.7118
 X-0.0000 Y-15.0000
 X-2.9264 Y-14.7118
 X-5.7403 Y-13.8582
 X-8.3336 Y-12.4720
 X-10.6066 Y-10.6066
 X-12.4720 Y-8.3336
 X-13.8582 Y-5.7403
 X-14.7118 Y-2.9264
 X-15.0000 Y0.0000
 X-14.7118 Y2.9264
 X-13.8582 Y5.7403
 X-12.4720 Y8.3336
 X-10.6066 Y10.6066
 X-8.3336 Y12.4720
 X-5.7403 Y13.8582
 X-2.9264 Y14.7118
 X0.0000 Y15.0000
 X2.9264 Y14.7118
 X5.7403 Y13.8582
 X8.3336 Y12.4720
 X10.6066 Y10.6066
 X12.4720 Y8.3336
 X13.8582 Y5.7403
 X14.7118 Y2.9264
 X15.0000 Y-0.0000
G0 Z25.0000
 X20.0000
G1 Z0.0000
 X19.6157 Y-3.9018
 X18.4776 Y-7.6537
 X16.6294 Y-11.1114
 X14.1421 Y-14.1421
 X11.1114 Y-16.6294
 X7.6537 Y-18.4776
 X3.9018 Y-19.6157
 X-0.0000 Y-20.0000
 X-3.9018 Y-19.6157
 X-7.6537 Y-18.4776
 X-11.1114 Y-16.6294
 X-14.1421 Y-14.1421
 X-16.6294 Y-11.1114
 X-18.4776 Y-7.6537
 X-19.6157 Y-3.9018
 X-20.0000 Y0.0000
 X-19.6157 Y3.9018
 X-18.4776 Y7.6537
 X-16.6294 Y11.1114
 X-14.1421 Y14.1421
 X-11.1114 Y16.6294
 X-7.6537 Y18.4776
 X-3.9018 Y19.6157
 X0.0000 Y20.0000
 X3.9018 Y19.6157
 X7.6537 Y18.4776
 X11.1114 Y16.6294
 X14.1421 Y14.1421
 X16.6294 Y11.1114
 X18.4776 Y7.6537
 X19.6157 Y3.9018
 X20.0000 Y-0.0000
G0 Z25.0000
 X25.0000
G1 Z0.0000
 X24.5196 Y-4.8773
 X23.0970 Y-9.5671
 X20.7867 Y-13.8893
 X17.6777 Y-17.6777
 X13.8893 Y-20.7867
 X9.5671 Y-23.0970
 X4.8773 Y-24.5196
 X-0.0000 Y-25.0000
 X-4.8773 Y-24.5196
 X-9.5671 Y-23.0970
 X-13.8893 Y-20.7867
 X-17.6777 Y-17.6777
 X-20.7867 Y-13.8893
 X-23.0970 Y-9.5671
 X-24.5196 Y-4.8773
 X-25.0000 Y0.0000
 X-24.5196 Y4.8773
 X-23.0970 Y9.5671
 X-20.7867 Y13.8893
 X-17.6777 Y17.6777
 X-13.8893 Y20.7867
 X-9.5671 Y23.0970
 X-4.8773 Y24.5196
 X0.0000 Y25.0000
 X4.8773 Y24.5196
 X9.5671 Y23.0970
 X13.8893 Y20.7867
 X17.6777 Y17.6777
 X20.7867 Y13.8893
 X23.0970 Y9.5671
 X24.5196 Y4.8773
 X25.0000 Y-0.0000
G0 Z25.0000
 X30.0000
G1 Z0.0000
 X29.4236 Y-5.8527
 X27.7164 Y-11.4805
 X24.9441 Y-16.6671
 X21.2132 Y-21.2132
 X16.6671 Y-24.9441
 X11.4805 Y-27.7164
 X5.8527 Y-29.4236
 X-0.0000 Y-30.0000
 X-5.8527 Y-29.4236
 X-11.4805 Y-27.7164
 X-16.6671 Y-24.9441
 X-21.2132 Y-21.2132
 X-24.9441 Y-16.6671
 X-27.7164 Y-11.4805
 X-29.4236 Y-5.8527
 X-30.0000 Y0.0000
 X-29.4236 Y5.8527
 X-27.7164 Y11.4805
 X-24.9441 Y16.6671
 X-21.2132 Y21.2132
 X-16.6671 Y24.9441
 X-11.4805 Y27.7164
 X-5.8527 Y29.4236
 X0.0000 Y30.0000
 X5.8527 Y29.4236
 X11.4805 Y27.7164
 X16.6671 Y24.9441
 X21.2132 Y21.2132
 X24.9441 Y16.6671
 X27.7164 Y11.4805
 X29.4236 Y5.8527
 X30.0000 Y-0.0000
G0 Z25.0000
 X40.0000
G1 Z0.0000
 X39.2314 Y-7.8036
 X36.9552 Y-15.3073
 X33.2588 Y-22.2228
 X28.2843 Y-28.2843
 X22.2228 Y-33.2588
 X15.3073 Y-36.9552
 X7.8036 Y-39.2314
 X-0.0000 Y-40.0000
 X-7.8036 Y-39.2314
 X-15.3073 Y-36.9552
 X-22.2228 Y-33.2588
 X-28.2843 Y-28.2843
 X-33.2588 Y-22.2228
 X-36.9552 Y-15.3073
 X-39.2314 Y-7.8036
 X-40.0000 Y0.0000
 X-39.2314 Y7.8036
 X-36.9552 Y15.3073
 X-33.2588 Y22.2228
 X-28.2843 Y28.2843
 X-22.2228 Y33.2588
 X-15.3073 Y36.9552
 X-7.8036 Y39.2314
 X0.0000 Y40.0000
 X7.8036 Y39.2314
 X15.3073 Y36.9552
 X22.2228 Y33.2588
 X28.2843 Y28.2843
 X33.2588 Y22.2228
 X36.9552 Y15.3073
 X39.2314 Y7.8036
 X40.0000 Y-0.0000
G0 Z25.0000
 X50.0000
G1 Z0.0000
 X49.0393 Y-9.7545
 X46.1940 Y-19.1342
 X41.5735 Y-27.7785
 X35.3553 Y-35.3553
 X27.7785 Y-41.5735
 X19.1342 Y-46.1940
 X9.7545 Y-49.0393
 X-0.0000 Y-50.0000
 X-9.7545 Y-49.0393
 X-19.1342 Y-46.1940
 X-27.7785 Y-41.5735
 X-35.3553 Y-35.3553
 X-41.5735 Y-27.7785
 X-46.1940 Y-19.1342
 X-49.0393 Y-9.7545
 X-50.0000 Y0.0000
 X-49.0393 Y9.7545
 X-46.1940 Y19.1342
 X-41.5735 Y27.7785
 X-35.3553 Y35.3553
 X-27.7785 Y41.5735
 X-19.1342 Y46.1940
 X-9.7545 Y49.0393
 X0.0000 Y50.0000
 X9.7545 Y49.0393
 X19.1342 Y46.1940
 X27.7785 Y41.5735
 X35.3553 Y35.3553
 X41.5735 Y27.7785
 X46.1940 Y19.1342
 X49.0393 Y9.7545
 X50.0000 Y-0.0000
G0 Z25.0000
M5 (stop spindle)
G04 P3 (wait for 3 seconds)
G0 Z25.0000
M2 (end program)
