;PYCAM-META-DATA: Filename: /home/matt/Dropbox/Documents/cnc/calibration.dxf
;PYCAM-META-DATA: Timestamp: 2012-07-12 14:01:25.564203
;PYCAM-META-DATA: Version: 0.5.1
;Estimated machine time: 46 minutes
G40 (disable tool radius compensation)
G49 (disable tool length compensation)
G80 (cancel modal motion)
G54 (select coordinate system 1)
G90 (disable incremental moves)
G21 (metric)
G61 (exact path mode)
F200.00000
S1000.00000
;PYCAM_TOOLPATH_SETTINGS: START
;[Bounds]
;maxz = 0.0
;maxx = 60.7
;maxy = 60.7
;minx = -60.7
;miny = -60.7
;minz = 0.0
;
;[Tool]
;torus_radius = 0.25
;speed = 1000.0
;shape = SphericalCutter
;tool_radius = 0.5
;feedrate = 200.0
;
;[Process]
;engrave_offset = 0.0
;step_down = 1.0
;generator = EngraveCutter
;postprocessor = SimpleCutter
;overlap_percent = 0
;milling_style = conventional
;material_allowance = 0.0
;pocketing_type = none
;path_direction = x
;
;PYCAM_TOOLPATH_SETTINGS: END
T3 M6
G0 Z25.0000
M3 (start spindle)
G04 P3 (wait for 3 seconds)
 X41.0000 Y-10.0000
G1 Z0.0000
 X40.9808 Y-10.1951
 X40.9239 Y-10.3827
 X40.8315 Y-10.5556
 X40.7071 Y-10.7071
 X40.5556 Y-10.8315
 X40.3827 Y-10.9239
 X40.1951 Y-10.9808
 X40.0000 Y-11.0000
 X39.8049 Y-10.9808
 X39.6173 Y-10.9239
 X39.4444 Y-10.8315
 X39.2929 Y-10.7071
 X39.1685 Y-10.5556
 X39.0761 Y-10.3827
 X39.0192 Y-10.1951
 X39.0000 Y-10.0000
 X39.0192 Y-9.8049
 X39.0761 Y-9.6173
 X39.1685 Y-9.4444
 X39.2929 Y-9.2929
 X39.4444 Y-9.1685
 X39.6173 Y-9.0761
 X39.8049 Y-9.0192
 X40.0000 Y-9.0000
 X40.1951 Y-9.0192
 X40.3827 Y-9.0761
 X40.5556 Y-9.1685
 X40.7071 Y-9.2929
 X40.8315 Y-9.4444
 X40.9239 Y-9.6173
 X40.9808 Y-9.8049
 X41.0000 Y-10.0000
G0 Z25.0000
 Y-20.0000
G1 Z0.0000
 X40.9808 Y-20.1951
 X40.9239 Y-20.3827
 X40.8315 Y-20.5556
 X40.7071 Y-20.7071
 X40.5556 Y-20.8315
 X40.3827 Y-20.9239
 X40.1951 Y-20.9808
 X40.0000 Y-21.0000
 X39.8049 Y-20.9808
 X39.6173 Y-20.9239
 X39.4444 Y-20.8315
 X39.2929 Y-20.7071
 X39.1685 Y-20.5556
 X39.0761 Y-20.3827
 X39.0192 Y-20.1951
 X39.0000 Y-20.0000
 X39.0192 Y-19.8049
 X39.0761 Y-19.6173
 X39.1685 Y-19.4444
 X39.2929 Y-19.2929
 X39.4444 Y-19.1685
 X39.6173 Y-19.0761
 X39.8049 Y-19.0192
 X40.0000 Y-19.0000
 X40.1951 Y-19.0192
 X40.3827 Y-19.0761
 X40.5556 Y-19.1685
 X40.7071 Y-19.2929
 X40.8315 Y-19.4444
 X40.9239 Y-19.6173
 X40.9808 Y-19.8049
 X41.0000 Y-20.0000
G0 Z25.0000
 X31.0000
G1 Z0.0000
 X30.9808 Y-20.1951
 X30.9239 Y-20.3827
 X30.8315 Y-20.5556
 X30.7071 Y-20.7071
 X30.5556 Y-20.8315
 X30.3827 Y-20.9239
 X30.1951 Y-20.9808
 X30.0000 Y-21.0000
 X29.8049 Y-20.9808
 X29.6173 Y-20.9239
 X29.4444 Y-20.8315
 X29.2929 Y-20.7071
 X29.1685 Y-20.5556
 X29.0761 Y-20.3827
 X29.0192 Y-20.1951
 X29.0000 Y-20.0000
 X29.0192 Y-19.8049
 X29.0761 Y-19.6173
 X29.1685 Y-19.4444
 X29.2929 Y-19.2929
 X29.4444 Y-19.1685
 X29.6173 Y-19.0761
 X29.8049 Y-19.0192
 X30.0000 Y-19.0000
 X30.1951 Y-19.0192
 X30.3827 Y-19.0761
 X30.5556 Y-19.1685
 X30.7071 Y-19.2929
 X30.8315 Y-19.4444
 X30.9239 Y-19.6173
 X30.9808 Y-19.8049
 X31.0000 Y-20.0000
G0 Z25.0000
 Y-10.0000
G1 Z0.0000
 X30.9808 Y-10.1951
 X30.9239 Y-10.3827
 X30.8315 Y-10.5556
 X30.7071 Y-10.7071
 X30.5556 Y-10.8315
 X30.3827 Y-10.9239
 X30.1951 Y-10.9808
 X30.0000 Y-11.0000
 X29.8049 Y-10.9808
 X29.6173 Y-10.9239
 X29.4444 Y-10.8315
 X29.2929 Y-10.7071
 X29.1685 Y-10.5556
 X29.0761 Y-10.3827
 X29.0192 Y-10.1951
 X29.0000 Y-10.0000
 X29.0192 Y-9.8049
 X29.0761 Y-9.6173
 X29.1685 Y-9.4444
 X29.2929 Y-9.2929
 X29.4444 Y-9.1685
 X29.6173 Y-9.0761
 X29.8049 Y-9.0192
 X30.0000 Y-9.0000
 X30.1951 Y-9.0192
 X30.3827 Y-9.0761
 X30.5556 Y-9.1685
 X30.7071 Y-9.2929
 X30.8315 Y-9.4444
 X30.9239 Y-9.6173
 X30.9808 Y-9.8049
 X31.0000 Y-10.0000
G0 Z25.0000
 Y-0.0000
G1 Z0.0000
 X30.9808 Y-0.1951
 X30.9239 Y-0.3827
 X30.8315 Y-0.5556
 X30.7071 Y-0.7071
 X30.5556 Y-0.8315
 X30.3827 Y-0.9239
 X30.1951 Y-0.9808
 X30.0000 Y-1.0000
 X29.8049 Y-0.9808
 X29.6173 Y-0.9239
 X29.4444 Y-0.8315
 X29.2929 Y-0.7071
 X29.1685 Y-0.5556
 X29.0761 Y-0.3827
 X29.0192 Y-0.1951
 X29.0000 Y0.0000
 X29.0192 Y0.1951
 X29.0761 Y0.3827
 X29.1685 Y0.5556
 X29.2929 Y0.7071
 X29.4444 Y0.8315
 X29.6173 Y0.9239
 X29.8049 Y0.9808
 X30.0000 Y1.0000
 X30.1951 Y0.9808
 X30.3827 Y0.9239
 X30.5556 Y0.8315
 X30.7071 Y0.7071
 X30.8315 Y0.5556
 X30.9239 Y0.3827
 X30.9808 Y0.1951
 X31.0000 Y-0.0000
G0 Z25.0000
 X41.0000
G1 Z0.0000
 X40.9808 Y-0.1951
 X40.9239 Y-0.3827
 X40.8315 Y-0.5556
 X40.7071 Y-0.7071
 X40.5556 Y-0.8315
 X40.3827 Y-0.9239
 X40.1951 Y-0.9808
 X40.0000 Y-1.0000
 X39.8049 Y-0.9808
 X39.6173 Y-0.9239
 X39.4444 Y-0.8315
 X39.2929 Y-0.7071
 X39.1685 Y-0.5556
 X39.0761 Y-0.3827
 X39.0192 Y-0.1951
 X39.0000 Y0.0000
 X39.0192 Y0.1951
 X39.0761 Y0.3827
 X39.1685 Y0.5556
 X39.2929 Y0.7071
 X39.4444 Y0.8315
 X39.6173 Y0.9239
 X39.8049 Y0.9808
 X40.0000 Y1.0000
 X40.1951 Y0.9808
 X40.3827 Y0.9239
 X40.5556 Y0.8315
 X40.7071 Y0.7071
 X40.8315 Y0.5556
 X40.9239 Y0.3827
 X40.9808 Y0.1951
 X41.0000 Y-0.0000
G0 Z25.0000
 X51.0000
G1 Z0.0000
 X50.9808 Y-0.1951
 X50.9239 Y-0.3827
 X50.8315 Y-0.5556
 X50.7071 Y-0.7071
 X50.5556 Y-0.8315
 X50.3827 Y-0.9239
 X50.1951 Y-0.9808
 X50.0000 Y-1.0000
 X49.8049 Y-0.9808
 X49.6173 Y-0.9239
 X49.4444 Y-0.8315
 X49.2929 Y-0.7071
 X49.1685 Y-0.5556
 X49.0761 Y-0.3827
 X49.0192 Y-0.1951
 X49.0000 Y0.0000
 X49.0192 Y0.1951
 X49.0761 Y0.3827
 X49.1685 Y0.5556
 X49.2929 Y0.7071
 X49.4444 Y0.8315
 X49.6173 Y0.9239
 X49.8049 Y0.9808
 X50.0000 Y1.0000
 X50.1951 Y0.9808
 X50.3827 Y0.9239
 X50.5556 Y0.8315
 X50.7071 Y0.7071
 X50.8315 Y0.5556
 X50.9239 Y0.3827
 X50.9808 Y0.1951
 X51.0000 Y-0.0000
G0 Z25.0000
 Y-10.0000
G1 Z0.0000
 X50.9808 Y-10.1951
 X50.9239 Y-10.3827
 X50.8315 Y-10.5556
 X50.7071 Y-10.7071
 X50.5556 Y-10.8315
 X50.3827 Y-10.9239
 X50.1951 Y-10.9808
 X50.0000 Y-11.0000
 X49.8049 Y-10.9808
 X49.6173 Y-10.9239
 X49.4444 Y-10.8315
 X49.2929 Y-10.7071
 X49.1685 Y-10.5556
 X49.0761 Y-10.3827
 X49.0192 Y-10.1951
 X49.0000 Y-10.0000
 X49.0192 Y-9.8049
 X49.0761 Y-9.6173
 X49.1685 Y-9.4444
 X49.2929 Y-9.2929
 X49.4444 Y-9.1685
 X49.6173 Y-9.0761
 X49.8049 Y-9.0192
 X50.0000 Y-9.0000
 X50.1951 Y-9.0192
 X50.3827 Y-9.0761
 X50.5556 Y-9.1685
 X50.7071 Y-9.2929
 X50.8315 Y-9.4444
 X50.9239 Y-9.6173
 X50.9808 Y-9.8049
 X51.0000 Y-10.0000
G0 Z25.0000
 Y-20.0000
G1 Z0.0000
 X50.9808 Y-20.1951
 X50.9239 Y-20.3827
 X50.8315 Y-20.5556
 X50.7071 Y-20.7071
 X50.5556 Y-20.8315
 X50.3827 Y-20.9239
 X50.1951 Y-20.9808
 X50.0000 Y-21.0000
 X49.8049 Y-20.9808
 X49.6173 Y-20.9239
 X49.4444 Y-20.8315
 X49.2929 Y-20.7071
 X49.1685 Y-20.5556
 X49.0761 Y-20.3827
 X49.0192 Y-20.1951
 X49.0000 Y-20.0000
 X49.0192 Y-19.8049
 X49.0761 Y-19.6173
 X49.1685 Y-19.4444
 X49.2929 Y-19.2929
 X49.4444 Y-19.1685
 X49.6173 Y-19.0761
 X49.8049 Y-19.0192
 X50.0000 Y-19.0000
 X50.1951 Y-19.0192
 X50.3827 Y-19.0761
 X50.5556 Y-19.1685
 X50.7071 Y-19.2929
 X50.8315 Y-19.4444
 X50.9239 Y-19.6173
 X50.9808 Y-19.8049
 X51.0000 Y-20.0000
G0 Z25.0000
 Y-30.0000
G1 Z0.0000
 X50.9808 Y-30.1951
 X50.9239 Y-30.3827
 X50.8315 Y-30.5556
 X50.7071 Y-30.7071
 X50.5556 Y-30.8315
 X50.3827 Y-30.9239
 X50.1951 Y-30.9808
 X50.0000 Y-31.0000
 X49.8049 Y-30.9808
 X49.6173 Y-30.9239
 X49.4444 Y-30.8315
 X49.2929 Y-30.7071
 X49.1685 Y-30.5556
 X49.0761 Y-30.3827
 X49.0192 Y-30.1951
 X49.0000 Y-30.0000
 X49.0192 Y-29.8049
 X49.0761 Y-29.6173
 X49.1685 Y-29.4444
 X49.2929 Y-29.2929
 X49.4444 Y-29.1685
 X49.6173 Y-29.0761
 X49.8049 Y-29.0192
 X50.0000 Y-29.0000
 X50.1951 Y-29.0192
 X50.3827 Y-29.0761
 X50.5556 Y-29.1685
 X50.7071 Y-29.2929
 X50.8315 Y-29.4444
 X50.9239 Y-29.6173
 X50.9808 Y-29.8049
 X51.0000 Y-30.0000
G0 Z25.0000
 Y-40.0000
G1 Z0.0000
 X50.9808 Y-40.1951
 X50.9239 Y-40.3827
 X50.8315 Y-40.5556
 X50.7071 Y-40.7071
 X50.5556 Y-40.8315
 X50.3827 Y-40.9239
 X50.1951 Y-40.9808
 X50.0000 Y-41.0000
 X49.8049 Y-40.9808
 X49.6173 Y-40.9239
 X49.4444 Y-40.8315
 X49.2929 Y-40.7071
 X49.1685 Y-40.5556
 X49.0761 Y-40.3827
 X49.0192 Y-40.1951
 X49.0000 Y-40.0000
 X49.0192 Y-39.8049
 X49.0761 Y-39.6173
 X49.1685 Y-39.4444
 X49.2929 Y-39.2929
 X49.4444 Y-39.1685
 X49.6173 Y-39.0761
 X49.8049 Y-39.0192
 X50.0000 Y-39.0000
 X50.1951 Y-39.0192
 X50.3827 Y-39.0761
 X50.5556 Y-39.1685
 X50.7071 Y-39.2929
 X50.8315 Y-39.4444
 X50.9239 Y-39.6173
 X50.9808 Y-39.8049
 X51.0000 Y-40.0000
G0 Z25.0000
 Y-50.0000
G1 Z0.0000
 X50.9808 Y-50.1951
 X50.9239 Y-50.3827
 X50.8315 Y-50.5556
 X50.7071 Y-50.7071
 X50.5556 Y-50.8315
 X50.3827 Y-50.9239
 X50.1951 Y-50.9808
 X50.0000 Y-51.0000
 X49.8049 Y-50.9808
 X49.6173 Y-50.9239
 X49.4444 Y-50.8315
 X49.2929 Y-50.7071
 X49.1685 Y-50.5556
 X49.0761 Y-50.3827
 X49.0192 Y-50.1951
 X49.0000 Y-50.0000
 X49.0192 Y-49.8049
 X49.0761 Y-49.6173
 X49.1685 Y-49.4444
 X49.2929 Y-49.2929
 X49.4444 Y-49.1685
 X49.6173 Y-49.0761
 X49.8049 Y-49.0192
 X50.0000 Y-49.0000
 X50.1951 Y-49.0192
 X50.3827 Y-49.0761
 X50.5556 Y-49.1685
 X50.7071 Y-49.2929
 X50.8315 Y-49.4444
 X50.9239 Y-49.6173
 X50.9808 Y-49.8049
 X51.0000 Y-50.0000
G0 Z25.0000
 X41.0000
G1 Z0.0000
 X40.9808 Y-50.1951
 X40.9239 Y-50.3827
 X40.8315 Y-50.5556
 X40.7071 Y-50.7071
 X40.5556 Y-50.8315
 X40.3827 Y-50.9239
 X40.1951 Y-50.9808
 X40.0000 Y-51.0000
 X39.8049 Y-50.9808
 X39.6173 Y-50.9239
 X39.4444 Y-50.8315
 X39.2929 Y-50.7071
 X39.1685 Y-50.5556
 X39.0761 Y-50.3827
 X39.0192 Y-50.1951
 X39.0000 Y-50.0000
 X39.0192 Y-49.8049
 X39.0761 Y-49.6173
 X39.1685 Y-49.4444
 X39.2929 Y-49.2929
 X39.4444 Y-49.1685
 X39.6173 Y-49.0761
 X39.8049 Y-49.0192
 X40.0000 Y-49.0000
 X40.1951 Y-49.0192
 X40.3827 Y-49.0761
 X40.5556 Y-49.1685
 X40.7071 Y-49.2929
 X40.8315 Y-49.4444
 X40.9239 Y-49.6173
 X40.9808 Y-49.8049
 X41.0000 Y-50.0000
G0 Z25.0000
 Y-40.0000
G1 Z0.0000
 X40.9808 Y-40.1951
 X40.9239 Y-40.3827
 X40.8315 Y-40.5556
 X40.7071 Y-40.7071
 X40.5556 Y-40.8315
 X40.3827 Y-40.9239
 X40.1951 Y-40.9808
 X40.0000 Y-41.0000
 X39.8049 Y-40.9808
 X39.6173 Y-40.9239
 X39.4444 Y-40.8315
 X39.2929 Y-40.7071
 X39.1685 Y-40.5556
 X39.0761 Y-40.3827
 X39.0192 Y-40.1951
 X39.0000 Y-40.0000
 X39.0192 Y-39.8049
 X39.0761 Y-39.6173
 X39.1685 Y-39.4444
 X39.2929 Y-39.2929
 X39.4444 Y-39.1685
 X39.6173 Y-39.0761
 X39.8049 Y-39.0192
 X40.0000 Y-39.0000
 X40.1951 Y-39.0192
 X40.3827 Y-39.0761
 X40.5556 Y-39.1685
 X40.7071 Y-39.2929
 X40.8315 Y-39.4444
 X40.9239 Y-39.6173
 X40.9808 Y-39.8049
 X41.0000 Y-40.0000
G0 Z25.0000
 Y-30.0000
G1 Z0.0000
 X40.9808 Y-30.1951
 X40.9239 Y-30.3827
 X40.8315 Y-30.5556
 X40.7071 Y-30.7071
 X40.5556 Y-30.8315
 X40.3827 Y-30.9239
 X40.1951 Y-30.9808
 X40.0000 Y-31.0000
 X39.8049 Y-30.9808
 X39.6173 Y-30.9239
 X39.4444 Y-30.8315
 X39.2929 Y-30.7071
 X39.1685 Y-30.5556
 X39.0761 Y-30.3827
 X39.0192 Y-30.1951
 X39.0000 Y-30.0000
 X39.0192 Y-29.8049
 X39.0761 Y-29.6173
 X39.1685 Y-29.4444
 X39.2929 Y-29.2929
 X39.4444 Y-29.1685
 X39.6173 Y-29.0761
 X39.8049 Y-29.0192
 X40.0000 Y-29.0000
 X40.1951 Y-29.0192
 X40.3827 Y-29.0761
 X40.5556 Y-29.1685
 X40.7071 Y-29.2929
 X40.8315 Y-29.4444
 X40.9239 Y-29.6173
 X40.9808 Y-29.8049
 X41.0000 Y-30.0000
G0 Z25.0000
 X31.0000
G1 Z0.0000
 X30.9808 Y-30.1951
 X30.9239 Y-30.3827
 X30.8315 Y-30.5556
 X30.7071 Y-30.7071
 X30.5556 Y-30.8315
 X30.3827 Y-30.9239
 X30.1951 Y-30.9808
 X30.0000 Y-31.0000
 X29.8049 Y-30.9808
 X29.6173 Y-30.9239
 X29.4444 Y-30.8315
 X29.2929 Y-30.7071
 X29.1685 Y-30.5556
 X29.0761 Y-30.3827
 X29.0192 Y-30.1951
 X29.0000 Y-30.0000
 X29.0192 Y-29.8049
 X29.0761 Y-29.6173
 X29.1685 Y-29.4444
 X29.2929 Y-29.2929
 X29.4444 Y-29.1685
 X29.6173 Y-29.0761
 X29.8049 Y-29.0192
 X30.0000 Y-29.0000
 X30.1951 Y-29.0192
 X30.3827 Y-29.0761
 X30.5556 Y-29.1685
 X30.7071 Y-29.2929
 X30.8315 Y-29.4444
 X30.9239 Y-29.6173
 X30.9808 Y-29.8049
 X31.0000 Y-30.0000
G0 Z25.0000
 Y-40.0000
G1 Z0.0000
 X30.9808 Y-40.1951
 X30.9239 Y-40.3827
 X30.8315 Y-40.5556
 X30.7071 Y-40.7071
 X30.5556 Y-40.8315
 X30.3827 Y-40.9239
 X30.1951 Y-40.9808
 X30.0000 Y-41.0000
 X29.8049 Y-40.9808
 X29.6173 Y-40.9239
 X29.4444 Y-40.8315
 X29.2929 Y-40.7071
 X29.1685 Y-40.5556
 X29.0761 Y-40.3827
 X29.0192 Y-40.1951
 X29.0000 Y-40.0000
 X29.0192 Y-39.8049
 X29.0761 Y-39.6173
 X29.1685 Y-39.4444
 X29.2929 Y-39.2929
 X29.4444 Y-39.1685
 X29.6173 Y-39.0761
 X29.8049 Y-39.0192
 X30.0000 Y-39.0000
 X30.1951 Y-39.0192
 X30.3827 Y-39.0761
 X30.5556 Y-39.1685
 X30.7071 Y-39.2929
 X30.8315 Y-39.4444
 X30.9239 Y-39.6173
 X30.9808 Y-39.8049
 X31.0000 Y-40.0000
G0 Z25.0000
 Y-50.0000
G1 Z0.0000
 X30.9808 Y-50.1951
 X30.9239 Y-50.3827
 X30.8315 Y-50.5556
 X30.7071 Y-50.7071
 X30.5556 Y-50.8315
 X30.3827 Y-50.9239
 X30.1951 Y-50.9808
 X30.0000 Y-51.0000
 X29.8049 Y-50.9808
 X29.6173 Y-50.9239
 X29.4444 Y-50.8315
 X29.2929 Y-50.7071
 X29.1685 Y-50.5556
 X29.0761 Y-50.3827
 X29.0192 Y-50.1951
 X29.0000 Y-50.0000
 X29.0192 Y-49.8049
 X29.0761 Y-49.6173
 X29.1685 Y-49.4444
 X29.2929 Y-49.2929
 X29.4444 Y-49.1685
 X29.6173 Y-49.0761
 X29.8049 Y-49.0192
 X30.0000 Y-49.0000
 X30.1951 Y-49.0192
 X30.3827 Y-49.0761
 X30.5556 Y-49.1685
 X30.7071 Y-49.2929
 X30.8315 Y-49.4444
 X30.9239 Y-49.6173
 X30.9808 Y-49.8049
 X31.0000 Y-50.0000
G0 Z25.0000
 X21.0000
G1 Z0.0000
 X20.9808 Y-50.1951
 X20.9239 Y-50.3827
 X20.8315 Y-50.5556
 X20.7071 Y-50.7071
 X20.5556 Y-50.8315
 X20.3827 Y-50.9239
 X20.1951 Y-50.9808
 X20.0000 Y-51.0000
 X19.8049 Y-50.9808
 X19.6173 Y-50.9239
 X19.4444 Y-50.8315
 X19.2929 Y-50.7071
 X19.1685 Y-50.5556
 X19.0761 Y-50.3827
 X19.0192 Y-50.1951
 X19.0000 Y-50.0000
 X19.0192 Y-49.8049
 X19.0761 Y-49.6173
 X19.1685 Y-49.4444
 X19.2929 Y-49.2929
 X19.4444 Y-49.1685
 X19.6173 Y-49.0761
 X19.8049 Y-49.0192
 X20.0000 Y-49.0000
 X20.1951 Y-49.0192
 X20.3827 Y-49.0761
 X20.5556 Y-49.1685
 X20.7071 Y-49.2929
 X20.8315 Y-49.4444
 X20.9239 Y-49.6173
 X20.9808 Y-49.8049
 X21.0000 Y-50.0000
G0 Z25.0000
 Y-40.0000
G1 Z0.0000
 X20.9808 Y-40.1951
 X20.9239 Y-40.3827
 X20.8315 Y-40.5556
 X20.7071 Y-40.7071
 X20.5556 Y-40.8315
 X20.3827 Y-40.9239
 X20.1951 Y-40.9808
 X20.0000 Y-41.0000
 X19.8049 Y-40.9808
 X19.6173 Y-40.9239
 X19.4444 Y-40.8315
 X19.2929 Y-40.7071
 X19.1685 Y-40.5556
 X19.0761 Y-40.3827
 X19.0192 Y-40.1951
 X19.0000 Y-40.0000
 X19.0192 Y-39.8049
 X19.0761 Y-39.6173
 X19.1685 Y-39.4444
 X19.2929 Y-39.2929
 X19.4444 Y-39.1685
 X19.6173 Y-39.0761
 X19.8049 Y-39.0192
 X20.0000 Y-39.0000
 X20.1951 Y-39.0192
 X20.3827 Y-39.0761
 X20.5556 Y-39.1685
 X20.7071 Y-39.2929
 X20.8315 Y-39.4444
 X20.9239 Y-39.6173
 X20.9808 Y-39.8049
 X21.0000 Y-40.0000
G0 Z25.0000
 Y-30.0000
G1 Z0.0000
 X20.9808 Y-30.1951
 X20.9239 Y-30.3827
 X20.8315 Y-30.5556
 X20.7071 Y-30.7071
 X20.5556 Y-30.8315
 X20.3827 Y-30.9239
 X20.1951 Y-30.9808
 X20.0000 Y-31.0000
 X19.8049 Y-30.9808
 X19.6173 Y-30.9239
 X19.4444 Y-30.8315
 X19.2929 Y-30.7071
 X19.1685 Y-30.5556
 X19.0761 Y-30.3827
 X19.0192 Y-30.1951
 X19.0000 Y-30.0000
 X19.0192 Y-29.8049
 X19.0761 Y-29.6173
 X19.1685 Y-29.4444
 X19.2929 Y-29.2929
 X19.4444 Y-29.1685
 X19.6173 Y-29.0761
 X19.8049 Y-29.0192
 X20.0000 Y-29.0000
 X20.1951 Y-29.0192
 X20.3827 Y-29.0761
 X20.5556 Y-29.1685
 X20.7071 Y-29.2929
 X20.8315 Y-29.4444
 X20.9239 Y-29.6173
 X20.9808 Y-29.8049
 X21.0000 Y-30.0000
G0 Z25.0000
 Y-20.0000
G1 Z0.0000
 X20.9808 Y-20.1951
 X20.9239 Y-20.3827
 X20.8315 Y-20.5556
 X20.7071 Y-20.7071
 X20.5556 Y-20.8315
 X20.3827 Y-20.9239
 X20.1951 Y-20.9808
 X20.0000 Y-21.0000
 X19.8049 Y-20.9808
 X19.6173 Y-20.9239
 X19.4444 Y-20.8315
 X19.2929 Y-20.7071
 X19.1685 Y-20.5556
 X19.0761 Y-20.3827
 X19.0192 Y-20.1951
 X19.0000 Y-20.0000
 X19.0192 Y-19.8049
 X19.0761 Y-19.6173
 X19.1685 Y-19.4444
 X19.2929 Y-19.2929
 X19.4444 Y-19.1685
 X19.6173 Y-19.0761
 X19.8049 Y-19.0192
 X20.0000 Y-19.0000
 X20.1951 Y-19.0192
 X20.3827 Y-19.0761
 X20.5556 Y-19.1685
 X20.7071 Y-19.2929
 X20.8315 Y-19.4444
 X20.9239 Y-19.6173
 X20.9808 Y-19.8049
 X21.0000 Y-20.0000
G0 Z25.0000
 Y-10.0000
G1 Z0.0000
 X20.9808 Y-10.1951
 X20.9239 Y-10.3827
 X20.8315 Y-10.5556
 X20.7071 Y-10.7071
 X20.5556 Y-10.8315
 X20.3827 Y-10.9239
 X20.1951 Y-10.9808
 X20.0000 Y-11.0000
 X19.8049 Y-10.9808
 X19.6173 Y-10.9239
 X19.4444 Y-10.8315
 X19.2929 Y-10.7071
 X19.1685 Y-10.5556
 X19.0761 Y-10.3827
 X19.0192 Y-10.1951
 X19.0000 Y-10.0000
 X19.0192 Y-9.8049
 X19.0761 Y-9.6173
 X19.1685 Y-9.4444
 X19.2929 Y-9.2929
 X19.4444 Y-9.1685
 X19.6173 Y-9.0761
 X19.8049 Y-9.0192
 X20.0000 Y-9.0000
 X20.1951 Y-9.0192
 X20.3827 Y-9.0761
 X20.5556 Y-9.1685
 X20.7071 Y-9.2929
 X20.8315 Y-9.4444
 X20.9239 Y-9.6173
 X20.9808 Y-9.8049
 X21.0000 Y-10.0000
G0 Z25.0000
 X11.0000
G1 Z0.0000
 X10.9808 Y-10.1951
 X10.9239 Y-10.3827
 X10.8315 Y-10.5556
 X10.7071 Y-10.7071
 X10.5556 Y-10.8315
 X10.3827 Y-10.9239
 X10.1951 Y-10.9808
 X10.0000 Y-11.0000
 X9.8049 Y-10.9808
 X9.6173 Y-10.9239
 X9.4444 Y-10.8315
 X9.2929 Y-10.7071
 X9.1685 Y-10.5556
 X9.0761 Y-10.3827
 X9.0192 Y-10.1951
 X9.0000 Y-10.0000
 X9.0192 Y-9.8049
 X9.0761 Y-9.6173
 X9.1685 Y-9.4444
 X9.2929 Y-9.2929
 X9.4444 Y-9.1685
 X9.6173 Y-9.0761
 X9.8049 Y-9.0192
 X10.0000 Y-9.0000
 X10.1951 Y-9.0192
 X10.3827 Y-9.0761
 X10.5556 Y-9.1685
 X10.7071 Y-9.2929
 X10.8315 Y-9.4444
 X10.9239 Y-9.6173
 X10.9808 Y-9.8049
 X11.0000 Y-10.0000
G0 Z25.0000
 X1.0000
G1 Z0.0000
 X0.9808 Y-10.1951
 X0.9239 Y-10.3827
 X0.8315 Y-10.5556
 X0.7071 Y-10.7071
 X0.5556 Y-10.8315
 X0.3827 Y-10.9239
 X0.1951 Y-10.9808
 X-0.0000 Y-11.0000
 X-0.1951 Y-10.9808
 X-0.3827 Y-10.9239
 X-0.5556 Y-10.8315
 X-0.7071 Y-10.7071
 X-0.8315 Y-10.5556
 X-0.9239 Y-10.3827
 X-0.9808 Y-10.1951
 X-1.0000 Y-10.0000
 X-0.9808 Y-9.8049
 X-0.9239 Y-9.6173
 X-0.8315 Y-9.4444
 X-0.7071 Y-9.2929
 X-0.5556 Y-9.1685
 X-0.3827 Y-9.0761
 X-0.1951 Y-9.0192
 X0.0000 Y-9.0000
 X0.1951 Y-9.0192
 X0.3827 Y-9.0761
 X0.5556 Y-9.1685
 X0.7071 Y-9.2929
 X0.8315 Y-9.4444
 X0.9239 Y-9.6173
 X0.9808 Y-9.8049
 X1.0000 Y-10.0000
G0 Z25.0000
 X11.0000 Y-20.0000
G1 Z0.0000
 X10.9808 Y-20.1951
 X10.9239 Y-20.3827
 X10.8315 Y-20.5556
 X10.7071 Y-20.7071
 X10.5556 Y-20.8315
 X10.3827 Y-20.9239
 X10.1951 Y-20.9808
 X10.0000 Y-21.0000
 X9.8049 Y-20.9808
 X9.6173 Y-20.9239
 X9.4444 Y-20.8315
 X9.2929 Y-20.7071
 X9.1685 Y-20.5556
 X9.0761 Y-20.3827
 X9.0192 Y-20.1951
 X9.0000 Y-20.0000
 X9.0192 Y-19.8049
 X9.0761 Y-19.6173
 X9.1685 Y-19.4444
 X9.2929 Y-19.2929
 X9.4444 Y-19.1685
 X9.6173 Y-19.0761
 X9.8049 Y-19.0192
 X10.0000 Y-19.0000
 X10.1951 Y-19.0192
 X10.3827 Y-19.0761
 X10.5556 Y-19.1685
 X10.7071 Y-19.2929
 X10.8315 Y-19.4444
 X10.9239 Y-19.6173
 X10.9808 Y-19.8049
 X11.0000 Y-20.0000
G0 Z25.0000
 X1.0000
G1 Z0.0000
 X0.9808 Y-20.1951
 X0.9239 Y-20.3827
 X0.8315 Y-20.5556
 X0.7071 Y-20.7071
 X0.5556 Y-20.8315
 X0.3827 Y-20.9239
 X0.1951 Y-20.9808
 X-0.0000 Y-21.0000
 X-0.1951 Y-20.9808
 X-0.3827 Y-20.9239
 X-0.5556 Y-20.8315
 X-0.7071 Y-20.7071
 X-0.8315 Y-20.5556
 X-0.9239 Y-20.3827
 X-0.9808 Y-20.1951
 X-1.0000 Y-20.0000
 X-0.9808 Y-19.8049
 X-0.9239 Y-19.6173
 X-0.8315 Y-19.4444
 X-0.7071 Y-19.2929
 X-0.5556 Y-19.1685
 X-0.3827 Y-19.0761
 X-0.1951 Y-19.0192
 X0.0000 Y-19.0000
 X0.1951 Y-19.0192
 X0.3827 Y-19.0761
 X0.5556 Y-19.1685
 X0.7071 Y-19.2929
 X0.8315 Y-19.4444
 X0.9239 Y-19.6173
 X0.9808 Y-19.8049
 X1.0000 Y-20.0000
G0 Z25.0000
 Y-30.0000
G1 Z0.0000
 X0.9808 Y-30.1951
 X0.9239 Y-30.3827
 X0.8315 Y-30.5556
 X0.7071 Y-30.7071
 X0.5556 Y-30.8315
 X0.3827 Y-30.9239
 X0.1951 Y-30.9808
 X-0.0000 Y-31.0000
 X-0.1951 Y-30.9808
 X-0.3827 Y-30.9239
 X-0.5556 Y-30.8315
 X-0.7071 Y-30.7071
 X-0.8315 Y-30.5556
 X-0.9239 Y-30.3827
 X-0.9808 Y-30.1951
 X-1.0000 Y-30.0000
 X-0.9808 Y-29.8049
 X-0.9239 Y-29.6173
 X-0.8315 Y-29.4444
 X-0.7071 Y-29.2929
 X-0.5556 Y-29.1685
 X-0.3827 Y-29.0761
 X-0.1951 Y-29.0192
 X0.0000 Y-29.0000
 X0.1951 Y-29.0192
 X0.3827 Y-29.0761
 X0.5556 Y-29.1685
 X0.7071 Y-29.2929
 X0.8315 Y-29.4444
 X0.9239 Y-29.6173
 X0.9808 Y-29.8049
 X1.0000 Y-30.0000
G0 Z25.0000
 X11.0000
G1 Z0.0000
 X10.9808 Y-30.1951
 X10.9239 Y-30.3827
 X10.8315 Y-30.5556
 X10.7071 Y-30.7071
 X10.5556 Y-30.8315
 X10.3827 Y-30.9239
 X10.1951 Y-30.9808
 X10.0000 Y-31.0000
 X9.8049 Y-30.9808
 X9.6173 Y-30.9239
 X9.4444 Y-30.8315
 X9.2929 Y-30.7071
 X9.1685 Y-30.5556
 X9.0761 Y-30.3827
 X9.0192 Y-30.1951
 X9.0000 Y-30.0000
 X9.0192 Y-29.8049
 X9.0761 Y-29.6173
 X9.1685 Y-29.4444
 X9.2929 Y-29.2929
 X9.4444 Y-29.1685
 X9.6173 Y-29.0761
 X9.8049 Y-29.0192
 X10.0000 Y-29.0000
 X10.1951 Y-29.0192
 X10.3827 Y-29.0761
 X10.5556 Y-29.1685
 X10.7071 Y-29.2929
 X10.8315 Y-29.4444
 X10.9239 Y-29.6173
 X10.9808 Y-29.8049
 X11.0000 Y-30.0000
G0 Z25.0000
 Y-40.0000
G1 Z0.0000
 X10.9808 Y-40.1951
 X10.9239 Y-40.3827
 X10.8315 Y-40.5556
 X10.7071 Y-40.7071
 X10.5556 Y-40.8315
 X10.3827 Y-40.9239
 X10.1951 Y-40.9808
 X10.0000 Y-41.0000
 X9.8049 Y-40.9808
 X9.6173 Y-40.9239
 X9.4444 Y-40.8315
 X9.2929 Y-40.7071
 X9.1685 Y-40.5556
 X9.0761 Y-40.3827
 X9.0192 Y-40.1951
 X9.0000 Y-40.0000
 X9.0192 Y-39.8049
 X9.0761 Y-39.6173
 X9.1685 Y-39.4444
 X9.2929 Y-39.2929
 X9.4444 Y-39.1685
 X9.6173 Y-39.0761
 X9.8049 Y-39.0192
 X10.0000 Y-39.0000
 X10.1951 Y-39.0192
 X10.3827 Y-39.0761
 X10.5556 Y-39.1685
 X10.7071 Y-39.2929
 X10.8315 Y-39.4444
 X10.9239 Y-39.6173
 X10.9808 Y-39.8049
 X11.0000 Y-40.0000
G0 Z25.0000
 X1.0000
G1 Z0.0000
 X0.9808 Y-40.1951
 X0.9239 Y-40.3827
 X0.8315 Y-40.5556
 X0.7071 Y-40.7071
 X0.5556 Y-40.8315
 X0.3827 Y-40.9239
 X0.1951 Y-40.9808
 X-0.0000 Y-41.0000
 X-0.1951 Y-40.9808
 X-0.3827 Y-40.9239
 X-0.5556 Y-40.8315
 X-0.7071 Y-40.7071
 X-0.8315 Y-40.5556
 X-0.9239 Y-40.3827
 X-0.9808 Y-40.1951
 X-1.0000 Y-40.0000
 X-0.9808 Y-39.8049
 X-0.9239 Y-39.6173
 X-0.8315 Y-39.4444
 X-0.7071 Y-39.2929
 X-0.5556 Y-39.1685
 X-0.3827 Y-39.0761
 X-0.1951 Y-39.0192
 X0.0000 Y-39.0000
 X0.1951 Y-39.0192
 X0.3827 Y-39.0761
 X0.5556 Y-39.1685
 X0.7071 Y-39.2929
 X0.8315 Y-39.4444
 X0.9239 Y-39.6173
 X0.9808 Y-39.8049
 X1.0000 Y-40.0000
G0 Z25.0000
 X11.0000 Y-50.0000
G1 Z0.0000
 X10.9808 Y-50.1951
 X10.9239 Y-50.3827
 X10.8315 Y-50.5556
 X10.7071 Y-50.7071
 X10.5556 Y-50.8315
 X10.3827 Y-50.9239
 X10.1951 Y-50.9808
 X10.0000 Y-51.0000
 X9.8049 Y-50.9808
 X9.6173 Y-50.9239
 X9.4444 Y-50.8315
 X9.2929 Y-50.7071
 X9.1685 Y-50.5556
 X9.0761 Y-50.3827
 X9.0192 Y-50.1951
 X9.0000 Y-50.0000
 X9.0192 Y-49.8049
 X9.0761 Y-49.6173
 X9.1685 Y-49.4444
 X9.2929 Y-49.2929
 X9.4444 Y-49.1685
 X9.6173 Y-49.0761
 X9.8049 Y-49.0192
 X10.0000 Y-49.0000
 X10.1951 Y-49.0192
 X10.3827 Y-49.0761
 X10.5556 Y-49.1685
 X10.7071 Y-49.2929
 X10.8315 Y-49.4444
 X10.9239 Y-49.6173
 X10.9808 Y-49.8049
 X11.0000 Y-50.0000
G0 Z25.0000
 X1.0000
G1 Z0.0000
 X0.9808 Y-50.1951
 X0.9239 Y-50.3827
 X0.8315 Y-50.5556
 X0.7071 Y-50.7071
 X0.5556 Y-50.8315
 X0.3827 Y-50.9239
 X0.1951 Y-50.9808
 X-0.0000 Y-51.0000
 X-0.1951 Y-50.9808
 X-0.3827 Y-50.9239
 X-0.5556 Y-50.8315
 X-0.7071 Y-50.7071
 X-0.8315 Y-50.5556
 X-0.9239 Y-50.3827
 X-0.9808 Y-50.1951
 X-1.0000 Y-50.0000
 X-0.9808 Y-49.8049
 X-0.9239 Y-49.6173
 X-0.8315 Y-49.4444
 X-0.7071 Y-49.2929
 X-0.5556 Y-49.1685
 X-0.3827 Y-49.0761
 X-0.1951 Y-49.0192
 X0.0000 Y-49.0000
 X0.1951 Y-49.0192
 X0.3827 Y-49.0761
 X0.5556 Y-49.1685
 X0.7071 Y-49.2929
 X0.8315 Y-49.4444
 X0.9239 Y-49.6173
 X0.9808 Y-49.8049
 X1.0000 Y-50.0000
G0 Z25.0000
 X-9.0000
G1 Z0.0000
 X-9.0192 Y-50.1951
 X-9.0761 Y-50.3827
 X-9.1685 Y-50.5556
 X-9.2929 Y-50.7071
 X-9.4444 Y-50.8315
 X-9.6173 Y-50.9239
 X-9.8049 Y-50.9808
 X-10.0000 Y-51.0000
 X-10.1951 Y-50.9808
 X-10.3827 Y-50.9239
 X-10.5556 Y-50.8315
 X-10.7071 Y-50.7071
 X-10.8315 Y-50.5556
 X-10.9239 Y-50.3827
 X-10.9808 Y-50.1951
 X-11.0000 Y-50.0000
 X-10.9808 Y-49.8049
 X-10.9239 Y-49.6173
 X-10.8315 Y-49.4444
 X-10.7071 Y-49.2929
 X-10.5556 Y-49.1685
 X-10.3827 Y-49.0761
 X-10.1951 Y-49.0192
 X-10.0000 Y-49.0000
 X-9.8049 Y-49.0192
 X-9.6173 Y-49.0761
 X-9.4444 Y-49.1685
 X-9.2929 Y-49.2929
 X-9.1685 Y-49.4444
 X-9.0761 Y-49.6173
 X-9.0192 Y-49.8049
 X-9.0000 Y-50.0000
G0 Z25.0000
 Y-40.0000
G1 Z0.0000
 X-9.0192 Y-40.1951
 X-9.0761 Y-40.3827
 X-9.1685 Y-40.5556
 X-9.2929 Y-40.7071
 X-9.4444 Y-40.8315
 X-9.6173 Y-40.9239
 X-9.8049 Y-40.9808
 X-10.0000 Y-41.0000
 X-10.1951 Y-40.9808
 X-10.3827 Y-40.9239
 X-10.5556 Y-40.8315
 X-10.7071 Y-40.7071
 X-10.8315 Y-40.5556
 X-10.9239 Y-40.3827
 X-10.9808 Y-40.1951
 X-11.0000 Y-40.0000
 X-10.9808 Y-39.8049
 X-10.9239 Y-39.6173
 X-10.8315 Y-39.4444
 X-10.7071 Y-39.2929
 X-10.5556 Y-39.1685
 X-10.3827 Y-39.0761
 X-10.1951 Y-39.0192
 X-10.0000 Y-39.0000
 X-9.8049 Y-39.0192
 X-9.6173 Y-39.0761
 X-9.4444 Y-39.1685
 X-9.2929 Y-39.2929
 X-9.1685 Y-39.4444
 X-9.0761 Y-39.6173
 X-9.0192 Y-39.8049
 X-9.0000 Y-40.0000
G0 Z25.0000
 Y-30.0000
G1 Z0.0000
 X-9.0192 Y-30.1951
 X-9.0761 Y-30.3827
 X-9.1685 Y-30.5556
 X-9.2929 Y-30.7071
 X-9.4444 Y-30.8315
 X-9.6173 Y-30.9239
 X-9.8049 Y-30.9808
 X-10.0000 Y-31.0000
 X-10.1951 Y-30.9808
 X-10.3827 Y-30.9239
 X-10.5556 Y-30.8315
 X-10.7071 Y-30.7071
 X-10.8315 Y-30.5556
 X-10.9239 Y-30.3827
 X-10.9808 Y-30.1951
 X-11.0000 Y-30.0000
 X-10.9808 Y-29.8049
 X-10.9239 Y-29.6173
 X-10.8315 Y-29.4444
 X-10.7071 Y-29.2929
 X-10.5556 Y-29.1685
 X-10.3827 Y-29.0761
 X-10.1951 Y-29.0192
 X-10.0000 Y-29.0000
 X-9.8049 Y-29.0192
 X-9.6173 Y-29.0761
 X-9.4444 Y-29.1685
 X-9.2929 Y-29.2929
 X-9.1685 Y-29.4444
 X-9.0761 Y-29.6173
 X-9.0192 Y-29.8049
 X-9.0000 Y-30.0000
G0 Z25.0000
 X-19.0000
G1 Z0.0000
 X-19.0192 Y-30.1951
 X-19.0761 Y-30.3827
 X-19.1685 Y-30.5556
 X-19.2929 Y-30.7071
 X-19.4444 Y-30.8315
 X-19.6173 Y-30.9239
 X-19.8049 Y-30.9808
 X-20.0000 Y-31.0000
 X-20.1951 Y-30.9808
 X-20.3827 Y-30.9239
 X-20.5556 Y-30.8315
 X-20.7071 Y-30.7071
 X-20.8315 Y-30.5556
 X-20.9239 Y-30.3827
 X-20.9808 Y-30.1951
 X-21.0000 Y-30.0000
 X-20.9808 Y-29.8049
 X-20.9239 Y-29.6173
 X-20.8315 Y-29.4444
 X-20.7071 Y-29.2929
 X-20.5556 Y-29.1685
 X-20.3827 Y-29.0761
 X-20.1951 Y-29.0192
 X-20.0000 Y-29.0000
 X-19.8049 Y-29.0192
 X-19.6173 Y-29.0761
 X-19.4444 Y-29.1685
 X-19.2929 Y-29.2929
 X-19.1685 Y-29.4444
 X-19.0761 Y-29.6173
 X-19.0192 Y-29.8049
 X-19.0000 Y-30.0000
G0 Z25.0000
 Y-40.0000
G1 Z0.0000
 X-19.0192 Y-40.1951
 X-19.0761 Y-40.3827
 X-19.1685 Y-40.5556
 X-19.2929 Y-40.7071
 X-19.4444 Y-40.8315
 X-19.6173 Y-40.9239
 X-19.8049 Y-40.9808
 X-20.0000 Y-41.0000
 X-20.1951 Y-40.9808
 X-20.3827 Y-40.9239
 X-20.5556 Y-40.8315
 X-20.7071 Y-40.7071
 X-20.8315 Y-40.5556
 X-20.9239 Y-40.3827
 X-20.9808 Y-40.1951
 X-21.0000 Y-40.0000
 X-20.9808 Y-39.8049
 X-20.9239 Y-39.6173
 X-20.8315 Y-39.4444
 X-20.7071 Y-39.2929
 X-20.5556 Y-39.1685
 X-20.3827 Y-39.0761
 X-20.1951 Y-39.0192
 X-20.0000 Y-39.0000
 X-19.8049 Y-39.0192
 X-19.6173 Y-39.0761
 X-19.4444 Y-39.1685
 X-19.2929 Y-39.2929
 X-19.1685 Y-39.4444
 X-19.0761 Y-39.6173
 X-19.0192 Y-39.8049
 X-19.0000 Y-40.0000
G0 Z25.0000
 Y-50.0000
G1 Z0.0000
 X-19.0192 Y-50.1951
 X-19.0761 Y-50.3827
 X-19.1685 Y-50.5556
 X-19.2929 Y-50.7071
 X-19.4444 Y-50.8315
 X-19.6173 Y-50.9239
 X-19.8049 Y-50.9808
 X-20.0000 Y-51.0000
 X-20.1951 Y-50.9808
 X-20.3827 Y-50.9239
 X-20.5556 Y-50.8315
 X-20.7071 Y-50.7071
 X-20.8315 Y-50.5556
 X-20.9239 Y-50.3827
 X-20.9808 Y-50.1951
 X-21.0000 Y-50.0000
 X-20.9808 Y-49.8049
 X-20.9239 Y-49.6173
 X-20.8315 Y-49.4444
 X-20.7071 Y-49.2929
 X-20.5556 Y-49.1685
 X-20.3827 Y-49.0761
 X-20.1951 Y-49.0192
 X-20.0000 Y-49.0000
 X-19.8049 Y-49.0192
 X-19.6173 Y-49.0761
 X-19.4444 Y-49.1685
 X-19.2929 Y-49.2929
 X-19.1685 Y-49.4444
 X-19.0761 Y-49.6173
 X-19.0192 Y-49.8049
 X-19.0000 Y-50.0000
G0 Z25.0000
 X-29.0000
G1 Z0.0000
 X-29.0192 Y-50.1951
 X-29.0761 Y-50.3827
 X-29.1685 Y-50.5556
 X-29.2929 Y-50.7071
 X-29.4444 Y-50.8315
 X-29.6173 Y-50.9239
 X-29.8049 Y-50.9808
 X-30.0000 Y-51.0000
 X-30.1951 Y-50.9808
 X-30.3827 Y-50.9239
 X-30.5556 Y-50.8315
 X-30.7071 Y-50.7071
 X-30.8315 Y-50.5556
 X-30.9239 Y-50.3827
 X-30.9808 Y-50.1951
 X-31.0000 Y-50.0000
 X-30.9808 Y-49.8049
 X-30.9239 Y-49.6173
 X-30.8315 Y-49.4444
 X-30.7071 Y-49.2929
 X-30.5556 Y-49.1685
 X-30.3827 Y-49.0761
 X-30.1951 Y-49.0192
 X-30.0000 Y-49.0000
 X-29.8049 Y-49.0192
 X-29.6173 Y-49.0761
 X-29.4444 Y-49.1685
 X-29.2929 Y-49.2929
 X-29.1685 Y-49.4444
 X-29.0761 Y-49.6173
 X-29.0192 Y-49.8049
 X-29.0000 Y-50.0000
G0 Z25.0000
 X-39.0000
G1 Z0.0000
 X-39.0192 Y-50.1951
 X-39.0761 Y-50.3827
 X-39.1685 Y-50.5556
 X-39.2929 Y-50.7071
 X-39.4444 Y-50.8315
 X-39.6173 Y-50.9239
 X-39.8049 Y-50.9808
 X-40.0000 Y-51.0000
 X-40.1951 Y-50.9808
 X-40.3827 Y-50.9239
 X-40.5556 Y-50.8315
 X-40.7071 Y-50.7071
 X-40.8315 Y-50.5556
 X-40.9239 Y-50.3827
 X-40.9808 Y-50.1951
 X-41.0000 Y-50.0000
 X-40.9808 Y-49.8049
 X-40.9239 Y-49.6173
 X-40.8315 Y-49.4444
 X-40.7071 Y-49.2929
 X-40.5556 Y-49.1685
 X-40.3827 Y-49.0761
 X-40.1951 Y-49.0192
 X-40.0000 Y-49.0000
 X-39.8049 Y-49.0192
 X-39.6173 Y-49.0761
 X-39.4444 Y-49.1685
 X-39.2929 Y-49.2929
 X-39.1685 Y-49.4444
 X-39.0761 Y-49.6173
 X-39.0192 Y-49.8049
 X-39.0000 Y-50.0000
G0 Z25.0000
 X-49.0000
G1 Z0.0000
 X-49.0192 Y-50.1951
 X-49.0761 Y-50.3827
 X-49.1685 Y-50.5556
 X-49.2929 Y-50.7071
 X-49.4444 Y-50.8315
 X-49.6173 Y-50.9239
 X-49.8049 Y-50.9808
 X-50.0000 Y-51.0000
 X-50.1951 Y-50.9808
 X-50.3827 Y-50.9239
 X-50.5556 Y-50.8315
 X-50.7071 Y-50.7071
 X-50.8315 Y-50.5556
 X-50.9239 Y-50.3827
 X-50.9808 Y-50.1951
 X-51.0000 Y-50.0000
 X-50.9808 Y-49.8049
 X-50.9239 Y-49.6173
 X-50.8315 Y-49.4444
 X-50.7071 Y-49.2929
 X-50.5556 Y-49.1685
 X-50.3827 Y-49.0761
 X-50.1951 Y-49.0192
 X-50.0000 Y-49.0000
 X-49.8049 Y-49.0192
 X-49.6173 Y-49.0761
 X-49.4444 Y-49.1685
 X-49.2929 Y-49.2929
 X-49.1685 Y-49.4444
 X-49.0761 Y-49.6173
 X-49.0192 Y-49.8049
 X-49.0000 Y-50.0000
G0 Z25.0000
 Y-40.0000
G1 Z0.0000
 X-49.0192 Y-40.1951
 X-49.0761 Y-40.3827
 X-49.1685 Y-40.5556
 X-49.2929 Y-40.7071
 X-49.4444 Y-40.8315
 X-49.6173 Y-40.9239
 X-49.8049 Y-40.9808
 X-50.0000 Y-41.0000
 X-50.1951 Y-40.9808
 X-50.3827 Y-40.9239
 X-50.5556 Y-40.8315
 X-50.7071 Y-40.7071
 X-50.8315 Y-40.5556
 X-50.9239 Y-40.3827
 X-50.9808 Y-40.1951
 X-51.0000 Y-40.0000
 X-50.9808 Y-39.8049
 X-50.9239 Y-39.6173
 X-50.8315 Y-39.4444
 X-50.7071 Y-39.2929
 X-50.5556 Y-39.1685
 X-50.3827 Y-39.0761
 X-50.1951 Y-39.0192
 X-50.0000 Y-39.0000
 X-49.8049 Y-39.0192
 X-49.6173 Y-39.0761
 X-49.4444 Y-39.1685
 X-49.2929 Y-39.2929
 X-49.1685 Y-39.4444
 X-49.0761 Y-39.6173
 X-49.0192 Y-39.8049
 X-49.0000 Y-40.0000
G0 Z25.0000
 Y-30.0000
G1 Z0.0000
 X-49.0192 Y-30.1951
 X-49.0761 Y-30.3827
 X-49.1685 Y-30.5556
 X-49.2929 Y-30.7071
 X-49.4444 Y-30.8315
 X-49.6173 Y-30.9239
 X-49.8049 Y-30.9808
 X-50.0000 Y-31.0000
 X-50.1951 Y-30.9808
 X-50.3827 Y-30.9239
 X-50.5556 Y-30.8315
 X-50.7071 Y-30.7071
 X-50.8315 Y-30.5556
 X-50.9239 Y-30.3827
 X-50.9808 Y-30.1951
 X-51.0000 Y-30.0000
 X-50.9808 Y-29.8049
 X-50.9239 Y-29.6173
 X-50.8315 Y-29.4444
 X-50.7071 Y-29.2929
 X-50.5556 Y-29.1685
 X-50.3827 Y-29.0761
 X-50.1951 Y-29.0192
 X-50.0000 Y-29.0000
 X-49.8049 Y-29.0192
 X-49.6173 Y-29.0761
 X-49.4444 Y-29.1685
 X-49.2929 Y-29.2929
 X-49.1685 Y-29.4444
 X-49.0761 Y-29.6173
 X-49.0192 Y-29.8049
 X-49.0000 Y-30.0000
G0 Z25.0000
 Y-20.0000
G1 Z0.0000
 X-49.0192 Y-20.1951
 X-49.0761 Y-20.3827
 X-49.1685 Y-20.5556
 X-49.2929 Y-20.7071
 X-49.4444 Y-20.8315
 X-49.6173 Y-20.9239
 X-49.8049 Y-20.9808
 X-50.0000 Y-21.0000
 X-50.1951 Y-20.9808
 X-50.3827 Y-20.9239
 X-50.5556 Y-20.8315
 X-50.7071 Y-20.7071
 X-50.8315 Y-20.5556
 X-50.9239 Y-20.3827
 X-50.9808 Y-20.1951
 X-51.0000 Y-20.0000
 X-50.9808 Y-19.8049
 X-50.9239 Y-19.6173
 X-50.8315 Y-19.4444
 X-50.7071 Y-19.2929
 X-50.5556 Y-19.1685
 X-50.3827 Y-19.0761
 X-50.1951 Y-19.0192
 X-50.0000 Y-19.0000
 X-49.8049 Y-19.0192
 X-49.6173 Y-19.0761
 X-49.4444 Y-19.1685
 X-49.2929 Y-19.2929
 X-49.1685 Y-19.4444
 X-49.0761 Y-19.6173
 X-49.0192 Y-19.8049
 X-49.0000 Y-20.0000
G0 Z25.0000
 X-39.0000
G1 Z0.0000
 X-39.0192 Y-20.1951
 X-39.0761 Y-20.3827
 X-39.1685 Y-20.5556
 X-39.2929 Y-20.7071
 X-39.4444 Y-20.8315
 X-39.6173 Y-20.9239
 X-39.8049 Y-20.9808
 X-40.0000 Y-21.0000
 X-40.1951 Y-20.9808
 X-40.3827 Y-20.9239
 X-40.5556 Y-20.8315
 X-40.7071 Y-20.7071
 X-40.8315 Y-20.5556
 X-40.9239 Y-20.3827
 X-40.9808 Y-20.1951
 X-41.0000 Y-20.0000
 X-40.9808 Y-19.8049
 X-40.9239 Y-19.6173
 X-40.8315 Y-19.4444
 X-40.7071 Y-19.2929
 X-40.5556 Y-19.1685
 X-40.3827 Y-19.0761
 X-40.1951 Y-19.0192
 X-40.0000 Y-19.0000
 X-39.8049 Y-19.0192
 X-39.6173 Y-19.0761
 X-39.4444 Y-19.1685
 X-39.2929 Y-19.2929
 X-39.1685 Y-19.4444
 X-39.0761 Y-19.6173
 X-39.0192 Y-19.8049
 X-39.0000 Y-20.0000
G0 Z25.0000
 Y-30.0000
G1 Z0.0000
 X-39.0192 Y-30.1951
 X-39.0761 Y-30.3827
 X-39.1685 Y-30.5556
 X-39.2929 Y-30.7071
 X-39.4444 Y-30.8315
 X-39.6173 Y-30.9239
 X-39.8049 Y-30.9808
 X-40.0000 Y-31.0000
 X-40.1951 Y-30.9808
 X-40.3827 Y-30.9239
 X-40.5556 Y-30.8315
 X-40.7071 Y-30.7071
 X-40.8315 Y-30.5556
 X-40.9239 Y-30.3827
 X-40.9808 Y-30.1951
 X-41.0000 Y-30.0000
 X-40.9808 Y-29.8049
 X-40.9239 Y-29.6173
 X-40.8315 Y-29.4444
 X-40.7071 Y-29.2929
 X-40.5556 Y-29.1685
 X-40.3827 Y-29.0761
 X-40.1951 Y-29.0192
 X-40.0000 Y-29.0000
 X-39.8049 Y-29.0192
 X-39.6173 Y-29.0761
 X-39.4444 Y-29.1685
 X-39.2929 Y-29.2929
 X-39.1685 Y-29.4444
 X-39.0761 Y-29.6173
 X-39.0192 Y-29.8049
 X-39.0000 Y-30.0000
G0 Z25.0000
 Y-40.0000
G1 Z0.0000
 X-39.0192 Y-40.1951
 X-39.0761 Y-40.3827
 X-39.1685 Y-40.5556
 X-39.2929 Y-40.7071
 X-39.4444 Y-40.8315
 X-39.6173 Y-40.9239
 X-39.8049 Y-40.9808
 X-40.0000 Y-41.0000
 X-40.1951 Y-40.9808
 X-40.3827 Y-40.9239
 X-40.5556 Y-40.8315
 X-40.7071 Y-40.7071
 X-40.8315 Y-40.5556
 X-40.9239 Y-40.3827
 X-40.9808 Y-40.1951
 X-41.0000 Y-40.0000
 X-40.9808 Y-39.8049
 X-40.9239 Y-39.6173
 X-40.8315 Y-39.4444
 X-40.7071 Y-39.2929
 X-40.5556 Y-39.1685
 X-40.3827 Y-39.0761
 X-40.1951 Y-39.0192
 X-40.0000 Y-39.0000
 X-39.8049 Y-39.0192
 X-39.6173 Y-39.0761
 X-39.4444 Y-39.1685
 X-39.2929 Y-39.2929
 X-39.1685 Y-39.4444
 X-39.0761 Y-39.6173
 X-39.0192 Y-39.8049
 X-39.0000 Y-40.0000
G0 Z25.0000
 X-29.0000
G1 Z0.0000
 X-29.0192 Y-40.1951
 X-29.0761 Y-40.3827
 X-29.1685 Y-40.5556
 X-29.2929 Y-40.7071
 X-29.4444 Y-40.8315
 X-29.6173 Y-40.9239
 X-29.8049 Y-40.9808
 X-30.0000 Y-41.0000
 X-30.1951 Y-40.9808
 X-30.3827 Y-40.9239
 X-30.5556 Y-40.8315
 X-30.7071 Y-40.7071
 X-30.8315 Y-40.5556
 X-30.9239 Y-40.3827
 X-30.9808 Y-40.1951
 X-31.0000 Y-40.0000
 X-30.9808 Y-39.8049
 X-30.9239 Y-39.6173
 X-30.8315 Y-39.4444
 X-30.7071 Y-39.2929
 X-30.5556 Y-39.1685
 X-30.3827 Y-39.0761
 X-30.1951 Y-39.0192
 X-30.0000 Y-39.0000
 X-29.8049 Y-39.0192
 X-29.6173 Y-39.0761
 X-29.4444 Y-39.1685
 X-29.2929 Y-39.2929
 X-29.1685 Y-39.4444
 X-29.0761 Y-39.6173
 X-29.0192 Y-39.8049
 X-29.0000 Y-40.0000
G0 Z25.0000
 Y-30.0000
G1 Z0.0000
 X-29.0192 Y-30.1951
 X-29.0761 Y-30.3827
 X-29.1685 Y-30.5556
 X-29.2929 Y-30.7071
 X-29.4444 Y-30.8315
 X-29.6173 Y-30.9239
 X-29.8049 Y-30.9808
 X-30.0000 Y-31.0000
 X-30.1951 Y-30.9808
 X-30.3827 Y-30.9239
 X-30.5556 Y-30.8315
 X-30.7071 Y-30.7071
 X-30.8315 Y-30.5556
 X-30.9239 Y-30.3827
 X-30.9808 Y-30.1951
 X-31.0000 Y-30.0000
 X-30.9808 Y-29.8049
 X-30.9239 Y-29.6173
 X-30.8315 Y-29.4444
 X-30.7071 Y-29.2929
 X-30.5556 Y-29.1685
 X-30.3827 Y-29.0761
 X-30.1951 Y-29.0192
 X-30.0000 Y-29.0000
 X-29.8049 Y-29.0192
 X-29.6173 Y-29.0761
 X-29.4444 Y-29.1685
 X-29.2929 Y-29.2929
 X-29.1685 Y-29.4444
 X-29.0761 Y-29.6173
 X-29.0192 Y-29.8049
 X-29.0000 Y-30.0000
G0 Z25.0000
 Y-20.0000
G1 Z0.0000
 X-29.0192 Y-20.1951
 X-29.0761 Y-20.3827
 X-29.1685 Y-20.5556
 X-29.2929 Y-20.7071
 X-29.4444 Y-20.8315
 X-29.6173 Y-20.9239
 X-29.8049 Y-20.9808
 X-30.0000 Y-21.0000
 X-30.1951 Y-20.9808
 X-30.3827 Y-20.9239
 X-30.5556 Y-20.8315
 X-30.7071 Y-20.7071
 X-30.8315 Y-20.5556
 X-30.9239 Y-20.3827
 X-30.9808 Y-20.1951
 X-31.0000 Y-20.0000
 X-30.9808 Y-19.8049
 X-30.9239 Y-19.6173
 X-30.8315 Y-19.4444
 X-30.7071 Y-19.2929
 X-30.5556 Y-19.1685
 X-30.3827 Y-19.0761
 X-30.1951 Y-19.0192
 X-30.0000 Y-19.0000
 X-29.8049 Y-19.0192
 X-29.6173 Y-19.0761
 X-29.4444 Y-19.1685
 X-29.2929 Y-19.2929
 X-29.1685 Y-19.4444
 X-29.0761 Y-19.6173
 X-29.0192 Y-19.8049
 X-29.0000 Y-20.0000
G0 Z25.0000
 Y-10.0000
G1 Z0.0000
 X-29.0192 Y-10.1951
 X-29.0761 Y-10.3827
 X-29.1685 Y-10.5556
 X-29.2929 Y-10.7071
 X-29.4444 Y-10.8315
 X-29.6173 Y-10.9239
 X-29.8049 Y-10.9808
 X-30.0000 Y-11.0000
 X-30.1951 Y-10.9808
 X-30.3827 Y-10.9239
 X-30.5556 Y-10.8315
 X-30.7071 Y-10.7071
 X-30.8315 Y-10.5556
 X-30.9239 Y-10.3827
 X-30.9808 Y-10.1951
 X-31.0000 Y-10.0000
 X-30.9808 Y-9.8049
 X-30.9239 Y-9.6173
 X-30.8315 Y-9.4444
 X-30.7071 Y-9.2929
 X-30.5556 Y-9.1685
 X-30.3827 Y-9.0761
 X-30.1951 Y-9.0192
 X-30.0000 Y-9.0000
 X-29.8049 Y-9.0192
 X-29.6173 Y-9.0761
 X-29.4444 Y-9.1685
 X-29.2929 Y-9.2929
 X-29.1685 Y-9.4444
 X-29.0761 Y-9.6173
 X-29.0192 Y-9.8049
 X-29.0000 Y-10.0000
G0 Z25.0000
 X-19.0000
G1 Z0.0000
 X-19.0192 Y-10.1951
 X-19.0761 Y-10.3827
 X-19.1685 Y-10.5556
 X-19.2929 Y-10.7071
 X-19.4444 Y-10.8315
 X-19.6173 Y-10.9239
 X-19.8049 Y-10.9808
 X-20.0000 Y-11.0000
 X-20.1951 Y-10.9808
 X-20.3827 Y-10.9239
 X-20.5556 Y-10.8315
 X-20.7071 Y-10.7071
 X-20.8315 Y-10.5556
 X-20.9239 Y-10.3827
 X-20.9808 Y-10.1951
 X-21.0000 Y-10.0000
 X-20.9808 Y-9.8049
 X-20.9239 Y-9.6173
 X-20.8315 Y-9.4444
 X-20.7071 Y-9.2929
 X-20.5556 Y-9.1685
 X-20.3827 Y-9.0761
 X-20.1951 Y-9.0192
 X-20.0000 Y-9.0000
 X-19.8049 Y-9.0192
 X-19.6173 Y-9.0761
 X-19.4444 Y-9.1685
 X-19.2929 Y-9.2929
 X-19.1685 Y-9.4444
 X-19.0761 Y-9.6173
 X-19.0192 Y-9.8049
 X-19.0000 Y-10.0000
G0 Z25.0000
 Y-20.0000
G1 Z0.0000
 X-19.0192 Y-20.1951
 X-19.0761 Y-20.3827
 X-19.1685 Y-20.5556
 X-19.2929 Y-20.7071
 X-19.4444 Y-20.8315
 X-19.6173 Y-20.9239
 X-19.8049 Y-20.9808
 X-20.0000 Y-21.0000
 X-20.1951 Y-20.9808
 X-20.3827 Y-20.9239
 X-20.5556 Y-20.8315
 X-20.7071 Y-20.7071
 X-20.8315 Y-20.5556
 X-20.9239 Y-20.3827
 X-20.9808 Y-20.1951
 X-21.0000 Y-20.0000
 X-20.9808 Y-19.8049
 X-20.9239 Y-19.6173
 X-20.8315 Y-19.4444
 X-20.7071 Y-19.2929
 X-20.5556 Y-19.1685
 X-20.3827 Y-19.0761
 X-20.1951 Y-19.0192
 X-20.0000 Y-19.0000
 X-19.8049 Y-19.0192
 X-19.6173 Y-19.0761
 X-19.4444 Y-19.1685
 X-19.2929 Y-19.2929
 X-19.1685 Y-19.4444
 X-19.0761 Y-19.6173
 X-19.0192 Y-19.8049
 X-19.0000 Y-20.0000
G0 Z25.0000
 X-9.0000
G1 Z0.0000
 X-9.0192 Y-20.1951
 X-9.0761 Y-20.3827
 X-9.1685 Y-20.5556
 X-9.2929 Y-20.7071
 X-9.4444 Y-20.8315
 X-9.6173 Y-20.9239
 X-9.8049 Y-20.9808
 X-10.0000 Y-21.0000
 X-10.1951 Y-20.9808
 X-10.3827 Y-20.9239
 X-10.5556 Y-20.8315
 X-10.7071 Y-20.7071
 X-10.8315 Y-20.5556
 X-10.9239 Y-20.3827
 X-10.9808 Y-20.1951
 X-11.0000 Y-20.0000
 X-10.9808 Y-19.8049
 X-10.9239 Y-19.6173
 X-10.8315 Y-19.4444
 X-10.7071 Y-19.2929
 X-10.5556 Y-19.1685
 X-10.3827 Y-19.0761
 X-10.1951 Y-19.0192
 X-10.0000 Y-19.0000
 X-9.8049 Y-19.0192
 X-9.6173 Y-19.0761
 X-9.4444 Y-19.1685
 X-9.2929 Y-19.2929
 X-9.1685 Y-19.4444
 X-9.0761 Y-19.6173
 X-9.0192 Y-19.8049
 X-9.0000 Y-20.0000
G0 Z25.0000
 Y-10.0000
G1 Z0.0000
 X-9.0192 Y-10.1951
 X-9.0761 Y-10.3827
 X-9.1685 Y-10.5556
 X-9.2929 Y-10.7071
 X-9.4444 Y-10.8315
 X-9.6173 Y-10.9239
 X-9.8049 Y-10.9808
 X-10.0000 Y-11.0000
 X-10.1951 Y-10.9808
 X-10.3827 Y-10.9239
 X-10.5556 Y-10.8315
 X-10.7071 Y-10.7071
 X-10.8315 Y-10.5556
 X-10.9239 Y-10.3827
 X-10.9808 Y-10.1951
 X-11.0000 Y-10.0000
 X-10.9808 Y-9.8049
 X-10.9239 Y-9.6173
 X-10.8315 Y-9.4444
 X-10.7071 Y-9.2929
 X-10.5556 Y-9.1685
 X-10.3827 Y-9.0761
 X-10.1951 Y-9.0192
 X-10.0000 Y-9.0000
 X-9.8049 Y-9.0192
 X-9.6173 Y-9.0761
 X-9.4444 Y-9.1685
 X-9.2929 Y-9.2929
 X-9.1685 Y-9.4444
 X-9.0761 Y-9.6173
 X-9.0192 Y-9.8049
 X-9.0000 Y-10.0000
G0 Z25.0000
 Y-0.0000
G1 Z0.0000
 X-9.0192 Y-0.1951
 X-9.0761 Y-0.3827
 X-9.1685 Y-0.5556
 X-9.2929 Y-0.7071
 X-9.4444 Y-0.8315
 X-9.6173 Y-0.9239
 X-9.8049 Y-0.9808
 X-10.0000 Y-1.0000
 X-10.1951 Y-0.9808
 X-10.3827 Y-0.9239
 X-10.5556 Y-0.8315
 X-10.7071 Y-0.7071
 X-10.8315 Y-0.5556
 X-10.9239 Y-0.3827
 X-10.9808 Y-0.1951
 X-11.0000 Y0.0000
 X-10.9808 Y0.1951
 X-10.9239 Y0.3827
 X-10.8315 Y0.5556
 X-10.7071 Y0.7071
 X-10.5556 Y0.8315
 X-10.3827 Y0.9239
 X-10.1951 Y0.9808
 X-10.0000 Y1.0000
 X-9.8049 Y0.9808
 X-9.6173 Y0.9239
 X-9.4444 Y0.8315
 X-9.2929 Y0.7071
 X-9.1685 Y0.5556
 X-9.0761 Y0.3827
 X-9.0192 Y0.1951
 X-9.0000 Y-0.0000
G0 Z25.0000
 Y10.0000
G1 Z0.0000
 X-9.0192 Y9.8049
 X-9.0761 Y9.6173
 X-9.1685 Y9.4444
 X-9.2929 Y9.2929
 X-9.4444 Y9.1685
 X-9.6173 Y9.0761
 X-9.8049 Y9.0192
 X-10.0000 Y9.0000
 X-10.1951 Y9.0192
 X-10.3827 Y9.0761
 X-10.5556 Y9.1685
 X-10.7071 Y9.2929
 X-10.8315 Y9.4444
 X-10.9239 Y9.6173
 X-10.9808 Y9.8049
 X-11.0000 Y10.0000
 X-10.9808 Y10.1951
 X-10.9239 Y10.3827
 X-10.8315 Y10.5556
 X-10.7071 Y10.7071
 X-10.5556 Y10.8315
 X-10.3827 Y10.9239
 X-10.1951 Y10.9808
 X-10.0000 Y11.0000
 X-9.8049 Y10.9808
 X-9.6173 Y10.9239
 X-9.4444 Y10.8315
 X-9.2929 Y10.7071
 X-9.1685 Y10.5556
 X-9.0761 Y10.3827
 X-9.0192 Y10.1951
 X-9.0000 Y10.0000
G0 Z25.0000
 X-19.0000
G1 Z0.0000
 X-19.0192 Y9.8049
 X-19.0761 Y9.6173
 X-19.1685 Y9.4444
 X-19.2929 Y9.2929
 X-19.4444 Y9.1685
 X-19.6173 Y9.0761
 X-19.8049 Y9.0192
 X-20.0000 Y9.0000
 X-20.1951 Y9.0192
 X-20.3827 Y9.0761
 X-20.5556 Y9.1685
 X-20.7071 Y9.2929
 X-20.8315 Y9.4444
 X-20.9239 Y9.6173
 X-20.9808 Y9.8049
 X-21.0000 Y10.0000
 X-20.9808 Y10.1951
 X-20.9239 Y10.3827
 X-20.8315 Y10.5556
 X-20.7071 Y10.7071
 X-20.5556 Y10.8315
 X-20.3827 Y10.9239
 X-20.1951 Y10.9808
 X-20.0000 Y11.0000
 X-19.8049 Y10.9808
 X-19.6173 Y10.9239
 X-19.4444 Y10.8315
 X-19.2929 Y10.7071
 X-19.1685 Y10.5556
 X-19.0761 Y10.3827
 X-19.0192 Y10.1951
 X-19.0000 Y10.0000
G0 Z25.0000
 Y-0.0000
G1 Z0.0000
 X-19.0192 Y-0.1951
 X-19.0761 Y-0.3827
 X-19.1685 Y-0.5556
 X-19.2929 Y-0.7071
 X-19.4444 Y-0.8315
 X-19.6173 Y-0.9239
 X-19.8049 Y-0.9808
 X-20.0000 Y-1.0000
 X-20.1951 Y-0.9808
 X-20.3827 Y-0.9239
 X-20.5556 Y-0.8315
 X-20.7071 Y-0.7071
 X-20.8315 Y-0.5556
 X-20.9239 Y-0.3827
 X-20.9808 Y-0.1951
 X-21.0000 Y0.0000
 X-20.9808 Y0.1951
 X-20.9239 Y0.3827
 X-20.8315 Y0.5556
 X-20.7071 Y0.7071
 X-20.5556 Y0.8315
 X-20.3827 Y0.9239
 X-20.1951 Y0.9808
 X-20.0000 Y1.0000
 X-19.8049 Y0.9808
 X-19.6173 Y0.9239
 X-19.4444 Y0.8315
 X-19.2929 Y0.7071
 X-19.1685 Y0.5556
 X-19.0761 Y0.3827
 X-19.0192 Y0.1951
 X-19.0000 Y-0.0000
G0 Z25.0000
 X-29.0000
G1 Z0.0000
 X-29.0192 Y-0.1951
 X-29.0761 Y-0.3827
 X-29.1685 Y-0.5556
 X-29.2929 Y-0.7071
 X-29.4444 Y-0.8315
 X-29.6173 Y-0.9239
 X-29.8049 Y-0.9808
 X-30.0000 Y-1.0000
 X-30.1951 Y-0.9808
 X-30.3827 Y-0.9239
 X-30.5556 Y-0.8315
 X-30.7071 Y-0.7071
 X-30.8315 Y-0.5556
 X-30.9239 Y-0.3827
 X-30.9808 Y-0.1951
 X-31.0000 Y0.0000
 X-30.9808 Y0.1951
 X-30.9239 Y0.3827
 X-30.8315 Y0.5556
 X-30.7071 Y0.7071
 X-30.5556 Y0.8315
 X-30.3827 Y0.9239
 X-30.1951 Y0.9808
 X-30.0000 Y1.0000
 X-29.8049 Y0.9808
 X-29.6173 Y0.9239
 X-29.4444 Y0.8315
 X-29.2929 Y0.7071
 X-29.1685 Y0.5556
 X-29.0761 Y0.3827
 X-29.0192 Y0.1951
 X-29.0000 Y-0.0000
G0 Z25.0000
 X-39.0000
G1 Z0.0000
 X-39.0192 Y-0.1951
 X-39.0761 Y-0.3827
 X-39.1685 Y-0.5556
 X-39.2929 Y-0.7071
 X-39.4444 Y-0.8315
 X-39.6173 Y-0.9239
 X-39.8049 Y-0.9808
 X-40.0000 Y-1.0000
 X-40.1951 Y-0.9808
 X-40.3827 Y-0.9239
 X-40.5556 Y-0.8315
 X-40.7071 Y-0.7071
 X-40.8315 Y-0.5556
 X-40.9239 Y-0.3827
 X-40.9808 Y-0.1951
 X-41.0000 Y0.0000
 X-40.9808 Y0.1951
 X-40.9239 Y0.3827
 X-40.8315 Y0.5556
 X-40.7071 Y0.7071
 X-40.5556 Y0.8315
 X-40.3827 Y0.9239
 X-40.1951 Y0.9808
 X-40.0000 Y1.0000
 X-39.8049 Y0.9808
 X-39.6173 Y0.9239
 X-39.4444 Y0.8315
 X-39.2929 Y0.7071
 X-39.1685 Y0.5556
 X-39.0761 Y0.3827
 X-39.0192 Y0.1951
 X-39.0000 Y-0.0000
G0 Z25.0000
 Y-10.0000
G1 Z0.0000
 X-39.0192 Y-10.1951
 X-39.0761 Y-10.3827
 X-39.1685 Y-10.5556
 X-39.2929 Y-10.7071
 X-39.4444 Y-10.8315
 X-39.6173 Y-10.9239
 X-39.8049 Y-10.9808
 X-40.0000 Y-11.0000
 X-40.1951 Y-10.9808
 X-40.3827 Y-10.9239
 X-40.5556 Y-10.8315
 X-40.7071 Y-10.7071
 X-40.8315 Y-10.5556
 X-40.9239 Y-10.3827
 X-40.9808 Y-10.1951
 X-41.0000 Y-10.0000
 X-40.9808 Y-9.8049
 X-40.9239 Y-9.6173
 X-40.8315 Y-9.4444
 X-40.7071 Y-9.2929
 X-40.5556 Y-9.1685
 X-40.3827 Y-9.0761
 X-40.1951 Y-9.0192
 X-40.0000 Y-9.0000
 X-39.8049 Y-9.0192
 X-39.6173 Y-9.0761
 X-39.4444 Y-9.1685
 X-39.2929 Y-9.2929
 X-39.1685 Y-9.4444
 X-39.0761 Y-9.6173
 X-39.0192 Y-9.8049
 X-39.0000 Y-10.0000
G0 Z25.0000
 X-49.0000
G1 Z0.0000
 X-49.0192 Y-10.1951
 X-49.0761 Y-10.3827
 X-49.1685 Y-10.5556
 X-49.2929 Y-10.7071
 X-49.4444 Y-10.8315
 X-49.6173 Y-10.9239
 X-49.8049 Y-10.9808
 X-50.0000 Y-11.0000
 X-50.1951 Y-10.9808
 X-50.3827 Y-10.9239
 X-50.5556 Y-10.8315
 X-50.7071 Y-10.7071
 X-50.8315 Y-10.5556
 X-50.9239 Y-10.3827
 X-50.9808 Y-10.1951
 X-51.0000 Y-10.0000
 X-50.9808 Y-9.8049
 X-50.9239 Y-9.6173
 X-50.8315 Y-9.4444
 X-50.7071 Y-9.2929
 X-50.5556 Y-9.1685
 X-50.3827 Y-9.0761
 X-50.1951 Y-9.0192
 X-50.0000 Y-9.0000
 X-49.8049 Y-9.0192
 X-49.6173 Y-9.0761
 X-49.4444 Y-9.1685
 X-49.2929 Y-9.2929
 X-49.1685 Y-9.4444
 X-49.0761 Y-9.6173
 X-49.0192 Y-9.8049
 X-49.0000 Y-10.0000
G0 Z25.0000
 Y-0.0000
G1 Z0.0000
 X-49.0192 Y-0.1951
 X-49.0761 Y-0.3827
 X-49.1685 Y-0.5556
 X-49.2929 Y-0.7071
 X-49.4444 Y-0.8315
 X-49.6173 Y-0.9239
 X-49.8049 Y-0.9808
 X-50.0000 Y-1.0000
 X-50.1951 Y-0.9808
 X-50.3827 Y-0.9239
 X-50.5556 Y-0.8315
 X-50.7071 Y-0.7071
 X-50.8315 Y-0.5556
 X-50.9239 Y-0.3827
 X-50.9808 Y-0.1951
 X-51.0000 Y0.0000
 X-50.9808 Y0.1951
 X-50.9239 Y0.3827
 X-50.8315 Y0.5556
 X-50.7071 Y0.7071
 X-50.5556 Y0.8315
 X-50.3827 Y0.9239
 X-50.1951 Y0.9808
 X-50.0000 Y1.0000
 X-49.8049 Y0.9808
 X-49.6173 Y0.9239
 X-49.4444 Y0.8315
 X-49.2929 Y0.7071
 X-49.1685 Y0.5556
 X-49.0761 Y0.3827
 X-49.0192 Y0.1951
 X-49.0000 Y-0.0000
G0 Z25.0000
 Y10.0000
G1 Z0.0000
 X-49.0192 Y9.8049
 X-49.0761 Y9.6173
 X-49.1685 Y9.4444
 X-49.2929 Y9.2929
 X-49.4444 Y9.1685
 X-49.6173 Y9.0761
 X-49.8049 Y9.0192
 X-50.0000 Y9.0000
 X-50.1951 Y9.0192
 X-50.3827 Y9.0761
 X-50.5556 Y9.1685
 X-50.7071 Y9.2929
 X-50.8315 Y9.4444
 X-50.9239 Y9.6173
 X-50.9808 Y9.8049
 X-51.0000 Y10.0000
 X-50.9808 Y10.1951
 X-50.9239 Y10.3827
 X-50.8315 Y10.5556
 X-50.7071 Y10.7071
 X-50.5556 Y10.8315
 X-50.3827 Y10.9239
 X-50.1951 Y10.9808
 X-50.0000 Y11.0000
 X-49.8049 Y10.9808
 X-49.6173 Y10.9239
 X-49.4444 Y10.8315
 X-49.2929 Y10.7071
 X-49.1685 Y10.5556
 X-49.0761 Y10.3827
 X-49.0192 Y10.1951
 X-49.0000 Y10.0000
G0 Z25.0000
 X-39.0000
G1 Z0.0000
 X-39.0192 Y9.8049
 X-39.0761 Y9.6173
 X-39.1685 Y9.4444
 X-39.2929 Y9.2929
 X-39.4444 Y9.1685
 X-39.6173 Y9.0761
 X-39.8049 Y9.0192
 X-40.0000 Y9.0000
 X-40.1951 Y9.0192
 X-40.3827 Y9.0761
 X-40.5556 Y9.1685
 X-40.7071 Y9.2929
 X-40.8315 Y9.4444
 X-40.9239 Y9.6173
 X-40.9808 Y9.8049
 X-41.0000 Y10.0000
 X-40.9808 Y10.1951
 X-40.9239 Y10.3827
 X-40.8315 Y10.5556
 X-40.7071 Y10.7071
 X-40.5556 Y10.8315
 X-40.3827 Y10.9239
 X-40.1951 Y10.9808
 X-40.0000 Y11.0000
 X-39.8049 Y10.9808
 X-39.6173 Y10.9239
 X-39.4444 Y10.8315
 X-39.2929 Y10.7071
 X-39.1685 Y10.5556
 X-39.0761 Y10.3827
 X-39.0192 Y10.1951
 X-39.0000 Y10.0000
G0 Z25.0000
 X-29.0000
G1 Z0.0000
 X-29.0192 Y9.8049
 X-29.0761 Y9.6173
 X-29.1685 Y9.4444
 X-29.2929 Y9.2929
 X-29.4444 Y9.1685
 X-29.6173 Y9.0761
 X-29.8049 Y9.0192
 X-30.0000 Y9.0000
 X-30.1951 Y9.0192
 X-30.3827 Y9.0761
 X-30.5556 Y9.1685
 X-30.7071 Y9.2929
 X-30.8315 Y9.4444
 X-30.9239 Y9.6173
 X-30.9808 Y9.8049
 X-31.0000 Y10.0000
 X-30.9808 Y10.1951
 X-30.9239 Y10.3827
 X-30.8315 Y10.5556
 X-30.7071 Y10.7071
 X-30.5556 Y10.8315
 X-30.3827 Y10.9239
 X-30.1951 Y10.9808
 X-30.0000 Y11.0000
 X-29.8049 Y10.9808
 X-29.6173 Y10.9239
 X-29.4444 Y10.8315
 X-29.2929 Y10.7071
 X-29.1685 Y10.5556
 X-29.0761 Y10.3827
 X-29.0192 Y10.1951
 X-29.0000 Y10.0000
G0 Z25.0000
 Y20.0000
G1 Z0.0000
 X-29.0192 Y19.8049
 X-29.0761 Y19.6173
 X-29.1685 Y19.4444
 X-29.2929 Y19.2929
 X-29.4444 Y19.1685
 X-29.6173 Y19.0761
 X-29.8049 Y19.0192
 X-30.0000 Y19.0000
 X-30.1951 Y19.0192
 X-30.3827 Y19.0761
 X-30.5556 Y19.1685
 X-30.7071 Y19.2929
 X-30.8315 Y19.4444
 X-30.9239 Y19.6173
 X-30.9808 Y19.8049
 X-31.0000 Y20.0000
 X-30.9808 Y20.1951
 X-30.9239 Y20.3827
 X-30.8315 Y20.5556
 X-30.7071 Y20.7071
 X-30.5556 Y20.8315
 X-30.3827 Y20.9239
 X-30.1951 Y20.9808
 X-30.0000 Y21.0000
 X-29.8049 Y20.9808
 X-29.6173 Y20.9239
 X-29.4444 Y20.8315
 X-29.2929 Y20.7071
 X-29.1685 Y20.5556
 X-29.0761 Y20.3827
 X-29.0192 Y20.1951
 X-29.0000 Y20.0000
G0 Z25.0000
 X-19.0000
G1 Z0.0000
 X-19.0192 Y19.8049
 X-19.0761 Y19.6173
 X-19.1685 Y19.4444
 X-19.2929 Y19.2929
 X-19.4444 Y19.1685
 X-19.6173 Y19.0761
 X-19.8049 Y19.0192
 X-20.0000 Y19.0000
 X-20.1951 Y19.0192
 X-20.3827 Y19.0761
 X-20.5556 Y19.1685
 X-20.7071 Y19.2929
 X-20.8315 Y19.4444
 X-20.9239 Y19.6173
 X-20.9808 Y19.8049
 X-21.0000 Y20.0000
 X-20.9808 Y20.1951
 X-20.9239 Y20.3827
 X-20.8315 Y20.5556
 X-20.7071 Y20.7071
 X-20.5556 Y20.8315
 X-20.3827 Y20.9239
 X-20.1951 Y20.9808
 X-20.0000 Y21.0000
 X-19.8049 Y20.9808
 X-19.6173 Y20.9239
 X-19.4444 Y20.8315
 X-19.2929 Y20.7071
 X-19.1685 Y20.5556
 X-19.0761 Y20.3827
 X-19.0192 Y20.1951
 X-19.0000 Y20.0000
G0 Z25.0000
 X-9.0000
G1 Z0.0000
 X-9.0192 Y19.8049
 X-9.0761 Y19.6173
 X-9.1685 Y19.4444
 X-9.2929 Y19.2929
 X-9.4444 Y19.1685
 X-9.6173 Y19.0761
 X-9.8049 Y19.0192
 X-10.0000 Y19.0000
 X-10.1951 Y19.0192
 X-10.3827 Y19.0761
 X-10.5556 Y19.1685
 X-10.7071 Y19.2929
 X-10.8315 Y19.4444
 X-10.9239 Y19.6173
 X-10.9808 Y19.8049
 X-11.0000 Y20.0000
 X-10.9808 Y20.1951
 X-10.9239 Y20.3827
 X-10.8315 Y20.5556
 X-10.7071 Y20.7071
 X-10.5556 Y20.8315
 X-10.3827 Y20.9239
 X-10.1951 Y20.9808
 X-10.0000 Y21.0000
 X-9.8049 Y20.9808
 X-9.6173 Y20.9239
 X-9.4444 Y20.8315
 X-9.2929 Y20.7071
 X-9.1685 Y20.5556
 X-9.0761 Y20.3827
 X-9.0192 Y20.1951
 X-9.0000 Y20.0000
G0 Z25.0000
 Y30.0000
G1 Z0.0000
 X-9.0192 Y29.8049
 X-9.0761 Y29.6173
 X-9.1685 Y29.4444
 X-9.2929 Y29.2929
 X-9.4444 Y29.1685
 X-9.6173 Y29.0761
 X-9.8049 Y29.0192
 X-10.0000 Y29.0000
 X-10.1951 Y29.0192
 X-10.3827 Y29.0761
 X-10.5556 Y29.1685
 X-10.7071 Y29.2929
 X-10.8315 Y29.4444
 X-10.9239 Y29.6173
 X-10.9808 Y29.8049
 X-11.0000 Y30.0000
 X-10.9808 Y30.1951
 X-10.9239 Y30.3827
 X-10.8315 Y30.5556
 X-10.7071 Y30.7071
 X-10.5556 Y30.8315
 X-10.3827 Y30.9239
 X-10.1951 Y30.9808
 X-10.0000 Y31.0000
 X-9.8049 Y30.9808
 X-9.6173 Y30.9239
 X-9.4444 Y30.8315
 X-9.2929 Y30.7071
 X-9.1685 Y30.5556
 X-9.0761 Y30.3827
 X-9.0192 Y30.1951
 X-9.0000 Y30.0000
G0 Z25.0000
 X-19.0000
G1 Z0.0000
 X-19.0192 Y29.8049
 X-19.0761 Y29.6173
 X-19.1685 Y29.4444
 X-19.2929 Y29.2929
 X-19.4444 Y29.1685
 X-19.6173 Y29.0761
 X-19.8049 Y29.0192
 X-20.0000 Y29.0000
 X-20.1951 Y29.0192
 X-20.3827 Y29.0761
 X-20.5556 Y29.1685
 X-20.7071 Y29.2929
 X-20.8315 Y29.4444
 X-20.9239 Y29.6173
 X-20.9808 Y29.8049
 X-21.0000 Y30.0000
 X-20.9808 Y30.1951
 X-20.9239 Y30.3827
 X-20.8315 Y30.5556
 X-20.7071 Y30.7071
 X-20.5556 Y30.8315
 X-20.3827 Y30.9239
 X-20.1951 Y30.9808
 X-20.0000 Y31.0000
 X-19.8049 Y30.9808
 X-19.6173 Y30.9239
 X-19.4444 Y30.8315
 X-19.2929 Y30.7071
 X-19.1685 Y30.5556
 X-19.0761 Y30.3827
 X-19.0192 Y30.1951
 X-19.0000 Y30.0000
G0 Z25.0000
 Y40.0000
G1 Z0.0000
 X-19.0192 Y39.8049
 X-19.0761 Y39.6173
 X-19.1685 Y39.4444
 X-19.2929 Y39.2929
 X-19.4444 Y39.1685
 X-19.6173 Y39.0761
 X-19.8049 Y39.0192
 X-20.0000 Y39.0000
 X-20.1951 Y39.0192
 X-20.3827 Y39.0761
 X-20.5556 Y39.1685
 X-20.7071 Y39.2929
 X-20.8315 Y39.4444
 X-20.9239 Y39.6173
 X-20.9808 Y39.8049
 X-21.0000 Y40.0000
 X-20.9808 Y40.1951
 X-20.9239 Y40.3827
 X-20.8315 Y40.5556
 X-20.7071 Y40.7071
 X-20.5556 Y40.8315
 X-20.3827 Y40.9239
 X-20.1951 Y40.9808
 X-20.0000 Y41.0000
 X-19.8049 Y40.9808
 X-19.6173 Y40.9239
 X-19.4444 Y40.8315
 X-19.2929 Y40.7071
 X-19.1685 Y40.5556
 X-19.0761 Y40.3827
 X-19.0192 Y40.1951
 X-19.0000 Y40.0000
G0 Z25.0000
 X-39.0000
G1 Z0.0000
 X-39.0192 Y39.8049
 X-39.0761 Y39.6173
 X-39.1685 Y39.4444
 X-39.2929 Y39.2929
 X-39.4444 Y39.1685
 X-39.6173 Y39.0761
 X-39.8049 Y39.0192
 X-40.0000 Y39.0000
 X-40.1951 Y39.0192
 X-40.3827 Y39.0761
 X-40.5556 Y39.1685
 X-40.7071 Y39.2929
 X-40.8315 Y39.4444
 X-40.9239 Y39.6173
 X-40.9808 Y39.8049
 X-41.0000 Y40.0000
 X-40.9808 Y40.1951
 X-40.9239 Y40.3827
 X-40.8315 Y40.5556
 X-40.7071 Y40.7071
 X-40.5556 Y40.8315
 X-40.3827 Y40.9239
 X-40.1951 Y40.9808
 X-40.0000 Y41.0000
 X-39.8049 Y40.9808
 X-39.6173 Y40.9239
 X-39.4444 Y40.8315
 X-39.2929 Y40.7071
 X-39.1685 Y40.5556
 X-39.0761 Y40.3827
 X-39.0192 Y40.1951
 X-39.0000 Y40.0000
G0 Z25.0000
 Y50.0000
G1 Z0.0000
 X-39.0192 Y49.8049
 X-39.0761 Y49.6173
 X-39.1685 Y49.4444
 X-39.2929 Y49.2929
 X-39.4444 Y49.1685
 X-39.6173 Y49.0761
 X-39.8049 Y49.0192
 X-40.0000 Y49.0000
 X-40.1951 Y49.0192
 X-40.3827 Y49.0761
 X-40.5556 Y49.1685
 X-40.7071 Y49.2929
 X-40.8315 Y49.4444
 X-40.9239 Y49.6173
 X-40.9808 Y49.8049
 X-41.0000 Y50.0000
 X-40.9808 Y50.1951
 X-40.9239 Y50.3827
 X-40.8315 Y50.5556
 X-40.7071 Y50.7071
 X-40.5556 Y50.8315
 X-40.3827 Y50.9239
 X-40.1951 Y50.9808
 X-40.0000 Y51.0000
 X-39.8049 Y50.9808
 X-39.6173 Y50.9239
 X-39.4444 Y50.8315
 X-39.2929 Y50.7071
 X-39.1685 Y50.5556
 X-39.0761 Y50.3827
 X-39.0192 Y50.1951
 X-39.0000 Y50.0000
G0 Z25.0000
 X-49.0000
G1 Z0.0000
 X-49.0192 Y49.8049
 X-49.0761 Y49.6173
 X-49.1685 Y49.4444
 X-49.2929 Y49.2929
 X-49.4444 Y49.1685
 X-49.6173 Y49.0761
 X-49.8049 Y49.0192
 X-50.0000 Y49.0000
 X-50.1951 Y49.0192
 X-50.3827 Y49.0761
 X-50.5556 Y49.1685
 X-50.7071 Y49.2929
 X-50.8315 Y49.4444
 X-50.9239 Y49.6173
 X-50.9808 Y49.8049
 X-51.0000 Y50.0000
 X-50.9808 Y50.1951
 X-50.9239 Y50.3827
 X-50.8315 Y50.5556
 X-50.7071 Y50.7071
 X-50.5556 Y50.8315
 X-50.3827 Y50.9239
 X-50.1951 Y50.9808
 X-50.0000 Y51.0000
 X-49.8049 Y50.9808
 X-49.6173 Y50.9239
 X-49.4444 Y50.8315
 X-49.2929 Y50.7071
 X-49.1685 Y50.5556
 X-49.0761 Y50.3827
 X-49.0192 Y50.1951
 X-49.0000 Y50.0000
G0 Z25.0000
 Y40.0000
G1 Z0.0000
 X-49.0192 Y39.8049
 X-49.0761 Y39.6173
 X-49.1685 Y39.4444
 X-49.2929 Y39.2929
 X-49.4444 Y39.1685
 X-49.6173 Y39.0761
 X-49.8049 Y39.0192
 X-50.0000 Y39.0000
 X-50.1951 Y39.0192
 X-50.3827 Y39.0761
 X-50.5556 Y39.1685
 X-50.7071 Y39.2929
 X-50.8315 Y39.4444
 X-50.9239 Y39.6173
 X-50.9808 Y39.8049
 X-51.0000 Y40.0000
 X-50.9808 Y40.1951
 X-50.9239 Y40.3827
 X-50.8315 Y40.5556
 X-50.7071 Y40.7071
 X-50.5556 Y40.8315
 X-50.3827 Y40.9239
 X-50.1951 Y40.9808
 X-50.0000 Y41.0000
 X-49.8049 Y40.9808
 X-49.6173 Y40.9239
 X-49.4444 Y40.8315
 X-49.2929 Y40.7071
 X-49.1685 Y40.5556
 X-49.0761 Y40.3827
 X-49.0192 Y40.1951
 X-49.0000 Y40.0000
G0 Z25.0000
 Y30.0000
G1 Z0.0000
 X-49.0192 Y29.8049
 X-49.0761 Y29.6173
 X-49.1685 Y29.4444
 X-49.2929 Y29.2929
 X-49.4444 Y29.1685
 X-49.6173 Y29.0761
 X-49.8049 Y29.0192
 X-50.0000 Y29.0000
 X-50.1951 Y29.0192
 X-50.3827 Y29.0761
 X-50.5556 Y29.1685
 X-50.7071 Y29.2929
 X-50.8315 Y29.4444
 X-50.9239 Y29.6173
 X-50.9808 Y29.8049
 X-51.0000 Y30.0000
 X-50.9808 Y30.1951
 X-50.9239 Y30.3827
 X-50.8315 Y30.5556
 X-50.7071 Y30.7071
 X-50.5556 Y30.8315
 X-50.3827 Y30.9239
 X-50.1951 Y30.9808
 X-50.0000 Y31.0000
 X-49.8049 Y30.9808
 X-49.6173 Y30.9239
 X-49.4444 Y30.8315
 X-49.2929 Y30.7071
 X-49.1685 Y30.5556
 X-49.0761 Y30.3827
 X-49.0192 Y30.1951
 X-49.0000 Y30.0000
G0 Z25.0000
 Y20.0000
G1 Z0.0000
 X-49.0192 Y19.8049
 X-49.0761 Y19.6173
 X-49.1685 Y19.4444
 X-49.2929 Y19.2929
 X-49.4444 Y19.1685
 X-49.6173 Y19.0761
 X-49.8049 Y19.0192
 X-50.0000 Y19.0000
 X-50.1951 Y19.0192
 X-50.3827 Y19.0761
 X-50.5556 Y19.1685
 X-50.7071 Y19.2929
 X-50.8315 Y19.4444
 X-50.9239 Y19.6173
 X-50.9808 Y19.8049
 X-51.0000 Y20.0000
 X-50.9808 Y20.1951
 X-50.9239 Y20.3827
 X-50.8315 Y20.5556
 X-50.7071 Y20.7071
 X-50.5556 Y20.8315
 X-50.3827 Y20.9239
 X-50.1951 Y20.9808
 X-50.0000 Y21.0000
 X-49.8049 Y20.9808
 X-49.6173 Y20.9239
 X-49.4444 Y20.8315
 X-49.2929 Y20.7071
 X-49.1685 Y20.5556
 X-49.0761 Y20.3827
 X-49.0192 Y20.1951
 X-49.0000 Y20.0000
G0 Z25.0000
 X-39.0000
G1 Z0.0000
 X-39.0192 Y19.8049
 X-39.0761 Y19.6173
 X-39.1685 Y19.4444
 X-39.2929 Y19.2929
 X-39.4444 Y19.1685
 X-39.6173 Y19.0761
 X-39.8049 Y19.0192
 X-40.0000 Y19.0000
 X-40.1951 Y19.0192
 X-40.3827 Y19.0761
 X-40.5556 Y19.1685
 X-40.7071 Y19.2929
 X-40.8315 Y19.4444
 X-40.9239 Y19.6173
 X-40.9808 Y19.8049
 X-41.0000 Y20.0000
 X-40.9808 Y20.1951
 X-40.9239 Y20.3827
 X-40.8315 Y20.5556
 X-40.7071 Y20.7071
 X-40.5556 Y20.8315
 X-40.3827 Y20.9239
 X-40.1951 Y20.9808
 X-40.0000 Y21.0000
 X-39.8049 Y20.9808
 X-39.6173 Y20.9239
 X-39.4444 Y20.8315
 X-39.2929 Y20.7071
 X-39.1685 Y20.5556
 X-39.0761 Y20.3827
 X-39.0192 Y20.1951
 X-39.0000 Y20.0000
G0 Z25.0000
 Y30.0000
G1 Z0.0000
 X-39.0192 Y29.8049
 X-39.0761 Y29.6173
 X-39.1685 Y29.4444
 X-39.2929 Y29.2929
 X-39.4444 Y29.1685
 X-39.6173 Y29.0761
 X-39.8049 Y29.0192
 X-40.0000 Y29.0000
 X-40.1951 Y29.0192
 X-40.3827 Y29.0761
 X-40.5556 Y29.1685
 X-40.7071 Y29.2929
 X-40.8315 Y29.4444
 X-40.9239 Y29.6173
 X-40.9808 Y29.8049
 X-41.0000 Y30.0000
 X-40.9808 Y30.1951
 X-40.9239 Y30.3827
 X-40.8315 Y30.5556
 X-40.7071 Y30.7071
 X-40.5556 Y30.8315
 X-40.3827 Y30.9239
 X-40.1951 Y30.9808
 X-40.0000 Y31.0000
 X-39.8049 Y30.9808
 X-39.6173 Y30.9239
 X-39.4444 Y30.8315
 X-39.2929 Y30.7071
 X-39.1685 Y30.5556
 X-39.0761 Y30.3827
 X-39.0192 Y30.1951
 X-39.0000 Y30.0000
G0 Z25.0000
 X-29.0000
G1 Z0.0000
 X-29.0192 Y29.8049
 X-29.0761 Y29.6173
 X-29.1685 Y29.4444
 X-29.2929 Y29.2929
 X-29.4444 Y29.1685
 X-29.6173 Y29.0761
 X-29.8049 Y29.0192
 X-30.0000 Y29.0000
 X-30.1951 Y29.0192
 X-30.3827 Y29.0761
 X-30.5556 Y29.1685
 X-30.7071 Y29.2929
 X-30.8315 Y29.4444
 X-30.9239 Y29.6173
 X-30.9808 Y29.8049
 X-31.0000 Y30.0000
 X-30.9808 Y30.1951
 X-30.9239 Y30.3827
 X-30.8315 Y30.5556
 X-30.7071 Y30.7071
 X-30.5556 Y30.8315
 X-30.3827 Y30.9239
 X-30.1951 Y30.9808
 X-30.0000 Y31.0000
 X-29.8049 Y30.9808
 X-29.6173 Y30.9239
 X-29.4444 Y30.8315
 X-29.2929 Y30.7071
 X-29.1685 Y30.5556
 X-29.0761 Y30.3827
 X-29.0192 Y30.1951
 X-29.0000 Y30.0000
G0 Z25.0000
 Y40.0000
G1 Z0.0000
 X-29.0192 Y39.8049
 X-29.0761 Y39.6173
 X-29.1685 Y39.4444
 X-29.2929 Y39.2929
 X-29.4444 Y39.1685
 X-29.6173 Y39.0761
 X-29.8049 Y39.0192
 X-30.0000 Y39.0000
 X-30.1951 Y39.0192
 X-30.3827 Y39.0761
 X-30.5556 Y39.1685
 X-30.7071 Y39.2929
 X-30.8315 Y39.4444
 X-30.9239 Y39.6173
 X-30.9808 Y39.8049
 X-31.0000 Y40.0000
 X-30.9808 Y40.1951
 X-30.9239 Y40.3827
 X-30.8315 Y40.5556
 X-30.7071 Y40.7071
 X-30.5556 Y40.8315
 X-30.3827 Y40.9239
 X-30.1951 Y40.9808
 X-30.0000 Y41.0000
 X-29.8049 Y40.9808
 X-29.6173 Y40.9239
 X-29.4444 Y40.8315
 X-29.2929 Y40.7071
 X-29.1685 Y40.5556
 X-29.0761 Y40.3827
 X-29.0192 Y40.1951
 X-29.0000 Y40.0000
G0 Z25.0000
 Y50.0000
G1 Z0.0000
 X-29.0192 Y49.8049
 X-29.0761 Y49.6173
 X-29.1685 Y49.4444
 X-29.2929 Y49.2929
 X-29.4444 Y49.1685
 X-29.6173 Y49.0761
 X-29.8049 Y49.0192
 X-30.0000 Y49.0000
 X-30.1951 Y49.0192
 X-30.3827 Y49.0761
 X-30.5556 Y49.1685
 X-30.7071 Y49.2929
 X-30.8315 Y49.4444
 X-30.9239 Y49.6173
 X-30.9808 Y49.8049
 X-31.0000 Y50.0000
 X-30.9808 Y50.1951
 X-30.9239 Y50.3827
 X-30.8315 Y50.5556
 X-30.7071 Y50.7071
 X-30.5556 Y50.8315
 X-30.3827 Y50.9239
 X-30.1951 Y50.9808
 X-30.0000 Y51.0000
 X-29.8049 Y50.9808
 X-29.6173 Y50.9239
 X-29.4444 Y50.8315
 X-29.2929 Y50.7071
 X-29.1685 Y50.5556
 X-29.0761 Y50.3827
 X-29.0192 Y50.1951
 X-29.0000 Y50.0000
G0 Z25.0000
 X-19.0000
G1 Z0.0000
 X-19.0192 Y49.8049
 X-19.0761 Y49.6173
 X-19.1685 Y49.4444
 X-19.2929 Y49.2929
 X-19.4444 Y49.1685
 X-19.6173 Y49.0761
 X-19.8049 Y49.0192
 X-20.0000 Y49.0000
 X-20.1951 Y49.0192
 X-20.3827 Y49.0761
 X-20.5556 Y49.1685
 X-20.7071 Y49.2929
 X-20.8315 Y49.4444
 X-20.9239 Y49.6173
 X-20.9808 Y49.8049
 X-21.0000 Y50.0000
 X-20.9808 Y50.1951
 X-20.9239 Y50.3827
 X-20.8315 Y50.5556
 X-20.7071 Y50.7071
 X-20.5556 Y50.8315
 X-20.3827 Y50.9239
 X-20.1951 Y50.9808
 X-20.0000 Y51.0000
 X-19.8049 Y50.9808
 X-19.6173 Y50.9239
 X-19.4444 Y50.8315
 X-19.2929 Y50.7071
 X-19.1685 Y50.5556
 X-19.0761 Y50.3827
 X-19.0192 Y50.1951
 X-19.0000 Y50.0000
G0 Z25.0000
 X-9.0000
G1 Z0.0000
 X-9.0192 Y49.8049
 X-9.0761 Y49.6173
 X-9.1685 Y49.4444
 X-9.2929 Y49.2929
 X-9.4444 Y49.1685
 X-9.6173 Y49.0761
 X-9.8049 Y49.0192
 X-10.0000 Y49.0000
 X-10.1951 Y49.0192
 X-10.3827 Y49.0761
 X-10.5556 Y49.1685
 X-10.7071 Y49.2929
 X-10.8315 Y49.4444
 X-10.9239 Y49.6173
 X-10.9808 Y49.8049
 X-11.0000 Y50.0000
 X-10.9808 Y50.1951
 X-10.9239 Y50.3827
 X-10.8315 Y50.5556
 X-10.7071 Y50.7071
 X-10.5556 Y50.8315
 X-10.3827 Y50.9239
 X-10.1951 Y50.9808
 X-10.0000 Y51.0000
 X-9.8049 Y50.9808
 X-9.6173 Y50.9239
 X-9.4444 Y50.8315
 X-9.2929 Y50.7071
 X-9.1685 Y50.5556
 X-9.0761 Y50.3827
 X-9.0192 Y50.1951
 X-9.0000 Y50.0000
G0 Z25.0000
 Y40.0000
G1 Z0.0000
 X-9.0192 Y39.8049
 X-9.0761 Y39.6173
 X-9.1685 Y39.4444
 X-9.2929 Y39.2929
 X-9.4444 Y39.1685
 X-9.6173 Y39.0761
 X-9.8049 Y39.0192
 X-10.0000 Y39.0000
 X-10.1951 Y39.0192
 X-10.3827 Y39.0761
 X-10.5556 Y39.1685
 X-10.7071 Y39.2929
 X-10.8315 Y39.4444
 X-10.9239 Y39.6173
 X-10.9808 Y39.8049
 X-11.0000 Y40.0000
 X-10.9808 Y40.1951
 X-10.9239 Y40.3827
 X-10.8315 Y40.5556
 X-10.7071 Y40.7071
 X-10.5556 Y40.8315
 X-10.3827 Y40.9239
 X-10.1951 Y40.9808
 X-10.0000 Y41.0000
 X-9.8049 Y40.9808
 X-9.6173 Y40.9239
 X-9.4444 Y40.8315
 X-9.2929 Y40.7071
 X-9.1685 Y40.5556
 X-9.0761 Y40.3827
 X-9.0192 Y40.1951
 X-9.0000 Y40.0000
G0 Z25.0000
 X1.0000 Y30.0000
G1 Z0.0000
 X0.9808 Y29.8049
 X0.9239 Y29.6173
 X0.8315 Y29.4444
 X0.7071 Y29.2929
 X0.5556 Y29.1685
 X0.3827 Y29.0761
 X0.1951 Y29.0192
 X-0.0000 Y29.0000
 X-0.1951 Y29.0192
 X-0.3827 Y29.0761
 X-0.5556 Y29.1685
 X-0.7071 Y29.2929
 X-0.8315 Y29.4444
 X-0.9239 Y29.6173
 X-0.9808 Y29.8049
 X-1.0000 Y30.0000
 X-0.9808 Y30.1951
 X-0.9239 Y30.3827
 X-0.8315 Y30.5556
 X-0.7071 Y30.7071
 X-0.5556 Y30.8315
 X-0.3827 Y30.9239
 X-0.1951 Y30.9808
 X0.0000 Y31.0000
 X0.1951 Y30.9808
 X0.3827 Y30.9239
 X0.5556 Y30.8315
 X0.7071 Y30.7071
 X0.8315 Y30.5556
 X0.9239 Y30.3827
 X0.9808 Y30.1951
 X1.0000 Y30.0000
G0 Z25.0000
 Y40.0000
G1 Z0.0000
 X0.9808 Y39.8049
 X0.9239 Y39.6173
 X0.8315 Y39.4444
 X0.7071 Y39.2929
 X0.5556 Y39.1685
 X0.3827 Y39.0761
 X0.1951 Y39.0192
 X-0.0000 Y39.0000
 X-0.1951 Y39.0192
 X-0.3827 Y39.0761
 X-0.5556 Y39.1685
 X-0.7071 Y39.2929
 X-0.8315 Y39.4444
 X-0.9239 Y39.6173
 X-0.9808 Y39.8049
 X-1.0000 Y40.0000
 X-0.9808 Y40.1951
 X-0.9239 Y40.3827
 X-0.8315 Y40.5556
 X-0.7071 Y40.7071
 X-0.5556 Y40.8315
 X-0.3827 Y40.9239
 X-0.1951 Y40.9808
 X0.0000 Y41.0000
 X0.1951 Y40.9808
 X0.3827 Y40.9239
 X0.5556 Y40.8315
 X0.7071 Y40.7071
 X0.8315 Y40.5556
 X0.9239 Y40.3827
 X0.9808 Y40.1951
 X1.0000 Y40.0000
G0 Z25.0000
 Y50.0000
G1 Z0.0000
 X0.9808 Y49.8049
 X0.9239 Y49.6173
 X0.8315 Y49.4444
 X0.7071 Y49.2929
 X0.5556 Y49.1685
 X0.3827 Y49.0761
 X0.1951 Y49.0192
 X-0.0000 Y49.0000
 X-0.1951 Y49.0192
 X-0.3827 Y49.0761
 X-0.5556 Y49.1685
 X-0.7071 Y49.2929
 X-0.8315 Y49.4444
 X-0.9239 Y49.6173
 X-0.9808 Y49.8049
 X-1.0000 Y50.0000
 X-0.9808 Y50.1951
 X-0.9239 Y50.3827
 X-0.8315 Y50.5556
 X-0.7071 Y50.7071
 X-0.5556 Y50.8315
 X-0.3827 Y50.9239
 X-0.1951 Y50.9808
 X0.0000 Y51.0000
 X0.1951 Y50.9808
 X0.3827 Y50.9239
 X0.5556 Y50.8315
 X0.7071 Y50.7071
 X0.8315 Y50.5556
 X0.9239 Y50.3827
 X0.9808 Y50.1951
 X1.0000 Y50.0000
G0 Z25.0000
 X11.0000
G1 Z0.0000
 X10.9808 Y49.8049
 X10.9239 Y49.6173
 X10.8315 Y49.4444
 X10.7071 Y49.2929
 X10.5556 Y49.1685
 X10.3827 Y49.0761
 X10.1951 Y49.0192
 X10.0000 Y49.0000
 X9.8049 Y49.0192
 X9.6173 Y49.0761
 X9.4444 Y49.1685
 X9.2929 Y49.2929
 X9.1685 Y49.4444
 X9.0761 Y49.6173
 X9.0192 Y49.8049
 X9.0000 Y50.0000
 X9.0192 Y50.1951
 X9.0761 Y50.3827
 X9.1685 Y50.5556
 X9.2929 Y50.7071
 X9.4444 Y50.8315
 X9.6173 Y50.9239
 X9.8049 Y50.9808
 X10.0000 Y51.0000
 X10.1951 Y50.9808
 X10.3827 Y50.9239
 X10.5556 Y50.8315
 X10.7071 Y50.7071
 X10.8315 Y50.5556
 X10.9239 Y50.3827
 X10.9808 Y50.1951
 X11.0000 Y50.0000
G0 Z25.0000
 Y40.0000
G1 Z0.0000
 X10.9808 Y39.8049
 X10.9239 Y39.6173
 X10.8315 Y39.4444
 X10.7071 Y39.2929
 X10.5556 Y39.1685
 X10.3827 Y39.0761
 X10.1951 Y39.0192
 X10.0000 Y39.0000
 X9.8049 Y39.0192
 X9.6173 Y39.0761
 X9.4444 Y39.1685
 X9.2929 Y39.2929
 X9.1685 Y39.4444
 X9.0761 Y39.6173
 X9.0192 Y39.8049
 X9.0000 Y40.0000
 X9.0192 Y40.1951
 X9.0761 Y40.3827
 X9.1685 Y40.5556
 X9.2929 Y40.7071
 X9.4444 Y40.8315
 X9.6173 Y40.9239
 X9.8049 Y40.9808
 X10.0000 Y41.0000
 X10.1951 Y40.9808
 X10.3827 Y40.9239
 X10.5556 Y40.8315
 X10.7071 Y40.7071
 X10.8315 Y40.5556
 X10.9239 Y40.3827
 X10.9808 Y40.1951
 X11.0000 Y40.0000
G0 Z25.0000
 X21.0000
G1 Z0.0000
 X20.9808 Y39.8049
 X20.9239 Y39.6173
 X20.8315 Y39.4444
 X20.7071 Y39.2929
 X20.5556 Y39.1685
 X20.3827 Y39.0761
 X20.1951 Y39.0192
 X20.0000 Y39.0000
 X19.8049 Y39.0192
 X19.6173 Y39.0761
 X19.4444 Y39.1685
 X19.2929 Y39.2929
 X19.1685 Y39.4444
 X19.0761 Y39.6173
 X19.0192 Y39.8049
 X19.0000 Y40.0000
 X19.0192 Y40.1951
 X19.0761 Y40.3827
 X19.1685 Y40.5556
 X19.2929 Y40.7071
 X19.4444 Y40.8315
 X19.6173 Y40.9239
 X19.8049 Y40.9808
 X20.0000 Y41.0000
 X20.1951 Y40.9808
 X20.3827 Y40.9239
 X20.5556 Y40.8315
 X20.7071 Y40.7071
 X20.8315 Y40.5556
 X20.9239 Y40.3827
 X20.9808 Y40.1951
 X21.0000 Y40.0000
G0 Z25.0000
 Y50.0000
G1 Z0.0000
 X20.9808 Y49.8049
 X20.9239 Y49.6173
 X20.8315 Y49.4444
 X20.7071 Y49.2929
 X20.5556 Y49.1685
 X20.3827 Y49.0761
 X20.1951 Y49.0192
 X20.0000 Y49.0000
 X19.8049 Y49.0192
 X19.6173 Y49.0761
 X19.4444 Y49.1685
 X19.2929 Y49.2929
 X19.1685 Y49.4444
 X19.0761 Y49.6173
 X19.0192 Y49.8049
 X19.0000 Y50.0000
 X19.0192 Y50.1951
 X19.0761 Y50.3827
 X19.1685 Y50.5556
 X19.2929 Y50.7071
 X19.4444 Y50.8315
 X19.6173 Y50.9239
 X19.8049 Y50.9808
 X20.0000 Y51.0000
 X20.1951 Y50.9808
 X20.3827 Y50.9239
 X20.5556 Y50.8315
 X20.7071 Y50.7071
 X20.8315 Y50.5556
 X20.9239 Y50.3827
 X20.9808 Y50.1951
 X21.0000 Y50.0000
G0 Z25.0000
 X31.0000
G1 Z0.0000
 X30.9808 Y49.8049
 X30.9239 Y49.6173
 X30.8315 Y49.4444
 X30.7071 Y49.2929
 X30.5556 Y49.1685
 X30.3827 Y49.0761
 X30.1951 Y49.0192
 X30.0000 Y49.0000
 X29.8049 Y49.0192
 X29.6173 Y49.0761
 X29.4444 Y49.1685
 X29.2929 Y49.2929
 X29.1685 Y49.4444
 X29.0761 Y49.6173
 X29.0192 Y49.8049
 X29.0000 Y50.0000
 X29.0192 Y50.1951
 X29.0761 Y50.3827
 X29.1685 Y50.5556
 X29.2929 Y50.7071
 X29.4444 Y50.8315
 X29.6173 Y50.9239
 X29.8049 Y50.9808
 X30.0000 Y51.0000
 X30.1951 Y50.9808
 X30.3827 Y50.9239
 X30.5556 Y50.8315
 X30.7071 Y50.7071
 X30.8315 Y50.5556
 X30.9239 Y50.3827
 X30.9808 Y50.1951
 X31.0000 Y50.0000
G0 Z25.0000
 Y40.0000
G1 Z0.0000
 X30.9808 Y39.8049
 X30.9239 Y39.6173
 X30.8315 Y39.4444
 X30.7071 Y39.2929
 X30.5556 Y39.1685
 X30.3827 Y39.0761
 X30.1951 Y39.0192
 X30.0000 Y39.0000
 X29.8049 Y39.0192
 X29.6173 Y39.0761
 X29.4444 Y39.1685
 X29.2929 Y39.2929
 X29.1685 Y39.4444
 X29.0761 Y39.6173
 X29.0192 Y39.8049
 X29.0000 Y40.0000
 X29.0192 Y40.1951
 X29.0761 Y40.3827
 X29.1685 Y40.5556
 X29.2929 Y40.7071
 X29.4444 Y40.8315
 X29.6173 Y40.9239
 X29.8049 Y40.9808
 X30.0000 Y41.0000
 X30.1951 Y40.9808
 X30.3827 Y40.9239
 X30.5556 Y40.8315
 X30.7071 Y40.7071
 X30.8315 Y40.5556
 X30.9239 Y40.3827
 X30.9808 Y40.1951
 X31.0000 Y40.0000
G0 Z25.0000
 Y30.0000
G1 Z0.0000
 X30.9808 Y29.8049
 X30.9239 Y29.6173
 X30.8315 Y29.4444
 X30.7071 Y29.2929
 X30.5556 Y29.1685
 X30.3827 Y29.0761
 X30.1951 Y29.0192
 X30.0000 Y29.0000
 X29.8049 Y29.0192
 X29.6173 Y29.0761
 X29.4444 Y29.1685
 X29.2929 Y29.2929
 X29.1685 Y29.4444
 X29.0761 Y29.6173
 X29.0192 Y29.8049
 X29.0000 Y30.0000
 X29.0192 Y30.1951
 X29.0761 Y30.3827
 X29.1685 Y30.5556
 X29.2929 Y30.7071
 X29.4444 Y30.8315
 X29.6173 Y30.9239
 X29.8049 Y30.9808
 X30.0000 Y31.0000
 X30.1951 Y30.9808
 X30.3827 Y30.9239
 X30.5556 Y30.8315
 X30.7071 Y30.7071
 X30.8315 Y30.5556
 X30.9239 Y30.3827
 X30.9808 Y30.1951
 X31.0000 Y30.0000
G0 Z25.0000
 X41.0000 Y20.0000
G1 Z0.0000
 X40.9808 Y19.8049
 X40.9239 Y19.6173
 X40.8315 Y19.4444
 X40.7071 Y19.2929
 X40.5556 Y19.1685
 X40.3827 Y19.0761
 X40.1951 Y19.0192
 X40.0000 Y19.0000
 X39.8049 Y19.0192
 X39.6173 Y19.0761
 X39.4444 Y19.1685
 X39.2929 Y19.2929
 X39.1685 Y19.4444
 X39.0761 Y19.6173
 X39.0192 Y19.8049
 X39.0000 Y20.0000
 X39.0192 Y20.1951
 X39.0761 Y20.3827
 X39.1685 Y20.5556
 X39.2929 Y20.7071
 X39.4444 Y20.8315
 X39.6173 Y20.9239
 X39.8049 Y20.9808
 X40.0000 Y21.0000
 X40.1951 Y20.9808
 X40.3827 Y20.9239
 X40.5556 Y20.8315
 X40.7071 Y20.7071
 X40.8315 Y20.5556
 X40.9239 Y20.3827
 X40.9808 Y20.1951
 X41.0000 Y20.0000
G0 Z25.0000
 Y30.0000
G1 Z0.0000
 X40.9808 Y29.8049
 X40.9239 Y29.6173
 X40.8315 Y29.4444
 X40.7071 Y29.2929
 X40.5556 Y29.1685
 X40.3827 Y29.0761
 X40.1951 Y29.0192
 X40.0000 Y29.0000
 X39.8049 Y29.0192
 X39.6173 Y29.0761
 X39.4444 Y29.1685
 X39.2929 Y29.2929
 X39.1685 Y29.4444
 X39.0761 Y29.6173
 X39.0192 Y29.8049
 X39.0000 Y30.0000
 X39.0192 Y30.1951
 X39.0761 Y30.3827
 X39.1685 Y30.5556
 X39.2929 Y30.7071
 X39.4444 Y30.8315
 X39.6173 Y30.9239
 X39.8049 Y30.9808
 X40.0000 Y31.0000
 X40.1951 Y30.9808
 X40.3827 Y30.9239
 X40.5556 Y30.8315
 X40.7071 Y30.7071
 X40.8315 Y30.5556
 X40.9239 Y30.3827
 X40.9808 Y30.1951
 X41.0000 Y30.0000
G0 Z25.0000
 Y40.0000
G1 Z0.0000
 X40.9808 Y39.8049
 X40.9239 Y39.6173
 X40.8315 Y39.4444
 X40.7071 Y39.2929
 X40.5556 Y39.1685
 X40.3827 Y39.0761
 X40.1951 Y39.0192
 X40.0000 Y39.0000
 X39.8049 Y39.0192
 X39.6173 Y39.0761
 X39.4444 Y39.1685
 X39.2929 Y39.2929
 X39.1685 Y39.4444
 X39.0761 Y39.6173
 X39.0192 Y39.8049
 X39.0000 Y40.0000
 X39.0192 Y40.1951
 X39.0761 Y40.3827
 X39.1685 Y40.5556
 X39.2929 Y40.7071
 X39.4444 Y40.8315
 X39.6173 Y40.9239
 X39.8049 Y40.9808
 X40.0000 Y41.0000
 X40.1951 Y40.9808
 X40.3827 Y40.9239
 X40.5556 Y40.8315
 X40.7071 Y40.7071
 X40.8315 Y40.5556
 X40.9239 Y40.3827
 X40.9808 Y40.1951
 X41.0000 Y40.0000
G0 Z25.0000
 Y50.0000
G1 Z0.0000
 X40.9808 Y49.8049
 X40.9239 Y49.6173
 X40.8315 Y49.4444
 X40.7071 Y49.2929
 X40.5556 Y49.1685
 X40.3827 Y49.0761
 X40.1951 Y49.0192
 X40.0000 Y49.0000
 X39.8049 Y49.0192
 X39.6173 Y49.0761
 X39.4444 Y49.1685
 X39.2929 Y49.2929
 X39.1685 Y49.4444
 X39.0761 Y49.6173
 X39.0192 Y49.8049
 X39.0000 Y50.0000
 X39.0192 Y50.1951
 X39.0761 Y50.3827
 X39.1685 Y50.5556
 X39.2929 Y50.7071
 X39.4444 Y50.8315
 X39.6173 Y50.9239
 X39.8049 Y50.9808
 X40.0000 Y51.0000
 X40.1951 Y50.9808
 X40.3827 Y50.9239
 X40.5556 Y50.8315
 X40.7071 Y50.7071
 X40.8315 Y50.5556
 X40.9239 Y50.3827
 X40.9808 Y50.1951
 X41.0000 Y50.0000
G0 Z25.0000
 X51.0000
G1 Z0.0000
 X50.9808 Y49.8049
 X50.9239 Y49.6173
 X50.8315 Y49.4444
 X50.7071 Y49.2929
 X50.5556 Y49.1685
 X50.3827 Y49.0761
 X50.1951 Y49.0192
 X50.0000 Y49.0000
 X49.8049 Y49.0192
 X49.6173 Y49.0761
 X49.4444 Y49.1685
 X49.2929 Y49.2929
 X49.1685 Y49.4444
 X49.0761 Y49.6173
 X49.0192 Y49.8049
 X49.0000 Y50.0000
 X49.0192 Y50.1951
 X49.0761 Y50.3827
 X49.1685 Y50.5556
 X49.2929 Y50.7071
 X49.4444 Y50.8315
 X49.6173 Y50.9239
 X49.8049 Y50.9808
 X50.0000 Y51.0000
 X50.1951 Y50.9808
 X50.3827 Y50.9239
 X50.5556 Y50.8315
 X50.7071 Y50.7071
 X50.8315 Y50.5556
 X50.9239 Y50.3827
 X50.9808 Y50.1951
 X51.0000 Y50.0000
G0 Z25.0000
 Y40.0000
G1 Z0.0000
 X50.9808 Y39.8049
 X50.9239 Y39.6173
 X50.8315 Y39.4444
 X50.7071 Y39.2929
 X50.5556 Y39.1685
 X50.3827 Y39.0761
 X50.1951 Y39.0192
 X50.0000 Y39.0000
 X49.8049 Y39.0192
 X49.6173 Y39.0761
 X49.4444 Y39.1685
 X49.2929 Y39.2929
 X49.1685 Y39.4444
 X49.0761 Y39.6173
 X49.0192 Y39.8049
 X49.0000 Y40.0000
 X49.0192 Y40.1951
 X49.0761 Y40.3827
 X49.1685 Y40.5556
 X49.2929 Y40.7071
 X49.4444 Y40.8315
 X49.6173 Y40.9239
 X49.8049 Y40.9808
 X50.0000 Y41.0000
 X50.1951 Y40.9808
 X50.3827 Y40.9239
 X50.5556 Y40.8315
 X50.7071 Y40.7071
 X50.8315 Y40.5556
 X50.9239 Y40.3827
 X50.9808 Y40.1951
 X51.0000 Y40.0000
G0 Z25.0000
 Y30.0000
G1 Z0.0000
 X50.9808 Y29.8049
 X50.9239 Y29.6173
 X50.8315 Y29.4444
 X50.7071 Y29.2929
 X50.5556 Y29.1685
 X50.3827 Y29.0761
 X50.1951 Y29.0192
 X50.0000 Y29.0000
 X49.8049 Y29.0192
 X49.6173 Y29.0761
 X49.4444 Y29.1685
 X49.2929 Y29.2929
 X49.1685 Y29.4444
 X49.0761 Y29.6173
 X49.0192 Y29.8049
 X49.0000 Y30.0000
 X49.0192 Y30.1951
 X49.0761 Y30.3827
 X49.1685 Y30.5556
 X49.2929 Y30.7071
 X49.4444 Y30.8315
 X49.6173 Y30.9239
 X49.8049 Y30.9808
 X50.0000 Y31.0000
 X50.1951 Y30.9808
 X50.3827 Y30.9239
 X50.5556 Y30.8315
 X50.7071 Y30.7071
 X50.8315 Y30.5556
 X50.9239 Y30.3827
 X50.9808 Y30.1951
 X51.0000 Y30.0000
G0 Z25.0000
 Y20.0000
G1 Z0.0000
 X50.9808 Y19.8049
 X50.9239 Y19.6173
 X50.8315 Y19.4444
 X50.7071 Y19.2929
 X50.5556 Y19.1685
 X50.3827 Y19.0761
 X50.1951 Y19.0192
 X50.0000 Y19.0000
 X49.8049 Y19.0192
 X49.6173 Y19.0761
 X49.4444 Y19.1685
 X49.2929 Y19.2929
 X49.1685 Y19.4444
 X49.0761 Y19.6173
 X49.0192 Y19.8049
 X49.0000 Y20.0000
 X49.0192 Y20.1951
 X49.0761 Y20.3827
 X49.1685 Y20.5556
 X49.2929 Y20.7071
 X49.4444 Y20.8315
 X49.6173 Y20.9239
 X49.8049 Y20.9808
 X50.0000 Y21.0000
 X50.1951 Y20.9808
 X50.3827 Y20.9239
 X50.5556 Y20.8315
 X50.7071 Y20.7071
 X50.8315 Y20.5556
 X50.9239 Y20.3827
 X50.9808 Y20.1951
 X51.0000 Y20.0000
G0 Z25.0000
 Y10.0000
G1 Z0.0000
 X50.9808 Y9.8049
 X50.9239 Y9.6173
 X50.8315 Y9.4444
 X50.7071 Y9.2929
 X50.5556 Y9.1685
 X50.3827 Y9.0761
 X50.1951 Y9.0192
 X50.0000 Y9.0000
 X49.8049 Y9.0192
 X49.6173 Y9.0761
 X49.4444 Y9.1685
 X49.2929 Y9.2929
 X49.1685 Y9.4444
 X49.0761 Y9.6173
 X49.0192 Y9.8049
 X49.0000 Y10.0000
 X49.0192 Y10.1951
 X49.0761 Y10.3827
 X49.1685 Y10.5556
 X49.2929 Y10.7071
 X49.4444 Y10.8315
 X49.6173 Y10.9239
 X49.8049 Y10.9808
 X50.0000 Y11.0000
 X50.1951 Y10.9808
 X50.3827 Y10.9239
 X50.5556 Y10.8315
 X50.7071 Y10.7071
 X50.8315 Y10.5556
 X50.9239 Y10.3827
 X50.9808 Y10.1951
 X51.0000 Y10.0000
G0 Z25.0000
 X41.0000
G1 Z0.0000
 X40.9808 Y9.8049
 X40.9239 Y9.6173
 X40.8315 Y9.4444
 X40.7071 Y9.2929
 X40.5556 Y9.1685
 X40.3827 Y9.0761
 X40.1951 Y9.0192
 X40.0000 Y9.0000
 X39.8049 Y9.0192
 X39.6173 Y9.0761
 X39.4444 Y9.1685
 X39.2929 Y9.2929
 X39.1685 Y9.4444
 X39.0761 Y9.6173
 X39.0192 Y9.8049
 X39.0000 Y10.0000
 X39.0192 Y10.1951
 X39.0761 Y10.3827
 X39.1685 Y10.5556
 X39.2929 Y10.7071
 X39.4444 Y10.8315
 X39.6173 Y10.9239
 X39.8049 Y10.9808
 X40.0000 Y11.0000
 X40.1951 Y10.9808
 X40.3827 Y10.9239
 X40.5556 Y10.8315
 X40.7071 Y10.7071
 X40.8315 Y10.5556
 X40.9239 Y10.3827
 X40.9808 Y10.1951
 X41.0000 Y10.0000
G0 Z25.0000
 X31.0000
G1 Z0.0000
 X30.9808 Y9.8049
 X30.9239 Y9.6173
 X30.8315 Y9.4444
 X30.7071 Y9.2929
 X30.5556 Y9.1685
 X30.3827 Y9.0761
 X30.1951 Y9.0192
 X30.0000 Y9.0000
 X29.8049 Y9.0192
 X29.6173 Y9.0761
 X29.4444 Y9.1685
 X29.2929 Y9.2929
 X29.1685 Y9.4444
 X29.0761 Y9.6173
 X29.0192 Y9.8049
 X29.0000 Y10.0000
 X29.0192 Y10.1951
 X29.0761 Y10.3827
 X29.1685 Y10.5556
 X29.2929 Y10.7071
 X29.4444 Y10.8315
 X29.6173 Y10.9239
 X29.8049 Y10.9808
 X30.0000 Y11.0000
 X30.1951 Y10.9808
 X30.3827 Y10.9239
 X30.5556 Y10.8315
 X30.7071 Y10.7071
 X30.8315 Y10.5556
 X30.9239 Y10.3827
 X30.9808 Y10.1951
 X31.0000 Y10.0000
G0 Z25.0000
 Y20.0000
G1 Z0.0000
 X30.9808 Y19.8049
 X30.9239 Y19.6173
 X30.8315 Y19.4444
 X30.7071 Y19.2929
 X30.5556 Y19.1685
 X30.3827 Y19.0761
 X30.1951 Y19.0192
 X30.0000 Y19.0000
 X29.8049 Y19.0192
 X29.6173 Y19.0761
 X29.4444 Y19.1685
 X29.2929 Y19.2929
 X29.1685 Y19.4444
 X29.0761 Y19.6173
 X29.0192 Y19.8049
 X29.0000 Y20.0000
 X29.0192 Y20.1951
 X29.0761 Y20.3827
 X29.1685 Y20.5556
 X29.2929 Y20.7071
 X29.4444 Y20.8315
 X29.6173 Y20.9239
 X29.8049 Y20.9808
 X30.0000 Y21.0000
 X30.1951 Y20.9808
 X30.3827 Y20.9239
 X30.5556 Y20.8315
 X30.7071 Y20.7071
 X30.8315 Y20.5556
 X30.9239 Y20.3827
 X30.9808 Y20.1951
 X31.0000 Y20.0000
G0 Z25.0000
 X21.0000
G1 Z0.0000
 X20.9808 Y19.8049
 X20.9239 Y19.6173
 X20.8315 Y19.4444
 X20.7071 Y19.2929
 X20.5556 Y19.1685
 X20.3827 Y19.0761
 X20.1951 Y19.0192
 X20.0000 Y19.0000
 X19.8049 Y19.0192
 X19.6173 Y19.0761
 X19.4444 Y19.1685
 X19.2929 Y19.2929
 X19.1685 Y19.4444
 X19.0761 Y19.6173
 X19.0192 Y19.8049
 X19.0000 Y20.0000
 X19.0192 Y20.1951
 X19.0761 Y20.3827
 X19.1685 Y20.5556
 X19.2929 Y20.7071
 X19.4444 Y20.8315
 X19.6173 Y20.9239
 X19.8049 Y20.9808
 X20.0000 Y21.0000
 X20.1951 Y20.9808
 X20.3827 Y20.9239
 X20.5556 Y20.8315
 X20.7071 Y20.7071
 X20.8315 Y20.5556
 X20.9239 Y20.3827
 X20.9808 Y20.1951
 X21.0000 Y20.0000
G0 Z25.0000
 Y30.0000
G1 Z0.0000
 X20.9808 Y29.8049
 X20.9239 Y29.6173
 X20.8315 Y29.4444
 X20.7071 Y29.2929
 X20.5556 Y29.1685
 X20.3827 Y29.0761
 X20.1951 Y29.0192
 X20.0000 Y29.0000
 X19.8049 Y29.0192
 X19.6173 Y29.0761
 X19.4444 Y29.1685
 X19.2929 Y29.2929
 X19.1685 Y29.4444
 X19.0761 Y29.6173
 X19.0192 Y29.8049
 X19.0000 Y30.0000
 X19.0192 Y30.1951
 X19.0761 Y30.3827
 X19.1685 Y30.5556
 X19.2929 Y30.7071
 X19.4444 Y30.8315
 X19.6173 Y30.9239
 X19.8049 Y30.9808
 X20.0000 Y31.0000
 X20.1951 Y30.9808
 X20.3827 Y30.9239
 X20.5556 Y30.8315
 X20.7071 Y30.7071
 X20.8315 Y30.5556
 X20.9239 Y30.3827
 X20.9808 Y30.1951
 X21.0000 Y30.0000
G0 Z25.0000
 X11.0000
G1 Z0.0000
 X10.9808 Y29.8049
 X10.9239 Y29.6173
 X10.8315 Y29.4444
 X10.7071 Y29.2929
 X10.5556 Y29.1685
 X10.3827 Y29.0761
 X10.1951 Y29.0192
 X10.0000 Y29.0000
 X9.8049 Y29.0192
 X9.6173 Y29.0761
 X9.4444 Y29.1685
 X9.2929 Y29.2929
 X9.1685 Y29.4444
 X9.0761 Y29.6173
 X9.0192 Y29.8049
 X9.0000 Y30.0000
 X9.0192 Y30.1951
 X9.0761 Y30.3827
 X9.1685 Y30.5556
 X9.2929 Y30.7071
 X9.4444 Y30.8315
 X9.6173 Y30.9239
 X9.8049 Y30.9808
 X10.0000 Y31.0000
 X10.1951 Y30.9808
 X10.3827 Y30.9239
 X10.5556 Y30.8315
 X10.7071 Y30.7071
 X10.8315 Y30.5556
 X10.9239 Y30.3827
 X10.9808 Y30.1951
 X11.0000 Y30.0000
G0 Z25.0000
 Y20.0000
G1 Z0.0000
 X10.9808 Y19.8049
 X10.9239 Y19.6173
 X10.8315 Y19.4444
 X10.7071 Y19.2929
 X10.5556 Y19.1685
 X10.3827 Y19.0761
 X10.1951 Y19.0192
 X10.0000 Y19.0000
 X9.8049 Y19.0192
 X9.6173 Y19.0761
 X9.4444 Y19.1685
 X9.2929 Y19.2929
 X9.1685 Y19.4444
 X9.0761 Y19.6173
 X9.0192 Y19.8049
 X9.0000 Y20.0000
 X9.0192 Y20.1951
 X9.0761 Y20.3827
 X9.1685 Y20.5556
 X9.2929 Y20.7071
 X9.4444 Y20.8315
 X9.6173 Y20.9239
 X9.8049 Y20.9808
 X10.0000 Y21.0000
 X10.1951 Y20.9808
 X10.3827 Y20.9239
 X10.5556 Y20.8315
 X10.7071 Y20.7071
 X10.8315 Y20.5556
 X10.9239 Y20.3827
 X10.9808 Y20.1951
 X11.0000 Y20.0000
G0 Z25.0000
 X1.0000
G1 Z0.0000
 X0.9808 Y19.8049
 X0.9239 Y19.6173
 X0.8315 Y19.4444
 X0.7071 Y19.2929
 X0.5556 Y19.1685
 X0.3827 Y19.0761
 X0.1951 Y19.0192
 X-0.0000 Y19.0000
 X-0.1951 Y19.0192
 X-0.3827 Y19.0761
 X-0.5556 Y19.1685
 X-0.7071 Y19.2929
 X-0.8315 Y19.4444
 X-0.9239 Y19.6173
 X-0.9808 Y19.8049
 X-1.0000 Y20.0000
 X-0.9808 Y20.1951
 X-0.9239 Y20.3827
 X-0.8315 Y20.5556
 X-0.7071 Y20.7071
 X-0.5556 Y20.8315
 X-0.3827 Y20.9239
 X-0.1951 Y20.9808
 X0.0000 Y21.0000
 X0.1951 Y20.9808
 X0.3827 Y20.9239
 X0.5556 Y20.8315
 X0.7071 Y20.7071
 X0.8315 Y20.5556
 X0.9239 Y20.3827
 X0.9808 Y20.1951
 X1.0000 Y20.0000
G0 Z25.0000
 Y10.0000
G1 Z0.0000
 X0.9808 Y9.8049
 X0.9239 Y9.6173
 X0.8315 Y9.4444
 X0.7071 Y9.2929
 X0.5556 Y9.1685
 X0.3827 Y9.0761
 X0.1951 Y9.0192
 X-0.0000 Y9.0000
 X-0.1951 Y9.0192
 X-0.3827 Y9.0761
 X-0.5556 Y9.1685
 X-0.7071 Y9.2929
 X-0.8315 Y9.4444
 X-0.9239 Y9.6173
 X-0.9808 Y9.8049
 X-1.0000 Y10.0000
 X-0.9808 Y10.1951
 X-0.9239 Y10.3827
 X-0.8315 Y10.5556
 X-0.7071 Y10.7071
 X-0.5556 Y10.8315
 X-0.3827 Y10.9239
 X-0.1951 Y10.9808
 X0.0000 Y11.0000
 X0.1951 Y10.9808
 X0.3827 Y10.9239
 X0.5556 Y10.8315
 X0.7071 Y10.7071
 X0.8315 Y10.5556
 X0.9239 Y10.3827
 X0.9808 Y10.1951
 X1.0000 Y10.0000
G0 Z25.0000
 Y-0.0000
G1 Z0.0000
 X0.9808 Y-0.1951
 X0.9239 Y-0.3827
 X0.8315 Y-0.5556
 X0.7071 Y-0.7071
 X0.5556 Y-0.8315
 X0.3827 Y-0.9239
 X0.1951 Y-0.9808
 X-0.0000 Y-1.0000
 X-0.1951 Y-0.9808
 X-0.3827 Y-0.9239
 X-0.5556 Y-0.8315
 X-0.7071 Y-0.7071
 X-0.8315 Y-0.5556
 X-0.9239 Y-0.3827
 X-0.9808 Y-0.1951
 X-1.0000 Y0.0000
 X-0.9808 Y0.1951
 X-0.9239 Y0.3827
 X-0.8315 Y0.5556
 X-0.7071 Y0.7071
 X-0.5556 Y0.8315
 X-0.3827 Y0.9239
 X-0.1951 Y0.9808
 X0.0000 Y1.0000
 X0.1951 Y0.9808
 X0.3827 Y0.9239
 X0.5556 Y0.8315
 X0.7071 Y0.7071
 X0.8315 Y0.5556
 X0.9239 Y0.3827
 X0.9808 Y0.1951
 X1.0000 Y-0.0000
G0 Z25.0000
 X10.0000
G1 Z0.0000
 X9.8079 Y-1.9509
 X9.2388 Y-3.8268
 X8.3147 Y-5.5557
 X7.0711 Y-7.0711
 X5.5557 Y-8.3147
 X3.8268 Y-9.2388
 X1.9509 Y-9.8079
 X-0.0000 Y-10.0000
 X-1.9509 Y-9.8079
 X-3.8268 Y-9.2388
 X-5.5557 Y-8.3147
 X-7.0711 Y-7.0711
 X-8.3147 Y-5.5557
 X-9.2388 Y-3.8268
 X-9.8079 Y-1.9509
 X-10.0000 Y0.0000
 X-9.8079 Y1.9509
 X-9.2388 Y3.8268
 X-8.3147 Y5.5557
 X-7.0711 Y7.0711
 X-5.5557 Y8.3147
 X-3.8268 Y9.2388
 X-1.9509 Y9.8079
 X0.0000 Y10.0000
 X1.9509 Y9.8079
 X3.8268 Y9.2388
 X5.5557 Y8.3147
 X7.0711 Y7.0711
 X8.3147 Y5.5557
 X9.2388 Y3.8268
 X9.8079 Y1.9509
 X10.0000 Y-0.0000
 X11.0000
 X10.9808 Y-0.1951
 X10.9239 Y-0.3827
 X10.8315 Y-0.5556
 X10.7071 Y-0.7071
 X10.5556 Y-0.8315
 X10.3827 Y-0.9239
 X10.1951 Y-0.9808
 X10.0000 Y-1.0000
 X9.8049 Y-0.9808
 X9.6173 Y-0.9239
 X9.4444 Y-0.8315
 X9.2929 Y-0.7071
 X9.1685 Y-0.5556
 X9.0761 Y-0.3827
 X9.0192 Y-0.1951
 X9.0000 Y0.0000
 X9.0192 Y0.1951
 X9.0761 Y0.3827
 X9.1685 Y0.5556
 X9.2929 Y0.7071
 X9.4444 Y0.8315
 X9.6173 Y0.9239
 X9.8049 Y0.9808
 X10.0000 Y1.0000
 X10.1951 Y0.9808
 X10.3827 Y0.9239
 X10.5556 Y0.8315
 X10.7071 Y0.7071
 X10.8315 Y0.5556
 X10.9239 Y0.3827
 X10.9808 Y0.1951
 X11.0000 Y-0.0000
G0 Z25.0000
 X21.0000
G1 Z0.0000
 X20.9808 Y-0.1951
 X20.9239 Y-0.3827
 X20.8315 Y-0.5556
 X20.7071 Y-0.7071
 X20.5556 Y-0.8315
 X20.3827 Y-0.9239
 X20.1951 Y-0.9808
 X20.0000 Y-1.0000
 X19.8049 Y-0.9808
 X19.6173 Y-0.9239
 X19.4444 Y-0.8315
 X19.2929 Y-0.7071
 X19.1685 Y-0.5556
 X19.0761 Y-0.3827
 X19.0192 Y-0.1951
 X19.0000 Y0.0000
 X19.0192 Y0.1951
 X19.0761 Y0.3827
 X19.1685 Y0.5556
 X19.2929 Y0.7071
 X19.4444 Y0.8315
 X19.6173 Y0.9239
 X19.8049 Y0.9808
 X20.0000 Y1.0000
 X20.1951 Y0.9808
 X20.3827 Y0.9239
 X20.5556 Y0.8315
 X20.7071 Y0.7071
 X20.8315 Y0.5556
 X20.9239 Y0.3827
 X20.9808 Y0.1951
 X21.0000 Y-0.0000
G0 Z25.0000
 Y10.0000
G1 Z0.0000
 X20.9808 Y9.8049
 X20.9239 Y9.6173
 X20.8315 Y9.4444
 X20.7071 Y9.2929
 X20.5556 Y9.1685
 X20.3827 Y9.0761
 X20.1951 Y9.0192
 X20.0000 Y9.0000
 X19.8049 Y9.0192
 X19.6173 Y9.0761
 X19.4444 Y9.1685
 X19.2929 Y9.2929
 X19.1685 Y9.4444
 X19.0761 Y9.6173
 X19.0192 Y9.8049
 X19.0000 Y10.0000
 X19.0192 Y10.1951
 X19.0761 Y10.3827
 X19.1685 Y10.5556
 X19.2929 Y10.7071
 X19.4444 Y10.8315
 X19.6173 Y10.9239
 X19.8049 Y10.9808
 X20.0000 Y11.0000
 X20.1951 Y10.9808
 X20.3827 Y10.9239
 X20.5556 Y10.8315
 X20.7071 Y10.7071
 X20.8315 Y10.5556
 X20.9239 Y10.3827
 X20.9808 Y10.1951
 X21.0000 Y10.0000
G0 Z25.0000
 X11.0000
G1 Z0.0000
 X10.9808 Y9.8049
 X10.9239 Y9.6173
 X10.8315 Y9.4444
 X10.7071 Y9.2929
 X10.5556 Y9.1685
 X10.3827 Y9.0761
 X10.1951 Y9.0192
 X10.0000 Y9.0000
 X9.8049 Y9.0192
 X9.6173 Y9.0761
 X9.4444 Y9.1685
 X9.2929 Y9.2929
 X9.1685 Y9.4444
 X9.0761 Y9.6173
 X9.0192 Y9.8049
 X9.0000 Y10.0000
 X9.0192 Y10.1951
 X9.0761 Y10.3827
 X9.1685 Y10.5556
 X9.2929 Y10.7071
 X9.4444 Y10.8315
 X9.6173 Y10.9239
 X9.8049 Y10.9808
 X10.0000 Y11.0000
 X10.1951 Y10.9808
 X10.3827 Y10.9239
 X10.5556 Y10.8315
 X10.7071 Y10.7071
 X10.8315 Y10.5556
 X10.9239 Y10.3827
 X10.9808 Y10.1951
 X11.0000 Y10.0000
G0 Z25.0000
 X20.0000 Y-0.0000
G1 Z0.0000
 X19.6157 Y-3.9018
 X18.4776 Y-7.6537
 X16.6294 Y-11.1114
 X14.1421 Y-14.1421
 X11.1114 Y-16.6294
 X7.6537 Y-18.4776
 X3.9018 Y-19.6157
 X-0.0000 Y-20.0000
 X-3.9018 Y-19.6157
 X-7.6537 Y-18.4776
 X-11.1114 Y-16.6294
 X-14.1421 Y-14.1421
 X-16.6294 Y-11.1114
 X-18.4776 Y-7.6537
 X-19.6157 Y-3.9018
 X-20.0000 Y0.0000
 X-19.6157 Y3.9018
 X-18.4776 Y7.6537
 X-16.6294 Y11.1114
 X-14.1421 Y14.1421
 X-11.1114 Y16.6294
 X-7.6537 Y18.4776
 X-3.9018 Y19.6157
 X0.0000 Y20.0000
 X3.9018 Y19.6157
 X7.6537 Y18.4776
 X11.1114 Y16.6294
 X14.1421 Y14.1421
 X16.6294 Y11.1114
 X18.4776 Y7.6537
 X19.6157 Y3.9018
 X20.0000 Y-0.0000
G0 Z25.0000
 X30.0000
G1 Z0.0000
 X29.4236 Y-5.8527
 X27.7164 Y-11.4805
 X24.9441 Y-16.6671
 X21.2132 Y-21.2132
 X16.6671 Y-24.9441
 X11.4805 Y-27.7164
 X5.8527 Y-29.4236
 X-0.0000 Y-30.0000
 X-5.8527 Y-29.4236
 X-11.4805 Y-27.7164
 X-16.6671 Y-24.9441
 X-21.2132 Y-21.2132
 X-24.9441 Y-16.6671
 X-27.7164 Y-11.4805
 X-29.4236 Y-5.8527
 X-30.0000 Y0.0000
 X-29.4236 Y5.8527
 X-27.7164 Y11.4805
 X-24.9441 Y16.6671
 X-21.2132 Y21.2132
 X-16.6671 Y24.9441
 X-11.4805 Y27.7164
 X-5.8527 Y29.4236
 X0.0000 Y30.0000
 X5.8527 Y29.4236
 X11.4805 Y27.7164
 X16.6671 Y24.9441
 X21.2132 Y21.2132
 X24.9441 Y16.6671
 X27.7164 Y11.4805
 X29.4236 Y5.8527
 X30.0000 Y-0.0000
G0 Z25.0000
 X40.0000
G1 Z0.0000
 X39.2314 Y-7.8036
 X36.9552 Y-15.3073
 X33.2588 Y-22.2228
 X28.2843 Y-28.2843
 X22.2228 Y-33.2588
 X15.3073 Y-36.9552
 X7.8036 Y-39.2314
 X-0.0000 Y-40.0000
 X-7.8036 Y-39.2314
 X-15.3073 Y-36.9552
 X-22.2228 Y-33.2588
 X-28.2843 Y-28.2843
 X-33.2588 Y-22.2228
 X-36.9552 Y-15.3073
 X-39.2314 Y-7.8036
 X-40.0000 Y0.0000
 X-39.2314 Y7.8036
 X-36.9552 Y15.3073
 X-33.2588 Y22.2228
 X-28.2843 Y28.2843
 X-22.2228 Y33.2588
 X-15.3073 Y36.9552
 X-7.8036 Y39.2314
 X0.0000 Y40.0000
 X7.8036 Y39.2314
 X15.3073 Y36.9552
 X22.2228 Y33.2588
 X28.2843 Y28.2843
 X33.2588 Y22.2228
 X36.9552 Y15.3073
 X39.2314 Y7.8036
 X40.0000 Y-0.0000
G0 Z25.0000
 X50.0000
G1 Z0.0000
 X49.0393 Y-9.7545
 X46.1940 Y-19.1342
 X41.5735 Y-27.7785
 X35.3553 Y-35.3553
 X27.7785 Y-41.5735
 X19.1342 Y-46.1940
 X9.7545 Y-49.0393
 X-0.0000 Y-50.0000
 X-9.7545 Y-49.0393
 X-19.1342 Y-46.1940
 X-27.7785 Y-41.5735
 X-35.3553 Y-35.3553
 X-41.5735 Y-27.7785
 X-46.1940 Y-19.1342
 X-49.0393 Y-9.7545
 X-50.0000 Y0.0000
 X-49.0393 Y9.7545
 X-46.1940 Y19.1342
 X-41.5735 Y27.7785
 X-35.3553 Y35.3553
 X-27.7785 Y41.5735
 X-19.1342 Y46.1940
 X-9.7545 Y49.0393
 X0.0000 Y50.0000
 X9.7545 Y49.0393
 X19.1342 Y46.1940
 X27.7785 Y41.5735
 X35.3553 Y35.3553
 X41.5735 Y27.7785
 X46.1940 Y19.1342
 X49.0393 Y9.7545
 X50.0000 Y-0.0000
G0 Z25.0000
M5 (stop spindle)
G04 P3 (wait for 3 seconds)
G0 Z25.0000
M2 (end program)
