;PYCAM-META-DATA: Filename: /tmp/trace/lenna2.dxf
;PYCAM-META-DATA: Timestamp: 2012-07-12 21:32:00.931795
;PYCAM-META-DATA: Version: 0.5.1
;Estimated machine time: 55 minutes
G40 (disable tool radius compensation)
G49 (disable tool length compensation)
G80 (cancel modal motion)
G54 (select coordinate system 1)
G90 (disable incremental moves)
G21 (metric)
G61 (exact path mode)
F200.00000
S1000.00000
;PYCAM_TOOLPATH_SETTINGS: START
;[Bounds]
;maxz = 0.0
;maxx = 47.708385
;maxy = 47.6016525
;minx = -47.729435
;miny = -47.8315775
;minz = 0.0
;
;[Tool]
;torus_radius = 0.25
;speed = 1000.0
;shape = SphericalCutter
;tool_radius = 0.5
;feedrate = 200.0
;
;[Process]
;engrave_offset = 0.0
;step_down = 1.0
;generator = EngraveCutter
;postprocessor = SimpleCutter
;overlap_percent = 0
;milling_style = conventional
;material_allowance = 0.0
;pocketing_type = none
;path_direction = x
;
;PYCAM_TOOLPATH_SETTINGS: END
T3 M6
G0 Z25.0000
M3 (start spindle)
G04 P3 (wait for 3 seconds)
 X-12.0000 Y21.2500
G1 Z0.0000
 X-11.7500 Y21.0000
 X-12.0000 Y21.2500
G0 Z25.0000
 X-11.8333 Y20.1667
G1 Z0.0000
 X-11.6667 Y20.0833
 X-11.8333 Y20.1667
 X-11.5000 Y19.7500
 X-11.7500 Y19.2500
 X-11.5000 Y19.7500
G0 Z25.0000
 X-10.7500 Y21.0000
G1 Z0.0000
 X-10.5000 Y20.7500
 X-10.7500 Y21.0000
 X-10.0000 Y21.5000
 X-10.2500 Y21.0000
 X-10.0000 Y21.5000
G0 Z25.0000
 X-8.5000 Y18.7500
G1 Z0.0000
 X-8.2500 Y18.5000
 X-8.5000 Y18.7500
 X-7.5000
 X-7.2500 Y18.5000
 X-7.5000 Y18.7500
G0 Z25.0000
 X-6.5000 Y14.5000
G1 Z0.0000
 X-5.7500 Y15.0000
 X-6.5000 Y14.5000
G0 Z25.0000
 X-5.5000 Y15.5000
G1 Z0.0000
 X-5.2500 Y15.2500
 X-5.5000 Y15.5000
G0 Z25.0000
 X-4.2500 Y11.5000
G1 Z0.0000
 X-4.0000 Y11.2500
 X-4.2500 Y11.5000
G0 Z25.0000
 X0.2500 Y14.5000
G1 Z0.0000
 X0.5000 Y14.2500
 X0.2500 Y14.5000
G0 Z25.0000
 X2.2500 Y12.5000
G1 Z0.0000
 X2.5000 Y12.2500
 X2.2500 Y12.5000
G0 Z25.0000
 X6.0000 Y13.0000
G1 Z0.0000
 X6.5000 Y12.5000
 X6.0000 Y13.0000
G0 Z25.0000
 X1.5000 Y8.2500
G1 Z0.0000
 X1.7500 Y8.0000
 X1.5000 Y8.2500
G0 Z25.0000
 X-0.5000 Y-3.7500
G1 Z0.0000
 X-0.2500 Y-4.0000
 X-0.5000 Y-3.7500
G0 Z25.0000
 X-2.5000 Y-7.5000
G1 Z0.0000
 X-2.2500 Y-7.7500
 X-2.5000 Y-7.5000
G0 Z25.0000
 X-2.0000 Y-8.7500
G1 Z0.0000
 X-1.7500 Y-9.0000
 X-2.0000 Y-8.7500
G0 Z25.0000
 X-1.7500 Y-10.0000
G1 Z0.0000
 X-1.5000 Y-10.2500
 X-1.7500 Y-10.0000
G0 Z25.0000
 X-0.7500 Y-13.0000
G1 Z0.0000
 X-1.2500 Y-13.7500
 X-0.7500 Y-13.0000
G0 Z25.0000
 X0.0000 Y-14.7500
G1 Z0.0000
 X0.2500 Y-15.0000
 X0.0000 Y-14.7500
G0 Z25.0000
 X1.0000 Y-17.5000
G1 Z0.0000
 X0.7500 Y-18.0000
 X1.0000 Y-17.5000
G0 Z25.0000
 X2.5000 Y-18.5000
G1 Z0.0000
 X2.7500 Y-18.7500
 X2.5000 Y-18.5000
 Y-17.7500
 X2.7500 Y-18.0000
 X2.5000 Y-17.7500
G0 Z25.0000
 X4.5000 Y-13.7500
G1 Z0.0000
 X4.7500 Y-14.0000
 X4.5000 Y-13.7500
G0 Z25.0000
 X10.8333 Y-13.9167
G1 Z0.0000
 X10.9167 Y-14.0833
 X10.8333 Y-13.9167
 X11.0000 Y-13.2500
 X11.2500 Y-13.5000
 X11.0000 Y-13.2500
G0 Z25.0000
 X12.0000 Y-8.0000
G1 Z0.0000
 X12.2500 Y-8.2500
 X12.0000 Y-8.0000
G0 Z25.0000
 X18.2500 Y-7.0000
G1 Z0.0000
 X18.5000 Y-7.2500
 X18.2500 Y-7.0000
G0 Z25.0000
 X21.5000 Y-8.7500
G1 Z0.0000
 X21.7500 Y-9.0000
 X21.5000 Y-8.7500
G0 Z25.0000
 X22.5000 Y-6.5000
G1 Z0.0000
 X22.7500 Y-6.7500
 X22.5000 Y-6.5000
G0 Z25.0000
 X30.3333 Y-8.4167
G1 Z0.0000
 X30.4167 Y-8.5833
 X30.3333 Y-8.4167
G0 Z25.0000
 X31.7500 Y-6.2500
G1 Z0.0000
 X32.0000 Y-6.5000
 X31.7500 Y-6.2500
G0 Z25.0000
 X32.5833 Y-5.1667
G1 Z0.0000
 X32.6667 Y-5.3333
 X32.5833 Y-5.1667
G0 Z25.0000
 X33.7500 Y-3.2500
G1 Z0.0000
 X34.0000 Y-3.5000
 X33.7500 Y-3.2500
G0 Z25.0000
 X34.7500 Y-3.7500
G1 Z0.0000
 X35.0000 Y-4.0000
 X34.7500 Y-3.7500
 Y-2.7500
 X35.0000 Y-3.0000
 X34.7500 Y-2.7500
 X35.2500
 X35.5000 Y-3.0000
 X35.2500 Y-2.7500
G0 Z25.0000
 X37.5000 Y2.2500
G1 Z0.0000
 X37.7500 Y2.0000
 X37.5000 Y2.2500
G0 Z25.0000
 X38.5000 Y1.0000
G1 Z0.0000
 X38.7500 Y0.7500
 X38.5000 Y1.0000
G0 Z25.0000
 X38.7500 Y-0.7500
G1 Z0.0000
 X39.0000 Y-1.0000
 X38.7500 Y-0.7500
 X37.8333 Y-0.9167
 X37.9167 Y-1.0833
 X37.8333 Y-0.9167
G0 Z25.0000
 X28.7500 Y9.7500
G1 Z0.0000
 X29.0000 Y9.5000
 X28.7500 Y9.7500
G0 Z25.0000
 X38.2500 Y25.0000
G1 Z0.0000
 X38.5000 Y24.7500
 X38.2500 Y25.0000
G0 Z25.0000
 X35.7500 Y36.5000
G1 Z0.0000
 X36.0000 Y36.2500
 X35.7500 Y36.5000
G0 Z25.0000
 X29.0432 Y28.2276
G1 Z0.0000
 X29.2103 Y28.3948
 X29.3888 Y28.5612
 X29.5746 Y28.7283
 X29.7632 Y28.8974
 X29.9506 Y29.0700
 X30.1322 Y29.2476
 X30.3040 Y29.4316
 X30.4615 Y29.6234
 X30.6006 Y29.8244
 X30.7170 Y30.0362
 X30.8063 Y30.2601
 X30.8643 Y30.4976
 X30.8868 Y30.7502
 X30.8830 Y30.9534
 X30.8673 Y31.1579
 X30.8400 Y31.3637
 X30.8016 Y31.5707
 X30.7527 Y31.7787
 X30.6937 Y31.9878
 X30.6252 Y32.1979
 X30.5477 Y32.4088
 X30.4617 Y32.6206
 X30.3676 Y32.8331
 X30.2660 Y33.0463
 X30.1574 Y33.2601
 X30.0423 Y33.4744
 X29.9212 Y33.6893
 X29.7946 Y33.9044
 X29.6630 Y34.1200
 X29.5269 Y34.3358
 X29.3868 Y34.5517
 X29.2433 Y34.7678
 X29.0967 Y34.9840
 X28.9477 Y35.2001
 X28.7968 Y35.4161
 X28.6443 Y35.6319
 X28.4909 Y35.8475
 X28.3371 Y36.0628
 X28.1833 Y36.2777
 X28.0301 Y36.4922
 X27.8779 Y36.7061
 X27.7274 Y36.9194
 X27.5789 Y37.1321
 X27.4329 Y37.3440
 X27.2900 Y37.5551
 X27.1508 Y37.7654
 X27.0156 Y37.9747
 X26.8851 Y38.1830
 X26.7596 Y38.3902
 X26.6397 Y38.5962
 X26.5259 Y38.8010
 X26.4188 Y39.0045
 X26.3188 Y39.2066
 X26.2264 Y39.4073
 X26.1421 Y39.6065
 X26.0665 Y39.8041
 X26.0000 Y40.0000
 X11.2500
 X13.2500 Y32.0000
 X12.7500 Y31.5000
 X13.5000 Y31.0000
 X12.5000 Y29.0000
 X13.2500 Y19.2500
 X13.0526 Y19.4150
 X12.8659 Y19.5856
 X12.6890 Y19.7613
 X12.5212 Y19.9419
 X12.3616 Y20.1269
 X12.2095 Y20.3159
 X12.0639 Y20.5085
 X11.9242 Y20.7045
 X11.7894 Y20.9034
 X11.6588 Y21.1047
 X11.5316 Y21.3082
 X11.4069 Y21.5134
 X11.2839 Y21.7201
 X11.1619 Y21.9277
 X11.0399 Y22.1359
 X10.9172 Y22.3443
 X10.7930 Y22.5525
 X10.6665 Y22.7603
 X10.5368 Y22.9671
 X10.4032 Y23.1726
 X10.2648 Y23.3764
 X10.1207 Y23.5782
 X9.9703 Y23.7775
 X9.8127 Y23.9740
 X9.6736 Y24.1411
 X9.5325 Y24.3091
 X9.3895 Y24.4779
 X9.2446 Y24.6473
 X9.0978 Y24.8174
 X8.9491 Y24.9879
 X8.7985 Y25.1588
 X8.6462 Y25.3300
 X8.4920 Y25.5016
 X8.3359 Y25.6732
 X8.1782 Y25.8449
 X8.0186 Y26.0165
 X7.8573 Y26.1881
 X7.6942 Y26.3595
 X7.5294 Y26.5305
 X7.3630 Y26.7012
 X7.1948 Y26.8714
 X7.0250 Y27.0411
 X6.8536 Y27.2102
 X6.6805 Y27.3785
 X6.5058 Y27.5460
 X6.3295 Y27.7126
 X6.1517 Y27.8782
 X5.9723 Y28.0428
 X5.7914 Y28.2061
 X5.6090 Y28.3683
 X5.4250 Y28.5290
 X5.2396 Y28.6884
 X5.0527 Y28.8463
 X4.8644 Y29.0025
 X4.6746 Y29.1571
 X4.4834 Y29.3099
 X4.2909 Y29.4609
 X4.0969 Y29.6099
 X3.9016 Y29.7569
 X3.7050 Y29.9017
 X3.5071 Y30.0443
 X3.3079 Y30.1847
 X3.1073 Y30.3226
 X2.9055 Y30.4581
 X2.7025 Y30.5910
 X2.4982 Y30.7213
 X2.2928 Y30.8488
 X2.0861 Y30.9736
 X1.8782 Y31.0954
 X1.6692 Y31.2143
 X1.4591 Y31.3300
 X1.2478 Y31.4426
 X1.0355 Y31.5519
 X0.8220 Y31.6579
 X0.6075 Y31.7604
 X0.3920 Y31.8595
 X0.1754 Y31.9549
 X-0.0422 Y32.0466
 X-0.2608 Y32.1346
 X-0.4804 Y32.2186
 X-0.7009 Y32.2988
 X-0.9224 Y32.3749
 X-1.1448 Y32.4468
 X-1.3681 Y32.5146
 X-1.5923 Y32.5780
 X-1.8174 Y32.6371
 X-2.0433 Y32.6916
 X-2.2700 Y32.7417
 X-2.4976 Y32.7870
 X-2.7259 Y32.8276
 X-2.9550 Y32.8634
 X-3.1850 Y32.8943
 X-3.4156 Y32.9202
 X-3.6469 Y32.9410
 X-3.8790 Y32.9565
 X-4.1118 Y32.9669
 X-4.3452 Y32.9719
 X-4.5793 Y32.9715
 X-4.8139 Y32.9655
 X-5.0493 Y32.9539
 X-5.2852 Y32.9366
 X-5.5217 Y32.9136
 X-5.7587 Y32.8846
 X-5.9963 Y32.8497
 X-6.2226 Y32.8151
 X-6.4544 Y32.7818
 X-6.6907 Y32.7490
 X-6.9306 Y32.7156
 X-7.1732 Y32.6809
 X-7.4174 Y32.6439
 X-7.6622 Y32.6037
 X-7.9067 Y32.5593
 X-8.1499 Y32.5100
 X-8.3909 Y32.4547
 X-8.6286 Y32.3926
 X-8.8620 Y32.3227
 X-9.0903 Y32.2443
 X-9.3124 Y32.1563
 X-9.5274 Y32.0578
 X-9.7342 Y31.9480
 X-9.9320 Y31.8260
 X-10.1197 Y31.6907
 X-10.2962 Y31.5414
 X-10.4608 Y31.3771
 X-10.6124 Y31.1970
 X-10.7500 Y31.0000
 X-8.7500 Y30.0000
 X-7.7500 Y30.5000
 X-6.7500 Y28.7500
 X-7.7500
 X-6.7500 Y28.5000
 X-7.0000 Y28.0000
 X-6.7500
 X-6.0000 Y28.5000
 X-7.2500 Y28.0000
 X-7.0000 Y27.0000
 X-6.0000 Y27.5000
 X-5.5000 Y27.2500
 X-5.7500 Y26.2500
 X-6.7500 Y26.7500
 X-6.8218 Y26.5542
 X-6.8979 Y26.3527
 X-6.9813 Y26.1556
 X-7.0746 Y25.9731
 X-7.1808 Y25.8153
 X-7.3024 Y25.6923
 X-7.4424 Y25.6141
 X-7.6035 Y25.5909
 X-7.7884 Y25.6329
 X-8.0000 Y25.7500
 X-7.7500 Y24.5000
 X-8.0000 Y24.2500
 X-8.5000 Y24.7500
 X-8.5356 Y24.4367
 X-8.5322 Y24.2200
 X-8.4610 Y24.0850
 X-8.2932 Y24.0166
 X-8.0000 Y24.0000
 Y23.7500
 X-9.0000
 X-9.2500 Y22.7500
 X-5.5000 Y25.0000
 X-5.7500 Y24.7500
 X-6.2500 Y25.2500
 Y24.2500
 X-5.5000
 X-5.7500 Y23.5000
 X-2.7500 Y25.0000
 Y24.7500
 X-2.9706 Y24.6604
 X-3.1902 Y24.5663
 X-3.4089 Y24.4677
 X-3.6266 Y24.3647
 X-3.8433 Y24.2575
 X-4.0590 Y24.1462
 X-4.2736 Y24.0309
 X-4.4871 Y23.9116
 X-4.6996 Y23.7886
 X-4.9109 Y23.6619
 X-5.1211 Y23.5316
 X-5.3301 Y23.3978
 X-5.5379 Y23.2606
 X-5.7445 Y23.1202
 X-5.9498 Y22.9767
 X-6.1539 Y22.8302
 X-6.3567 Y22.6807
 X-6.5581 Y22.5284
 X-6.7582 Y22.3735
 X-6.9570 Y22.2159
 X-7.1544 Y22.0559
 X-7.3503 Y21.8935
 X-7.5448 Y21.7288
 X-7.7379 Y21.5620
 X-7.9295 Y21.3932
 X-8.1195 Y21.2224
 X-8.3080 Y21.0498
 X-8.4950 Y20.8755
 X-8.6804 Y20.6996
 X-8.8642 Y20.5223
 X-9.0463 Y20.3435
 X-9.2268 Y20.1635
 X-9.4056 Y19.9824
 X-9.5828 Y19.8001
 X-9.7582 Y19.6170
 X-9.9318 Y19.4330
 X-10.1036 Y19.2483
 X-10.2737 Y19.0630
 X-10.4420 Y18.8772
 X-10.6084 Y18.6911
 X-10.7729 Y18.5046
 X-10.9355 Y18.3180
 X-11.0962 Y18.1314
 X-11.2550 Y17.9448
 X-11.4118 Y17.7583
 X-11.5666 Y17.5722
 X-11.7194 Y17.3864
 X-11.8702 Y17.2011
 X-12.0189 Y17.0164
 X-12.1655 Y16.8325
 X-12.3100 Y16.6493
 X-12.4524 Y16.4672
 X-12.5926 Y16.2860
 X-12.7306 Y16.1061
 X-12.8664 Y15.9273
 X-13.0000 Y15.7500
 X-12.7131 Y15.6522
 X-12.4996 Y15.5955
 X-12.3546 Y15.6127
 X-12.2730 Y15.7366
 X-12.2500 Y16.0000
 X-10.7500 Y16.7500
 X-11.0000 Y16.0000
 X-7.7500 Y18.2500
 Y18.0000
 X-10.5000 Y15.7500
 Y14.7500
 X-9.7500 Y13.7500
 X-8.5000 Y14.2500
 X-9.0000 Y15.0000
 X-8.2500 Y14.7500
 X-9.0000 Y13.2500
 X-6.5000 Y14.2500
 Y14.0000
 X-9.0000 Y11.5000
 X-8.2500 Y11.2500
 X-8.0000 Y12.2500
 X-7.5000 Y11.7500
 X-7.2654 Y11.9427
 X-7.0406 Y12.1210
 X-6.8242 Y12.2850
 X-6.6147 Y12.4348
 X-6.4106 Y12.5706
 X-6.2105 Y12.6924
 X-6.0128 Y12.8004
 X-5.8162 Y12.8947
 X-5.6191 Y12.9755
 X-5.4200 Y13.0427
 X-5.2176 Y13.0966
 X-5.0102 Y13.1373
 X-4.7966 Y13.1648
 X-4.5751 Y13.1793
 X-4.3444 Y13.1810
 X-4.1029 Y13.1698
 X-3.8492 Y13.1461
 X-3.5818 Y13.1097
 X-3.2992 Y13.0610
 X-3.0000 Y13.0000
 X-2.7500 Y14.0000
 X-2.6373 Y13.9581
 X-2.4995 Y13.9018
 X-2.3387 Y13.8330
 X-2.1578 Y13.7535
 X-1.9588 Y13.6653
 X-1.7445 Y13.5703
 X-1.5172 Y13.4704
 X-1.2794 Y13.3675
 X-1.0335 Y13.2635
 X-0.7820 Y13.1603
 X-0.5273 Y13.0598
 X-0.2718 Y12.9638
 X-0.0181 Y12.8744
 X0.2314 Y12.7933
 X0.4744 Y12.7226
 X0.7082 Y12.6640
 X0.9305 Y12.6196
 X1.1388 Y12.5912
 X1.3307 Y12.5806
 X1.5037 Y12.5899
 X1.6555 Y12.6209
 X1.7834 Y12.6755
 X1.8851 Y12.7556
 X1.9581 Y12.8632
 X2.0000 Y13.0000
 X4.0000 Y12.5000
 X4.2291 Y12.6639
 X4.4380 Y12.7674
 X4.6288 Y12.8152
 X4.8036 Y12.8119
 X4.9644 Y12.7621
 X5.1132 Y12.6707
 X5.2522 Y12.5421
 X5.3832 Y12.3811
 X5.5085 Y12.1923
 X5.6301 Y11.9804
 X5.7500 Y11.7500
 X5.5795 Y11.6832
 X5.3935 Y11.6008
 X5.1943 Y11.5037
 X4.9840 Y11.3929
 X4.7647 Y11.2696
 X4.5386 Y11.1347
 X4.3078 Y10.9893
 X4.0745 Y10.8345
 X3.8409 Y10.6711
 X3.6090 Y10.5004
 X3.3811 Y10.3233
 X3.1593 Y10.1408
 X2.9458 Y9.9540
 X2.7426 Y9.7640
 X2.5520 Y9.5717
 X2.3761 Y9.3782
 X2.2170 Y9.1846
 X2.0770 Y8.9918
 X1.9581 Y8.8009
 X1.8626 Y8.6129
 X1.7925 Y8.4290
 X1.7500 Y8.2500
 X5.7500 Y11.2500
 X1.2500 Y6.0000
 X1.0000 Y6.5000
 X0.7500
 X1.0000 Y4.0000
 X0.7500
 X0.5000 Y6.0000
 X0.3018 Y5.8578
 X0.1059 Y5.7123
 X-0.0876 Y5.5635
 X-0.2788 Y5.4116
 X-0.4678 Y5.2565
 X-0.6545 Y5.0983
 X-0.8389 Y4.9372
 X-1.0213 Y4.7731
 X-1.2013 Y4.6063
 X-1.3793 Y4.4367
 X-1.5552 Y4.2644
 X-1.7289 Y4.0895
 X-1.9006 Y3.9121
 X-2.0703 Y3.7323
 X-2.2380 Y3.5500
 X-2.4036 Y3.3655
 X-2.5673 Y3.1788
 X-2.7291 Y2.9899
 X-2.8890 Y2.7989
 X-3.0470 Y2.6059
 X-3.2031 Y2.4111
 X-3.3575 Y2.2143
 X-3.5100 Y2.0158
 X-3.6607 Y1.8156
 X-3.8097 Y1.6138
 X-3.9569 Y1.4104
 X-4.1025 Y1.2056
 X-4.2464 Y0.9994
 X-4.3887 Y0.7918
 X-4.5293 Y0.5830
 X-4.6684 Y0.3731
 X-4.8058 Y0.1620
 X-4.9418 Y-0.0501
 X-5.0763 Y-0.2631
 X-5.2092 Y-0.4770
 X-5.3407 Y-0.6917
 X-5.4708 Y-0.9071
 X-5.5994 Y-1.1231
 X-5.7267 Y-1.3397
 X-5.8526 Y-1.5568
 X-5.9772 Y-1.7743
 X-6.1005 Y-1.9922
 X-6.2225 Y-2.2103
 X-6.3433 Y-2.4286
 X-6.4629 Y-2.6471
 X-6.5812 Y-2.8656
 X-6.6984 Y-3.0840
 X-6.8145 Y-3.3023
 X-6.9294 Y-3.5205
 X-7.0432 Y-3.7384
 X-7.1560 Y-3.9560
 X-7.2677 Y-4.1731
 X-7.3785 Y-4.3897
 X-7.4882 Y-4.6058
 X-7.5970 Y-4.8213
 X-7.7048 Y-5.0361
 X-7.8118 Y-5.2500
 X-7.8882 Y-5.3978
 X-7.9800 Y-5.5666
 X-8.0843 Y-5.7542
 X-8.1986 Y-5.9582
 X-8.3203 Y-6.1762
 X-8.4468 Y-6.4057
 X-8.5753 Y-6.6445
 X-8.7034 Y-6.8901
 X-8.8284 Y-7.1401
 X-8.9477 Y-7.3921
 X-9.0587 Y-7.6438
 X-9.1587 Y-7.8928
 X-9.2450 Y-8.1366
 X-9.3153 Y-8.3730
 X-9.3667 Y-8.5995
 X-9.3967 Y-8.8137
 X-9.4026 Y-9.0132
 X-9.3819 Y-9.1957
 X-9.3319 Y-9.3588
 X-9.2500 Y-9.5000
 Y-9.7500
 X-11.2500 Y-9.5000
 X-11.7500 Y-11.0000
 X-10.7500 Y-11.2500
 X-11.7500 Y-13.5000
 X-11.5534 Y-13.3431
 X-11.3626 Y-13.1793
 X-11.1775 Y-13.0091
 X-10.9977 Y-12.8328
 X-10.8229 Y-12.6510
 X-10.6528 Y-12.4639
 X-10.4871 Y-12.2721
 X-10.3256 Y-12.0758
 X-10.1679 Y-11.8755
 X-10.0136 Y-11.6716
 X-9.8626 Y-11.4646
 X-9.7145 Y-11.2547
 X-9.5690 Y-11.0425
 X-9.4259 Y-10.8283
 X-9.2848 Y-10.6125
 X-9.1454 Y-10.3955
 X-9.0074 Y-10.1777
 X-8.8705 Y-9.9596
 X-8.7345 Y-9.7416
 X-8.5989 Y-9.5239
 X-8.4637 Y-9.3071
 X-8.3283 Y-9.0916
 X-8.1926 Y-8.8777
 X-8.0561 Y-8.6659
 X-7.9188 Y-8.4565
 X-7.7801 Y-8.2500
 X-7.6328 Y-8.0352
 X-7.4843 Y-7.8222
 X-7.3348 Y-7.6111
 X-7.1843 Y-7.4017
 X-7.0327 Y-7.1940
 X-6.8801 Y-6.9879
 X-6.7265 Y-6.7833
 X-6.5720 Y-6.5802
 X-6.4164 Y-6.3785
 X-6.2599 Y-6.1780
 X-6.1025 Y-5.9787
 X-5.9441 Y-5.7806
 X-5.7849 Y-5.5836
 X-5.6247 Y-5.3875
 X-5.4637 Y-5.1923
 X-5.3019 Y-4.9979
 X-5.1392 Y-4.8043
 X-4.9757 Y-4.6114
 X-4.8113 Y-4.4190
 X-4.6462 Y-4.2272
 X-4.4803 Y-4.0358
 X-4.3137 Y-3.8448
 X-4.1463 Y-3.6541
 X-3.9782 Y-3.4635
 X-3.8094 Y-3.2732
 X-3.6398 Y-3.0828
 X-3.4697 Y-2.8924
 X-3.2988 Y-2.7019
 X-3.1273 Y-2.5113
 X-2.9552 Y-2.3204
 X-2.7824 Y-2.1292
 X-2.6091 Y-1.9375
 X-2.4352 Y-1.7454
 X-2.3056 Y-1.6013
 X-2.1676 Y-1.4466
 X-2.0214 Y-1.2824
 X-1.8677 Y-1.1101
 X-1.7069 Y-0.9312
 X-1.5395 Y-0.7470
 X-1.3660 Y-0.5588
 X-1.1869 Y-0.3679
 X-1.0026 Y-0.1759
 X-0.8137 Y0.0161
 X-0.6206 Y0.2066
 X-0.4238 Y0.3943
 X-0.2238 Y0.5778
 X-0.0211 Y0.7558
 X0.1839 Y0.9269
 X0.3906 Y1.0898
 X0.5986 Y1.2430
 X0.8074 Y1.3854
 X1.0164 Y1.5153
 X1.2253 Y1.6317
 X1.4335 Y1.7329
 X1.6406 Y1.8178
 X1.8460 Y1.8850
 X2.0493 Y1.9330
 X2.2500 Y1.9606
 X2.4575 Y1.9684
 X2.6762 Y1.9585
 X2.9040 Y1.9317
 X3.1391 Y1.8892
 X3.3794 Y1.8320
 X3.6231 Y1.7610
 X3.8681 Y1.6774
 X4.1127 Y1.5821
 X4.3546 Y1.4762
 X4.5921 Y1.3608
 X4.8233 Y1.2367
 X5.0461 Y1.1052
 X5.2585 Y0.9671
 X5.4588 Y0.8236
 X5.6448 Y0.6756
 X5.8148 Y0.5242
 X5.9666 Y0.3704
 X6.0984 Y0.2153
 X6.2362 Y0.0147
 X6.3553 Y-0.1977
 X6.4626 Y-0.4153
 X6.5657 Y-0.6309
 X6.6717 Y-0.8379
 X6.7879 Y-1.0292
 X6.9215 Y-1.1980
 X7.0799 Y-1.3373
 X7.2703 Y-1.4403
 X7.5000 Y-1.5000
 X7.4543 Y-1.6849
 X7.4136 Y-1.8792
 X7.3779 Y-2.0824
 X7.3472 Y-2.2941
 X7.3213 Y-2.5136
 X7.3002 Y-2.7404
 X7.2839 Y-2.9741
 X7.2722 Y-3.2140
 X7.2653 Y-3.4596
 X7.2628 Y-3.7104
 X7.2649 Y-3.9659
 X7.2713 Y-4.2255
 X7.2822 Y-4.4887
 X7.2974 Y-4.7549
 X7.3168 Y-5.0237
 X7.3404 Y-5.2944
 X7.3681 Y-5.5667
 X7.3999 Y-5.8398
 X7.4357 Y-6.1133
 X7.4754 Y-6.3867
 X7.5190 Y-6.6594
 X7.5664 Y-6.9308
 X7.6176 Y-7.2005
 X7.6724 Y-7.4680
 X7.7309 Y-7.7326
 X7.7929 Y-7.9938
 X7.8584 Y-8.2512
 X7.9273 Y-8.5041
 X7.9997 Y-8.7521
 X8.0753 Y-8.9946
 X8.1542 Y-9.2311
 X8.2362 Y-9.4610
 X8.3215 Y-9.6838
 X8.4097 Y-9.8990
 X8.5010 Y-10.1060
 X8.5952 Y-10.3043
 X8.6922 Y-10.4934
 X8.7921 Y-10.6728
 X8.8947 Y-10.8418
 X9.0000 Y-11.0000
 X6.2500 Y-12.2500
 X6.0000
 X4.0000 Y-10.5000
 X4.5000 Y-7.0000
 X5.7500 Y-7.2500
 Y-5.2500
 X5.0000 Y-5.5000
 X4.7500 Y-5.2500
 X4.8004 Y-4.9843
 X4.8415 Y-4.7272
 X4.8684 Y-4.4788
 X4.8763 Y-4.2394
 X4.8603 Y-4.0091
 X4.8154 Y-3.7880
 X4.7368 Y-3.5764
 X4.6197 Y-3.3745
 X4.4590 Y-3.1823
 X4.2500 Y-3.0000
 X4.5000 Y-2.5000
 X2.5000 Y-1.0000
 X1.0000 Y-2.7500
 Y-3.0000
 X3.2500 Y-3.2500
 X3.0552 Y-3.4184
 X2.8558 Y-3.5622
 X2.6524 Y-3.6823
 X2.4458 Y-3.7791
 X2.2366 Y-3.8535
 X2.0255 Y-3.9062
 X1.8132 Y-3.9378
 X1.6004 Y-3.9490
 X1.3877 Y-3.9406
 X1.1758 Y-3.9132
 X0.9653 Y-3.8676
 X0.7570 Y-3.8044
 X0.5516 Y-3.7243
 X0.3497 Y-3.6281
 X0.1520 Y-3.5164
 X-0.0408 Y-3.3899
 X-0.2281 Y-3.2493
 X-0.4092 Y-3.0953
 X-0.5834 Y-2.9286
 X-0.7500 Y-2.7500
 X-1.7500
 Y-3.7500
 X-2.5000 Y-3.5000
 X-2.2500 Y-8.2500
 X-2.1511 Y-8.3751
 X-2.0613 Y-8.5164
 X-1.9796 Y-8.6720
 X-1.9049 Y-8.8401
 X-1.8362 Y-9.0191
 X-1.7725 Y-9.2070
 X-1.7126 Y-9.4021
 X-1.6556 Y-9.6027
 X-1.6003 Y-9.8069
 X-1.5459 Y-10.0129
 X-1.4911 Y-10.2190
 X-1.4350 Y-10.4233
 X-1.3765 Y-10.6242
 X-1.3145 Y-10.8197
 X-1.2481 Y-11.0082
 X-1.1761 Y-11.1877
 X-1.0976 Y-11.3566
 X-1.0114 Y-11.5131
 X-0.9166 Y-11.6553
 X-0.8120 Y-11.7815
 X-0.6966 Y-11.8899
 X-0.5695 Y-11.9787
 X-0.4295 Y-12.0462
 X-0.2756 Y-12.0904
 X-0.1068 Y-12.1097
 X0.0781 Y-12.1023
 X0.2800 Y-12.0663
 X0.5000 Y-12.0000
 Y-13.2500
 X2.2500 Y-14.0000
 X3.5000 Y-13.5000
 X3.2500 Y-14.2500
 X3.5000 Y-14.5000
 X3.6774 Y-14.4638
 X3.8676 Y-14.4360
 X4.0693 Y-14.4157
 X4.2816 Y-14.4019
 X4.5033 Y-14.3938
 X4.7334 Y-14.3905
 X4.9707 Y-14.3912
 X5.2142 Y-14.3948
 X5.4628 Y-14.4005
 X5.7153 Y-14.4074
 X5.9706 Y-14.4147
 X6.2278 Y-14.4214
 X6.4857 Y-14.4266
 X6.7431 Y-14.4294
 X6.9991 Y-14.4290
 X7.2525 Y-14.4245
 X7.5022 Y-14.4149
 X7.7471 Y-14.3993
 X7.9862 Y-14.3770
 X8.2183 Y-14.3469
 X8.4424 Y-14.3081
 X8.6573 Y-14.2599
 X8.8620 Y-14.2013
 X9.0554 Y-14.1313
 X9.2363 Y-14.0492
 X9.4037 Y-13.9539
 X9.5566 Y-13.8447
 X9.6937 Y-13.7206
 X9.8141 Y-13.5807
 X9.9165 Y-13.4241
 X10.0000 Y-13.2500
 X10.7500 Y-13.5000
 X12.2500 Y-7.5000
 X12.1854 Y-7.2596
 X12.1274 Y-7.0167
 X12.0735 Y-6.7726
 X12.0218 Y-6.5288
 X11.9697 Y-6.2865
 X11.9151 Y-6.0471
 X11.8557 Y-5.8120
 X11.7893 Y-5.5827
 X11.7135 Y-5.3603
 X11.6262 Y-5.1464
 X11.5249 Y-4.9423
 X11.4076 Y-4.7494
 X11.2719 Y-4.5690
 X11.1155 Y-4.4025
 X10.9363 Y-4.2512
 X10.7319 Y-4.1166
 X10.5000 Y-4.0000
 Y-3.5000
 X10.7471 Y-3.4508
 X10.9865 Y-3.3998
 X11.2169 Y-3.3458
 X11.4374 Y-3.2874
 X11.6465 Y-3.2233
 X11.8434 Y-3.1523
 X12.0267 Y-3.0730
 X12.1953 Y-2.9841
 X12.3481 Y-2.8843
 X12.4839 Y-2.7724
 X12.6015 Y-2.6469
 X12.6998 Y-2.5066
 X12.7777 Y-2.3501
 X12.8338 Y-2.1763
 X12.8673 Y-1.9838
 X12.8768 Y-1.7711
 X12.8612 Y-1.5372
 X12.8193 Y-1.2806
 X12.7500 Y-1.0000
 X12.5000
 X12.4590 Y-1.1125
 X12.3972 Y-1.2364
 X12.3166 Y-1.3697
 X12.2191 Y-1.5100
 X12.1066 Y-1.6553
 X11.9811 Y-1.8033
 X11.8445 Y-1.9519
 X11.6988 Y-2.0988
 X11.5458 Y-2.2419
 X11.3875 Y-2.3790
 X11.2258 Y-2.5078
 X11.0627 Y-2.6262
 X10.9000 Y-2.7320
 X10.7398 Y-2.8231
 X10.5838 Y-2.8971
 X10.4342 Y-2.9520
 X10.2927 Y-2.9855
 X10.1614 Y-2.9955
 X10.0422 Y-2.9797
 X9.9369 Y-2.9360
 X9.8475 Y-2.8622
 X9.7760 Y-2.7561
 X9.7243 Y-2.6154
 X9.6943 Y-2.4381
 X9.6879 Y-2.2219
 X9.7056 Y-1.9918
 X9.7456 Y-1.7760
 X9.8064 Y-1.5737
 X9.8865 Y-1.3838
 X9.9844 Y-1.2057
 X10.0987 Y-1.0383
 X10.2279 Y-0.8809
 X10.3705 Y-0.7324
 X10.5250 Y-0.5922
 X10.6900 Y-0.4592
 X10.8639 Y-0.3326
 X11.0453 Y-0.2116
 X11.2328 Y-0.0952
 X11.4248 Y0.0174
 X11.6199 Y0.1271
 X11.8165 Y0.2348
 X12.0133 Y0.3413
 X12.2087 Y0.4475
 X12.4012 Y0.5543
 X12.5895 Y0.6627
 X12.7719 Y0.7733
 X12.9471 Y0.8872
 X13.1135 Y1.0052
 X13.2697 Y1.1282
 X13.4142 Y1.2570
 X13.5455 Y1.3925
 X13.6621 Y1.5357
 X13.7626 Y1.6874
 X13.8455 Y1.8484
 X13.9155 Y2.0312
 X13.9687 Y2.2244
 X14.0061 Y2.4271
 X14.0284 Y2.6387
 X14.0367 Y2.8582
 X14.0318 Y3.0851
 X14.0145 Y3.3184
 X13.9858 Y3.5576
 X13.9465 Y3.8017
 X13.8975 Y4.0501
 X13.8397 Y4.3020
 X13.7741 Y4.5567
 X13.7014 Y4.8134
 X13.6226 Y5.0712
 X13.5385 Y5.3296
 X13.4501 Y5.5877
 X13.3582 Y5.8448
 X13.2636 Y6.1001
 X13.1675 Y6.3529
 X13.0704 Y6.6024
 X12.9735 Y6.8478
 X12.8775 Y7.0884
 X12.7833 Y7.3235
 X12.6919 Y7.5523
 X12.6040 Y7.7739
 X12.5207 Y7.9878
 X12.4427 Y8.1931
 X12.3710 Y8.3891
 X12.3065 Y8.5750
 X12.2500 Y8.7500
 X22.7500 Y14.0000
 X22.6868 Y13.8498
 X22.6118 Y13.6943
 X22.5255 Y13.5344
 X22.4283 Y13.3706
 X22.3208 Y13.2035
 X22.2034 Y13.0339
 X22.0767 Y12.8624
 X21.9410 Y12.6895
 X21.7970 Y12.5161
 X21.6451 Y12.3427
 X21.4858 Y12.1699
 X21.3195 Y11.9985
 X21.1468 Y11.8291
 X20.9682 Y11.6623
 X20.7841 Y11.4988
 X20.5950 Y11.3392
 X20.4015 Y11.1842
 X20.2039 Y11.0344
 X20.0029 Y10.8905
 X19.7989 Y10.7531
 X19.5923 Y10.6230
 X19.3837 Y10.5006
 X19.1735 Y10.3868
 X18.9623 Y10.2820
 X18.7505 Y10.1871
 X18.5387 Y10.1026
 X18.3272 Y10.0292
 X18.1167 Y9.9675
 X17.9076 Y9.9183
 X17.7003 Y9.8820
 X17.4954 Y9.8595
 X17.2933 Y9.8513
 X17.0946 Y9.8580
 X16.8997 Y9.8805
 X16.7092 Y9.9192
 X16.5234 Y9.9748
 X16.3430 Y10.0481
 X16.1684 Y10.1396
 X16.0000 Y10.2500
 X15.7500
 X16.7500 Y7.0000
 X16.2500
 X16.7500 Y5.5000
 X16.5000
 Y6.0000
 X16.2500
 X18.7500 Y-20.0000
 X18.2112 Y-26.5000
 X18.5000 Y-29.2500
 Y-29.5000
 X17.7500 Y-31.7500
 X18.7500 Y-30.7500
 X26.0000 Y-33.2500
 X25.9377 Y-33.5302
 X25.8870 Y-33.7978
 X25.8477 Y-34.0529
 X25.8193 Y-34.2955
 X25.8017 Y-34.5254
 X25.7945 Y-34.7426
 X25.7974 Y-34.9473
 X25.8101 Y-35.1393
 X25.8323 Y-35.3187
 X25.8638 Y-35.4853
 X25.9041 Y-35.6393
 X25.9530 Y-35.7805
 X26.0102 Y-35.9090
 X26.0754 Y-36.0248
 X26.1483 Y-36.1277
 X26.2287 Y-36.2179
 X26.3161 Y-36.2952
 X26.4103 Y-36.3597
 X26.5110 Y-36.4114
 X26.6179 Y-36.4502
 X26.7306 Y-36.4761
 X26.8490 Y-36.4892
 X26.9726
 X27.1012 Y-36.4764
 X27.2345 Y-36.4506
 X27.3722 Y-36.4118
 X27.5139 Y-36.3601
 X27.6595 Y-36.2953
 X27.8085 Y-36.2174
 X27.9607 Y-36.1266
 X28.1157 Y-36.0227
 X28.2733 Y-35.9057
 X28.4332 Y-35.7756
 X28.5950 Y-35.6323
 X28.7585 Y-35.4759
 X28.9234 Y-35.3064
 X29.0893 Y-35.1237
 X29.2560 Y-34.9278
 X29.4232 Y-34.7187
 X29.5905 Y-34.4963
 X29.7268 Y-34.3041
 X29.8579 Y-34.1086
 X29.9838 Y-33.9099
 X30.1048 Y-33.7081
 X30.2211 Y-33.5035
 X30.3330 Y-33.2960
 X30.4407 Y-33.0859
 X30.5443 Y-32.8734
 X30.6443 Y-32.6585
 X30.7407 Y-32.4413
 X30.8338 Y-32.2221
 X30.9240 Y-32.0010
 X31.0112 Y-31.7781
 X31.0959 Y-31.5535
 X31.1782 Y-31.3274
 X31.2584 Y-31.0999
 X31.3367 Y-30.8712
 X31.4133 Y-30.6414
 X31.4885 Y-30.4107
 X31.5624 Y-30.1791
 X31.6355 Y-29.9469
 X31.7077 Y-29.7141
 X31.7795 Y-29.4809
 X31.8510 Y-29.2474
 X31.9224 Y-29.0138
 X31.9941 Y-28.7803
 X32.0661 Y-28.5469
 X32.1388 Y-28.3138
 X32.2124 Y-28.0811
 X32.2871 Y-27.8490
 X32.3631 Y-27.6176
 X32.4407 Y-27.3871
 X32.5201 Y-27.1576
 X32.6016 Y-26.9292
 X32.6853 Y-26.7021
 X32.7715 Y-26.4764
 X32.8605 Y-26.2522
 X32.9524 Y-26.0297
 X33.0475 Y-25.8091
 X33.1461 Y-25.5904
 X33.2483 Y-25.3739
 X33.3544 Y-25.1595
 X33.4646 Y-24.9476
 X33.5791 Y-24.7382
 X33.6983 Y-24.5315
 X33.8223 Y-24.3276
 X33.9513 Y-24.1266
 X34.0856 Y-23.9287
 X34.2254 Y-23.7340
 X34.3709 Y-23.5426
G0 Z25.0000
 X29.2500 Y-15.0000
G1 Z0.0000
 X29.5000 Y-15.2500
 X29.2500 Y-15.0000
G0 Z25.0000
 X27.7500 Y-19.2500
G1 Z0.0000
 X28.0000 Y-19.5000
 X27.7500 Y-19.2500
 X28.2500
 X28.5000 Y-19.5000
 X28.2500 Y-19.2500
 X28.5833 Y-20.1667
 X28.6667 Y-20.3333
 X28.5833 Y-20.1667
G0 Z25.0000
 X20.0000 Y-18.5000
G1 Z0.0000
 X20.2500 Y-18.7500
 X20.0000 Y-18.5000
G0 Z25.0000
 X25.0000 Y-24.5000
G1 Z0.0000
 X25.2500 Y-24.7500
 X25.0000 Y-24.5000
G0 Z25.0000
 X23.2500 Y-25.7500
G1 Z0.0000
 X23.5000 Y-26.0000
 X23.2500 Y-25.7500
G0 Z25.0000
 X23.3333 Y-26.9167
G1 Z0.0000
 X23.4167 Y-27.0833
 X23.3333 Y-26.9167
G0 Z25.0000
 X22.5833 Y-27.6667
G1 Z0.0000
 X22.6667 Y-27.8333
 X22.5833 Y-27.6667
 Y-28.4167
 X22.6667 Y-28.5833
 X22.5833 Y-28.4167
G0 Z25.0000
 X8.2500 Y-36.5000
G1 Z0.0000
 X8.5000 Y-36.7500
 X8.2500 Y-36.5000
 Y-37.0000
 X8.5000 Y-37.2500
 X8.2500 Y-37.0000
G0 Z25.0000
 X18.2500 Y-27.7500
G1 Z0.0000
 X18.5000 Y-28.0000
 X18.2500 Y-27.7500
 X18.7500
 X19.0000 Y-28.0000
 X18.7500 Y-27.7500
G0 Z25.0000
 X21.5000 Y-29.0000
G1 Z0.0000
 X21.7500 Y-29.2500
 X21.5000 Y-29.0000
G0 Z25.0000
 X22.5000 Y-30.0000
G1 Z0.0000
 X23.0000 Y-30.5000
 X22.5000 Y-30.0000
G0 Z25.0000
 X24.2500 Y-31.5000
G1 Z0.0000
 X24.5000 Y-31.7500
 X24.2500 Y-31.5000
 X25.0000 Y-31.7500
 X25.2500 Y-32.0000
 X25.0000 Y-31.7500
G0 Z25.0000
 X23.8333 Y-30.1667
G1 Z0.0000
 X23.9167 Y-30.3333
 X23.8333 Y-30.1667
G0 Z25.0000
 X24.8333 Y-26.1667
G1 Z0.0000
 X24.9167 Y-26.3333
 X24.8333 Y-26.1667
 X25.2500 Y-26.0000
 X25.5000 Y-26.2500
 X25.2500 Y-26.0000
 Y-25.5000
 X25.5000 Y-25.7500
 X25.2500 Y-25.5000
G0 Z25.0000
 X34.3709 Y-23.5426
G1 Z0.0000
 X34.5172 Y-23.3585
 X34.6716 Y-23.1696
 X34.8333 Y-22.9770
 X35.0018 Y-22.7819
 X35.1763 Y-22.5853
 X35.3562 Y-22.3885
 X35.5410 Y-22.1924
 X35.7299 Y-21.9982
 X35.9223 Y-21.8071
 X36.1175 Y-21.6200
 X36.3150 Y-21.4381
 X36.5140 Y-21.2626
 X36.7139 Y-21.0945
 X36.9141 Y-20.9349
 X37.1139 Y-20.7850
 X37.3127 Y-20.6458
 X37.5098 Y-20.5185
 X37.7137 Y-20.4070
 X37.9381 Y-20.3060
 X38.1770 Y-20.2110
 X38.4239 Y-20.1176
 X38.6725 Y-20.0216
 X38.9166 Y-19.9186
 X39.1499 Y-19.8042
 X39.3661 Y-19.6740
 X39.5589 Y-19.5237
 X39.7220 Y-19.3490
 X39.8491 Y-19.1455
 X39.9311 Y-18.9547
 X39.9992 Y-18.7493
 X40.0543 Y-18.5309
 X40.0975 Y-18.3009
 X40.1299 Y-18.0606
 X40.1524 Y-17.8116
 X40.1661 Y-17.5553
 X40.1719 Y-17.2930
 X40.1710 Y-17.0263
 X40.1642 Y-16.7565
 X40.1527 Y-16.4852
 X40.1375 Y-16.2137
 X40.1195 Y-15.9434
 X40.0998 Y-15.6760
 X40.0794 Y-15.4126
 X40.0594 Y-15.1548
 X40.0407 Y-14.9041
 X40.0244 Y-14.6618
 X40.0115 Y-14.4294
 X40.0031 Y-14.2083
 X40.0000 Y-14.0000
 Y-1.7500
 X39.7365 Y-1.8249
 X39.4784 Y-1.9029
 X39.2255 Y-1.9838
 X38.9779 Y-2.0678
 X38.7353 Y-2.1547
 X38.4978 Y-2.2445
 X38.2654 Y-2.3373
 X38.0379 Y-2.4329
 X37.8154 Y-2.5314
 X37.5977 Y-2.6326
 X37.3847 Y-2.7366
 X37.1765 Y-2.8433
 X36.9730 Y-2.9527
 X36.7741 Y-3.0648
 X36.5797 Y-3.1795
 X36.3898 Y-3.2968
 X36.2044 Y-3.4167
 X36.0233 Y-3.5391
 X35.8466 Y-3.6640
 X35.6741 Y-3.7913
 X35.5058 Y-3.9211
 X35.3417 Y-4.0533
 X35.1817 Y-4.1879
 X35.0257 Y-4.3248
 X34.8736 Y-4.4639
 X34.7255 Y-4.6054
 X34.5812 Y-4.7491
 X34.4407 Y-4.8950
 X34.3040 Y-5.0430
 X34.1709 Y-5.1932
 X34.0414 Y-5.3455
 X33.9156 Y-5.4999
 X33.7932 Y-5.6562
 X33.6743 Y-5.8146
 X33.5587 Y-5.9750
 X33.4464 Y-6.1373
 X33.3375 Y-6.3015
 X33.2317 Y-6.4675
 X33.1291 Y-6.6354
 X33.0296 Y-6.8051
 X32.9331 Y-6.9766
 X32.8397 Y-7.1498
 X32.7491 Y-7.3247
 X32.6613 Y-7.5013
 X32.5764 Y-7.6795
 X32.4942 Y-7.8593
 X32.4147 Y-8.0407
 X32.3379 Y-8.2237
 X32.2636 Y-8.4081
 X32.1918 Y-8.5940
 X32.1224 Y-8.7814
 X32.0555 Y-8.9701
 X31.9909 Y-9.1603
 X31.9285 Y-9.3517
 X31.8684 Y-9.5445
 X31.8104 Y-9.7386
 X31.7545 Y-9.9338
 X31.7007 Y-10.1303
 X31.6489 Y-10.3280
 X31.5990 Y-10.5268
 X31.5509 Y-10.7268
 X31.5046 Y-10.9278
 X31.4601 Y-11.1298
 X31.4173 Y-11.3329
 X31.3761 Y-11.5369
 X31.3365 Y-11.7418
 X31.2984 Y-11.9477
 X31.2618 Y-12.1545
 X31.2266 Y-12.3621
 X31.1927 Y-12.5705
 X31.1600 Y-12.7797
 X31.1286 Y-12.9896
 X31.0984 Y-13.2003
 X31.0693 Y-13.4116
 X31.0412 Y-13.6236
 X31.0141 Y-13.8361
 X30.9879 Y-14.0493
 X30.9626 Y-14.2630
 X30.9382 Y-14.4772
 X30.9145 Y-14.6919
 X30.8914 Y-14.9071
 X30.8691 Y-15.1226
 X30.8472 Y-15.3386
 X30.8260 Y-15.5549
 X30.8051 Y-15.7715
 X30.7847 Y-15.9884
 X30.7646 Y-16.2055
 X30.7448 Y-16.4228
 X30.7253 Y-16.6404
 X30.7059 Y-16.8581
 X30.6866 Y-17.0759
 X30.6674 Y-17.2938
 X30.6482 Y-17.5117
 X30.6289 Y-17.7296
 X30.6095 Y-17.9476
 X30.5899 Y-18.1655
 X30.5701 Y-18.3833
 X30.5499 Y-18.6010
 X30.5294 Y-18.8185
 X30.5085 Y-19.0359
 X30.4872 Y-19.2530
 X30.4653 Y-19.4699
 X30.4428 Y-19.6865
 X30.4197 Y-19.9028
 X30.3958 Y-20.1188
 X30.3712 Y-20.3344
 X30.3458 Y-20.5495
 X30.3195 Y-20.7643
 X30.2922 Y-20.9785
 X30.2639 Y-21.1922
 X30.2346 Y-21.4054
 X30.2042 Y-21.6180
 X30.1726 Y-21.8300
 X30.1398 Y-22.0414
 X30.1056 Y-22.2520
 X30.0702 Y-22.4620
 X30.0333 Y-22.6712
 X29.9950 Y-22.8797
 X29.9551 Y-23.0873
 X29.9136 Y-23.2941
 X29.8705 Y-23.5000
 X29.8011 Y-23.7763
 X29.7168 Y-24.0300
 X29.6192 Y-24.2637
 X29.5095 Y-24.4796
 X29.3890 Y-24.6803
 X29.2591 Y-24.8682
 X29.1212 Y-25.0456
 X28.9765 Y-25.2152
 X28.8265 Y-25.3791
 X28.6724 Y-25.5399
 X28.5156 Y-25.7000
 X28.3574 Y-25.8618
 X28.1992 Y-26.0278
 X28.0423 Y-26.2003
 X27.8880 Y-26.3819
 X27.7377 Y-26.5749
 X27.5928 Y-26.7817
 X27.4545 Y-27.0048
 X27.3322 Y-27.2334
 X27.2264 Y-27.4671
 X27.1358 Y-27.7053
 X27.0591 Y-27.9477
 X26.9950 Y-28.1936
 X26.9424 Y-28.4427
 X26.8998 Y-28.6945
 X26.8661 Y-28.9484
 X26.8400 Y-29.2039
 X26.8201 Y-29.4607
 X26.8052 Y-29.7181
 X26.7941 Y-29.9757
 X26.7854 Y-30.2331
 X26.7780 Y-30.4897
 X26.7704 Y-30.7450
 X26.7615 Y-30.9986
 X26.7500 Y-31.2500
 X26.2500 Y-30.7500
 X25.5000 Y-31.0000
 Y-31.5000
 X25.0000 Y-31.7500
 X24.0000 Y-30.7500
 X24.5000 Y-31.0000
 Y-30.7500
 X23.7500 Y-29.5000
 X24.2500 Y-28.7500
 Y-28.5000
 X23.5000 Y-28.7500
 X23.7500 Y-28.0000
 X23.2500
 X24.2500 Y-26.7500
 X24.0000 Y-26.0000
 X24.5000 Y-26.2500
 X25.0000 Y-25.5000
 X24.0000 Y-24.5000
 X24.7500
 Y-24.0000
 X23.2500 Y-23.2500
 X22.9565 Y-23.2473
 X22.7012 Y-23.2261
 X22.4784 Y-23.1828
 X22.2822 Y-23.1137
 X22.1069 Y-23.0149
 X21.9468 Y-22.8830
 X21.7962 Y-22.7139
 X21.6491 Y-22.5042
 X21.5000 Y-22.2500
 X20.5000 Y-22.0000
 X19.5000 Y-24.7500
 X19.2500
 X19.2535 Y-24.5608
 X19.2574 Y-24.3542
 X19.2623 Y-24.1324
 X19.2692 Y-23.8977
 X19.2788 Y-23.6523
 X19.2921 Y-23.3985
 X19.3097 Y-23.1386
 X19.3325 Y-22.8749
 X19.3614 Y-22.6096
 X19.3971 Y-22.3450
 X19.4406 Y-22.0834
 X19.4926 Y-21.8270
 X19.5540 Y-21.5782
 X19.6255 Y-21.3391
 X19.7080 Y-21.1120
 X19.8024 Y-20.8993
 X19.9094 Y-20.7032
 X20.0300 Y-20.5260
 X20.1648 Y-20.3698
 X20.3148 Y-20.2371
 X20.4424 Y-20.1562
 X20.5900 Y-20.0914
 X20.7563 Y-20.0419
 X20.9400 Y-20.0069
 X21.1397 Y-19.9855
 X21.3540 Y-19.9769
 X21.5816 Y-19.9804
 X21.8211 Y-19.9949
 X22.0712 Y-20.0197
 X22.3305 Y-20.0541
 X22.5976 Y-20.0971
 X22.8712 Y-20.1480
 X23.1500 Y-20.2058
 X23.4325 Y-20.2699
 X23.7175 Y-20.3392
 X24.0036 Y-20.4131
 X24.2893 Y-20.4907
 X24.5734 Y-20.5711
 X24.8545 Y-20.6536
 X25.1313 Y-20.7372
 X25.4023 Y-20.8213
 X25.6663 Y-20.9049
 X25.9218 Y-20.9872
 X26.1676 Y-21.0674
 X26.4022 Y-21.1446
 X26.6243 Y-21.2182
 X26.8326 Y-21.2870
 X27.0256 Y-21.3505
 X27.2021 Y-21.4077
 X27.3607 Y-21.4578
 X27.5000 Y-21.5000
 X29.2500 Y-18.5000
 Y-18.2500
 X28.7500 Y-18.0000
 X28.8722 Y-17.9069
 X28.9811 Y-17.7842
 X29.0779 Y-17.6344
 X29.1634 Y-17.4600
 X29.2390 Y-17.2637
 X29.3054 Y-17.0478
 X29.3640 Y-16.8150
 X29.4155 Y-16.5677
 X29.4612 Y-16.3085
 X29.5021 Y-16.0398
 X29.5392 Y-15.7643
 X29.5736 Y-15.4844
 X29.6064 Y-15.2026
 X29.6385 Y-14.9215
 X29.6711 Y-14.6437
 X29.7051 Y-14.3715
 X29.7417 Y-14.1076
 X29.7820 Y-13.8545
 X29.8269 Y-13.6146
 X29.8775 Y-13.3906
 X29.9348 Y-13.1849
 X30.0000 Y-13.0000
 X30.0649 Y-12.7931
 X30.1019 Y-12.5818
 X30.1183 Y-12.3708
 X30.1213 Y-12.1642
 X30.1182 Y-11.9669
 X30.1163 Y-11.7829
 X30.1231 Y-11.6171
 X30.1455 Y-11.4737
 X30.1911 Y-11.3572
 X30.2670 Y-11.2721
 X30.3806 Y-11.2229
 X30.5392 Y-11.2141
 X30.7500 Y-11.2500
 X30.6658 Y-10.9785
 X30.5965 Y-10.7288
 X30.5512 Y-10.4976
 X30.5388 Y-10.2814
 X30.5684 Y-10.0770
 X30.6491 Y-9.8808
 X30.7900 Y-9.6896
 X31.0000 Y-9.5000
 Y-8.0000
 X31.5000 Y-6.7500
 X31.7811 Y-6.6685
 X31.9797 Y-6.5616
 X32.1107 Y-6.4250
 X32.1885 Y-6.2547
 X32.2278 Y-6.0465
 X32.2434 Y-5.7963
 X32.2500 Y-5.5000
 X34.5000 Y-4.2500
 X34.2500 Y-3.5000
 X36.0000 Y-3.2500
 X37.5000 Y-1.2500
 X39.0000
 X39.7500 Y-0.7500
 X39.5000 Y0.2500
 X38.7500
 X38.8744 Y0.4716
 X38.9909 Y0.6940
 X39.0998 Y0.9173
 X39.2014 Y1.1414
 X39.2960 Y1.3664
 X39.3837 Y1.5922
 X39.4647 Y1.8189
 X39.5393 Y2.0464
 X39.6079 Y2.2748
 X39.6705 Y2.5040
 X39.7275 Y2.7340
 X39.7791 Y2.9648
 X39.8255 Y3.1965
 X39.8669 Y3.4290
 X39.9037 Y3.6623
 X39.9360 Y3.8963
 X39.9641 Y4.1313
 X39.9882 Y4.3670
 X40.0086 Y4.6035
 X40.0255 Y4.8407
 X40.0392 Y5.0788
 X40.0499 Y5.3177
 X40.0577 Y5.5573
 X40.0631 Y5.7978
 X40.0661 Y6.0390
 X40.0671 Y6.2809
 X40.0663 Y6.5237
 X40.0640 Y6.7672
 X40.0603 Y7.0114
 X40.0555 Y7.2564
 X40.0499 Y7.5021
 X40.0436 Y7.7486
 X40.0370 Y7.9959
 X40.0303 Y8.2439
 X40.0237 Y8.4926
 X40.0175 Y8.7420
 X40.0118 Y8.9922
 X40.0070 Y9.2431
 X40.0033 Y9.4947
 X40.0008 Y9.7470
 X40.0000 Y10.0000
 Y28.5000
 X39.7500
 X39.6336 Y28.2818
 X39.5116 Y28.0670
 X39.3843 Y27.8556
 X39.2521 Y27.6471
 X39.1153 Y27.4416
 X38.9741 Y27.2388
 X38.8288 Y27.0385
 X38.6799 Y26.8405
 X38.5275 Y26.6446
 X38.3720 Y26.4507
 X38.2138 Y26.2586
 X38.0531 Y26.0681
 X37.8901 Y25.8789
 X37.7254 Y25.6910
 X37.5590 Y25.5041
 X37.3915 Y25.3180
 X37.2230 Y25.1325
 X37.0539 Y24.9476
 X36.8845 Y24.7629
 X36.7150 Y24.5782
 X36.5459 Y24.3935
 X36.3774 Y24.2085
 X36.2099 Y24.0230
 X36.0435 Y23.8369
 X35.8787 Y23.6500
 X35.7158 Y23.4620
 X35.5551 Y23.2728
 X35.3968 Y23.0821
 X35.2413 Y22.8899
 X35.0889 Y22.6959
 X34.9400 Y22.5000
 X34.7953 Y22.3056
 X34.6507 Y22.1102
 X34.5062 Y21.9137
 X34.3619 Y21.7161
 X34.2178 Y21.5174
 X34.0740 Y21.3178
 X33.9304 Y21.1170
 X33.7872 Y20.9153
 X33.6443 Y20.7126
 X33.5018 Y20.5089
 X33.3597 Y20.3042
 X33.2180 Y20.0986
 X33.0768 Y19.8920
 X32.9362 Y19.6845
 X32.7961 Y19.4761
 X32.6565 Y19.2669
 X32.5177 Y19.0567
 X32.3794 Y18.8458
 X32.2418 Y18.6339
 X32.1050 Y18.4213
 X31.9690 Y18.2078
 X31.8337 Y17.9935
 X31.6992 Y17.7785
 X31.5656 Y17.5627
 X31.4329 Y17.3461
 X31.3011 Y17.1288
 X31.1703 Y16.9108
 X31.0405 Y16.6921
 X30.9117 Y16.4728
 X30.7840 Y16.2527
 X30.6573 Y16.0320
 X30.5318 Y15.8107
 X30.4075 Y15.5887
 X30.2844 Y15.3661
 X30.1625 Y15.1429
 X30.0418 Y14.9192
 X29.9226 Y14.6949
 X29.8046 Y14.4701
 X29.6880 Y14.2447
 X29.5727 Y14.0188
 X29.4590 Y13.7924
 X29.3467 Y13.5655
 X29.2360 Y13.3382
 X29.1267 Y13.1104
 X29.0190 Y12.8822
 X28.9130 Y12.6535
 X28.8086 Y12.4245
 X28.7059 Y12.1950
 X28.6049 Y11.9652
 X28.5057 Y11.7350
 X28.4082 Y11.5045
 X28.3125 Y11.2737
 X28.2187 Y11.0425
 X28.1268 Y10.8111
 X28.0368 Y10.5793
 X27.9488 Y10.3473
 X27.8627 Y10.1151
 X27.7787 Y9.8826
 X27.6967 Y9.6499
 X27.6168 Y9.4170
 X27.5391 Y9.1839
 X27.4635 Y8.9507
 X27.3901 Y8.7172
 X27.3189 Y8.4837
 X27.2500 Y8.2500
 X28.5000 Y8.7500
 X24.5000 Y-1.7500
 X24.2500
 X25.0000 Y1.5000
 X23.0000 Y-3.2500
 X24.2500 Y-1.7500
 X22.7500 Y-6.5000
 Y-5.0000
 X22.5000
 X21.7500 Y-7.2500
 X22.7500 Y-7.0000
 X22.2500 Y-9.2500
 X22.0000
 X21.7500 Y-8.2500
 X22.2500 Y-7.5000
 X22.1197 Y-7.5996
 X21.9920 Y-7.7174
 X21.8671 Y-7.8524
 X21.7449 Y-8.0037
 X21.6254 Y-8.1704
 X21.5087 Y-8.3516
 X21.3949 Y-8.5462
 X21.2840 Y-8.7534
 X21.1760 Y-8.9723
 X21.0710 Y-9.2018
 X20.9689 Y-9.4410
 X20.8699 Y-9.6891
 X20.7740 Y-9.9450
 X20.6813 Y-10.2078
 X20.5916 Y-10.4766
 X20.5052 Y-10.7504
 X20.4220 Y-11.0284
 X20.3421 Y-11.3095
 X20.2656 Y-11.5928
 X20.1924 Y-11.8774
 X20.1225 Y-12.1623
 X20.0562 Y-12.4466
 X19.9933 Y-12.7294
 X19.9339 Y-13.0097
 X19.8781 Y-13.2866
 X19.8258 Y-13.5591
 X19.7772 Y-13.8263
 X19.7323 Y-14.0873
 X19.6911 Y-14.3411
 X19.6537 Y-14.5867
 X19.6200 Y-14.8233
 X19.5902 Y-15.0499
 X19.5643 Y-15.2656
 X19.5422 Y-15.4694
 X19.5242 Y-15.6603
 X19.5101 Y-15.8375
 X19.5000 Y-16.0000
 X19.2500
 X19.2302 Y-15.7491
 X19.2103 Y-15.4984
 X19.1905 Y-15.2477
 X19.1707 Y-14.9973
 X19.1508 Y-14.7469
 X19.1309 Y-14.4967
 X19.1110 Y-14.2466
 X19.0910 Y-13.9966
 X19.0710 Y-13.7467
 X19.0510 Y-13.4970
 X19.0309 Y-13.2473
 X19.0108 Y-12.9977
 X18.9906 Y-12.7481
 X18.9703 Y-12.4987
 X18.9500 Y-12.2493
 X18.9296 Y-11.9999
 X18.9091 Y-11.7507
 X18.8886 Y-11.5014
 X18.8680 Y-11.2523
 X18.8473 Y-11.0031
 X18.8265 Y-10.7540
 X18.8057 Y-10.5049
 X18.7847 Y-10.2558
 X18.7636 Y-10.0068
 X18.7425 Y-9.7577
 X18.7212 Y-9.5086
 X18.6998 Y-9.2596
 X18.6783 Y-9.0105
 X18.6567 Y-8.7614
 X18.6349 Y-8.5122
 X18.6131 Y-8.2631
 X18.5910 Y-8.0138
 X18.5689 Y-7.7646
 X18.5466 Y-7.5153
 X18.5242 Y-7.2659
 X18.5016 Y-7.0165
 X18.4788 Y-6.7670
 X18.4559 Y-6.5174
 X18.4329 Y-6.2678
 X18.4096 Y-6.0180
 X18.3863 Y-5.7682
 X18.3627 Y-5.5182
 X18.3389 Y-5.2682
 X18.3150 Y-5.0180
 X18.2909 Y-4.7677
 X18.2666 Y-4.5173
 X18.2421 Y-4.2667
 X18.2174 Y-4.0160
 X18.1925 Y-3.7652
 X18.1674 Y-3.5142
 X18.1420 Y-3.2630
 X18.1165 Y-3.0117
 X18.0907 Y-2.7602
 X18.0647 Y-2.5086
 X18.0386 Y-2.2567
 X18.0121 Y-2.0047
 X17.9854 Y-1.7525
 X17.9585 Y-1.5000
 X17.9332 Y-1.2765
 X17.9049 Y-1.0478
 X17.8738 Y-0.8143
 X17.8405 Y-0.5762
 X17.8052 Y-0.3339
 X17.7683 Y-0.0879
 X17.7304 Y0.1616
 X17.6916 Y0.4141
 X17.6523 Y0.6695
 X17.6130 Y0.9272
 X17.5741 Y1.1870
 X17.5359 Y1.4484
 X17.4987 Y1.7112
 X17.4630 Y1.9749
 X17.4292 Y2.2394
 X17.3975 Y2.5040
 X17.3685 Y2.7686
 X17.3424 Y3.0328
 X17.3197 Y3.2962
 X17.3007 Y3.5585
 X17.2859 Y3.8192
 X17.2754 Y4.0782
 X17.2699 Y4.3350
 X17.2696 Y4.5892
 X17.2749 Y4.8405
 X17.2862 Y5.0886
 X17.3038 Y5.3331
 X17.3282 Y5.5736
 X17.3597 Y5.8098
 X17.3987 Y6.0414
 X17.4456 Y6.2680
 X17.5007 Y6.4892
 X17.5585 Y6.6716
 X17.6313 Y6.8517
 X17.7184 Y7.0294
 X17.8188 Y7.2050
 X17.9320 Y7.3785
 X18.0570 Y7.5502
 X18.1930 Y7.7201
 X18.3393 Y7.8885
 X18.4950 Y8.0553
 X18.6593 Y8.2208
 X18.8315 Y8.3851
 X19.0107 Y8.5484
 X19.1962 Y8.7107
 X19.3871 Y8.8722
 X19.5826 Y9.0331
 X19.7819 Y9.1934
 X19.9843 Y9.3534
 X20.1888 Y9.5132
 X20.3948 Y9.6728
 X20.6014 Y9.8325
 X20.8079 Y9.9923
 X21.0134 Y10.1525
 X21.2171 Y10.3130
 X21.4182 Y10.4742
 X21.6159 Y10.6361
 X21.8094 Y10.7989
 X21.9979 Y10.9626
 X22.1807 Y11.1275
 X22.3568 Y11.2936
 X22.5256 Y11.4612
 X22.6862 Y11.6303
 X22.8377 Y11.8010
 X22.9795 Y11.9736
 X23.1106 Y12.1482
 X23.2304 Y12.3248
 X23.3380 Y12.5037
 X23.4539 Y12.7145
 X23.5672 Y12.9299
 X23.6777 Y13.1494
 X23.7855 Y13.3729
 X23.8905 Y13.6001
 X23.9926 Y13.8307
 X24.0918 Y14.0645
 X24.1879 Y14.3012
 X24.2811 Y14.5406
 X24.3711 Y14.7825
 X24.4580 Y15.0265
 X24.5417 Y15.2724
 X24.6221 Y15.5200
 X24.6991 Y15.7690
 X24.7728 Y16.0192
 X24.8431 Y16.2702
 X24.9099 Y16.5219
 X24.9731 Y16.7740
 X25.0327 Y17.0262
 X25.0887 Y17.2783
 X25.1409 Y17.5300
 X25.1894 Y17.7811
 X25.2341 Y18.0314
 X25.2749 Y18.2805
 X25.3117 Y18.5281
 X25.3445 Y18.7742
 X25.3733 Y19.0184
 X25.3980 Y19.2604
 X25.4186 Y19.5000
 X25.4296 Y19.7597
 X25.4241 Y20.0113
 X25.4058 Y20.2557
 X25.3779 Y20.4940
 X25.3442 Y20.7271
 X25.3080 Y20.9562
 X25.2729 Y21.1823
 X25.2424 Y21.4064
 X25.2200 Y21.6294
 X25.2092 Y21.8526
 X25.2136 Y22.0768
 X25.2366 Y22.3031
 X25.2818 Y22.5325
 X25.3527 Y22.7661
 X25.4527 Y23.0050
 X25.5854 Y23.2500
 X25.7123 Y23.4601
 X25.8401 Y23.6722
 X25.9690 Y23.8858
 X26.0990 Y24.1009
 X26.2301 Y24.3170
 X26.3626 Y24.5338
 X26.4963 Y24.7511
 X26.6315 Y24.9686
 X26.7682 Y25.1859
 X26.9063 Y25.4028
 X27.0461 Y25.6189
 X27.1876 Y25.8341
 X27.3309 Y26.0479
 X27.4760 Y26.2601
 X27.6229 Y26.4704
 X27.7719 Y26.6784
 X27.9229 Y26.8840
 X28.0760 Y27.0867
 X28.2313 Y27.2864
 X28.3889 Y27.4826
 X28.5488 Y27.6752
 X28.7111 Y27.8637
 X28.8759 Y28.0480
 X29.0432 Y28.2276
G0 Z25.0000
 X19.2500 Y30.0000
G1 Z0.0000
 X19.5000 Y29.7500
 X19.2500 Y30.0000
G0 Z25.0000
 X15.0000 Y18.2500
G1 Z0.0000
 X15.2500 Y18.0000
 X15.0000 Y18.2500
G0 Z25.0000
 X22.7500 Y15.5000
G1 Z0.0000
 X21.5000 Y14.0000
 X22.7500 Y15.5000
G0 Z25.0000
 X23.0000 Y-3.5000
G1 Z0.0000
 X23.2500 Y-3.7500
 X23.0000 Y-3.5000
 X22.7500 Y-4.2500
 X23.0000 Y-4.5000
 X22.7500 Y-4.2500
G0 Z25.0000
 X10.3333 Y-2.4167
G1 Z0.0000
 X10.4167 Y-2.5833
 X10.3333 Y-2.4167
G0 Z25.0000
 X5.4167 Y-4.8333
G1 Z0.0000
 X5.5833 Y-4.9167
 X5.4167 Y-4.8333
G0 Z25.0000
 X5.7500 Y-7.5000
G1 Z0.0000
 X6.0000 Y-7.7500
 X5.7500 Y-7.5000
G0 Z25.0000
 X5.5000 Y-9.7500
G1 Z0.0000
 X5.7500 Y-10.0000
 X5.5000 Y-9.7500
G0 Z25.0000
 X3.7500 Y-9.5000
G1 Z0.0000
 X4.0000 Y-9.7500
 X3.7500 Y-9.5000
G0 Z25.0000
 X-1.2500
G1 Z0.0000
 X-1.0000 Y-9.7500
 X-1.2500 Y-9.5000
G0 Z25.0000
 X-9.0000 Y-9.2500
G1 Z0.0000
 X-8.7500 Y-9.5000
 X-9.0000 Y-9.2500
G0 Z25.0000
 X-10.0833 Y-29.5833
G1 Z0.0000
 X-9.9167 Y-29.6667
 X-10.0833 Y-29.5833
G0 Z25.0000
 X-29.4167 Y-26.9167
G1 Z0.0000
 X-29.3333 Y-27.0833
 X-29.4167 Y-26.9167
G0 Z25.0000
 X-30.5000 Y-30.5000
G1 Z0.0000
 X-30.2500 Y-30.7500
 X-30.5000 Y-30.5000
G0 Z25.0000
 X-39.9167 Y-22.9167
G1 Z0.0000
 X-39.8333 Y-23.0833
 X-39.9167 Y-22.9167
 X-39.5000 Y-23.0000
 X-39.2500 Y-23.2500
 X-39.5000 Y-23.0000
G0 Z25.0000
 X-30.4167 Y-24.6667
G1 Z0.0000
 X-30.3333 Y-24.8333
 X-30.4167 Y-24.6667
G0 Z25.0000
 X-29.2500 Y-24.5000
G1 Z0.0000
 X-29.0000 Y-24.7500
 X-29.2500 Y-24.5000
G0 Z25.0000
 X-27.9167 Y-20.9167
G1 Z0.0000
 X-27.8333 Y-21.0833
 X-27.9167 Y-20.9167
G0 Z25.0000
 X-28.2500 Y-14.0000
G1 Z0.0000
 X-26.2500 Y-12.0000
 X-28.2500 Y-14.0000
G0 Z25.0000
 X-22.7500 Y-10.2500
G1 Z0.0000
 X-23.0000 Y-11.0000
 X-22.7500 Y-10.2500
G0 Z25.0000
 X-23.7500 Y-11.7500
G1 Z0.0000
 X-24.0000 Y-12.2500
 X-23.7500 Y-11.7500
G0 Z25.0000
 X-24.7500 Y-12.7500
G1 Z0.0000
 X-24.5000 Y-13.0000
 X-24.7500 Y-12.7500
G0 Z25.0000
 X-28.2500 Y-9.5000
G1 Z0.0000
 X-28.0000 Y-9.7500
 X-28.2500 Y-9.5000
G0 Z25.0000
 X-28.5000 Y-8.0000
G1 Z0.0000
 X-27.7500 Y-8.7500
 X-28.5000 Y-8.0000
G0 Z25.0000
 X-27.5000 Y-8.5000
G1 Z0.0000
 X-25.7500 Y-7.7500
 X-27.5000 Y-8.5000
G0 Z25.0000
 X-25.5000 Y-7.2500
G1 Z0.0000
 X-25.2500 Y-7.5000
 X-25.5000 Y-7.2500
 X-25.0000 Y-7.0000
 X-24.7500 Y-7.2500
 X-25.0000 Y-7.0000
 X-24.2500 Y-7.5000
 X-24.5000 Y-8.2500
 X-24.2500 Y-7.5000
G0 Z25.0000
 X-25.0000 Y-8.2500
G1 Z0.0000
 X-24.7500 Y-8.5000
 X-25.0000 Y-8.2500
G0 Z25.0000
 X-23.2500 Y-7.5000
G1 Z0.0000
 X-23.0000 Y-7.7500
 X-23.2500 Y-7.5000
G0 Z25.0000
 X-23.0000 Y-1.7500
G1 Z0.0000
 X-22.5000 Y-2.5000
 X-23.0000 Y-1.7500
G0 Z25.0000
 X-22.5000 Y4.7500
G1 Z0.0000
 X-22.7500 Y4.2500
 X-22.5000 Y4.7500
G0 Z25.0000
 X-17.7500 Y9.2500
G1 Z0.0000
 X-17.5000 Y9.0000
 X-17.7500 Y9.2500
G0 Z25.0000
 X-18.7500 Y12.5000
G1 Z0.0000
 X-18.5000 Y12.2500
 X-18.7500 Y12.5000
G0 Z25.0000
 X-17.7500 Y12.2500
G1 Z0.0000
 X-17.5000 Y12.0000
 X-17.7500 Y12.2500
 Y13.0000
 X-17.5000 Y12.7500
 X-17.7500 Y13.0000
G0 Z25.0000
 X-19.7500 Y15.0000
G1 Z0.0000
 X-19.5000 Y14.7500
 X-19.7500 Y15.0000
G0 Z25.0000
 X-13.2500 Y16.2500
G1 Z0.0000
 Y15.0000
 Y16.2500
G0 Z25.0000
 X-7.2500 Y10.7500
G1 Z0.0000
 X-7.0000 Y10.5000
 X-7.2500 Y10.7500
G0 Z25.0000
 X-4.6667 Y5.3333
G1 Z0.0000
 X-4.5833 Y5.1667
 X-4.6667 Y5.3333
 X-4.5000 Y4.7500
 X-4.2500 Y4.5000
 X-4.5000 Y4.7500
 Y4.0000
 X-4.2500 Y3.7500
 X-4.5000 Y4.0000
 X-4.2500 Y3.5000
 X-4.0000 Y3.2500
 X-4.2500 Y3.5000
G0 Z25.0000
 X0.5833 Y8.3333
G1 Z0.0000
 X0.6667 Y8.1667
 X0.5833 Y8.3333
G0 Z25.0000
 X-0.2500 Y11.0000
G1 Z0.0000
 X0.0000 Y10.7500
 X-0.2500 Y11.0000
G0 Z25.0000
 X-1.5000
G1 Z0.0000
 X-1.7500 Y10.5000
 X-1.5000 Y11.0000
G0 Z25.0000
 X-5.0000 Y24.7500
G1 Z0.0000
 X-5.2500 Y24.2500
 X-5.0000 Y24.7500
G0 Z25.0000
 X-6.0000 Y24.2500
G1 Z0.0000
 X-6.2500 Y23.7500
 X-6.0000 Y24.2500
 X-6.7500
 X-6.5000 Y24.0000
 X-6.7500 Y24.2500
G0 Z25.0000
 X-6.5000 Y26.0000
G1 Z0.0000
 X-6.2500 Y25.7500
 X-6.5000 Y26.0000
G0 Z25.0000
 X-5.2500 Y27.0000
G1 Z0.0000
 X-5.0000 Y26.7500
 X-5.2500 Y27.0000
G0 Z25.0000
 X-6.5000
G1 Z0.0000
 X-6.2500 Y26.7500
 X-6.5000 Y27.0000
G0 Z25.0000
 X-8.5000 Y30.0000
G1 Z0.0000
 X-8.2500 Y29.7500
 X-8.5000 Y30.0000
 X-9.0000
 X-8.7500 Y29.7500
 X-9.0000 Y30.0000
G0 Z25.0000
 X-10.0000 Y31.5000
G1 Z0.0000
 X-9.7500 Y31.2500
 X-10.0000 Y31.5000
G0 Z25.0000
 X-8.5000 Y31.7500
G1 Z0.0000
 X-8.0000 Y31.2500
 X-8.5000 Y31.7500
G0 Z25.0000
 X-6.4776 Y32.7133
G1 Z0.0000
 X-6.2350 Y32.7538
 X-5.9932 Y32.7884
 X-5.7523 Y32.8172
 X-5.5123 Y32.8403
 X-5.2732 Y32.8577
 X-5.0350 Y32.8696
 X-4.7978 Y32.8759
 X-4.5614 Y32.8769
 X-4.3260 Y32.8726
 X-4.0915 Y32.8630
 X-3.8580 Y32.8483
 X-3.6255 Y32.8285
 X-3.3939 Y32.8038
 X-3.1632 Y32.7741
 X-2.9336 Y32.7397
 X-2.7049 Y32.7004
 X-2.4773 Y32.6566
 X-2.2507 Y32.6081
 X-2.0251 Y32.5553
 X-1.8005 Y32.4979
 X-1.5769 Y32.4363
 X-1.3544 Y32.3705
 X-1.1330 Y32.3004
 X-0.9126 Y32.2263
 X-0.6932 Y32.1483
 X-0.4750 Y32.0663
 X-0.2578 Y31.9805
 X-0.0418 Y31.8910
 X0.1732 Y31.7978
 X0.3871 Y31.7010
 X0.5998 Y31.6008
 X0.8114 Y31.4971
 X1.0219 Y31.3901
 X1.2312 Y31.2799
 X1.4394 Y31.1666
 X1.6464 Y31.0501
 X1.8522 Y30.9306
 X2.0569 Y30.8083
 X2.2604 Y30.6831
 X2.4627 Y30.5552
 X2.6637 Y30.4246
 X2.8636 Y30.2915
 X3.0622 Y30.1559
 X3.2596 Y30.0178
 X3.4558 Y29.8775
 X3.6507 Y29.7348
 X3.8444 Y29.5901
 X4.0368 Y29.4432
 X4.2279 Y29.2943
 X4.4178 Y29.1436
 X4.6064 Y28.9909
 X4.7937 Y28.8366
 X4.9796 Y28.6806
 X5.1643 Y28.5230
 X5.3476 Y28.3640
 X5.5296 Y28.2035
 X5.7103 Y28.0416
 X5.8896 Y27.8785
 X6.0675 Y27.7143
 X6.2441 Y27.5490
 X6.4193 Y27.3826
 X6.5932 Y27.2154
 X6.7656 Y27.0473
 X6.9367 Y26.8785
 X7.1063 Y26.7090
 X7.2745 Y26.5389
 X7.4413 Y26.3683
 X7.6067 Y26.1973
 X7.7706 Y26.0260
 X7.9331 Y25.8544
 X8.0941 Y25.6826
 X8.2537 Y25.5108
 X8.4117 Y25.3389
 X8.5684 Y25.1672
 X8.7234 Y24.9955
 X8.8771 Y24.8242
 X9.0292 Y24.6532
 X9.1797 Y24.4825
 X9.3288 Y24.3124
 X9.4763 Y24.1428
 X9.6223 Y23.9740
 X9.7774 Y23.7863
 X9.9249 Y23.5931
 X10.0658 Y23.3953
 X10.2009 Y23.1934
 X10.3310 Y22.9882
 X10.4571 Y22.7803
 X10.5800 Y22.5705
 X10.7007 Y22.3594
 X10.8199 Y22.1477
 X10.9386 Y21.9362
 X11.0576 Y21.7254
 X11.1778 Y21.5162
 X11.3001 Y21.3092
 X11.4254 Y21.1051
 X11.5545 Y20.9046
 X11.6884 Y20.7084
 X11.8278 Y20.5172
 X11.9737 Y20.3316
 X12.1270 Y20.1525
 X12.2885 Y19.9803
 X12.4591 Y19.8160
 X12.6396 Y19.6600
 X12.8310 Y19.5133
 X13.0342 Y19.3764
 X13.2500 Y19.2500
 X12.8993 Y26.5648
 X12.5000 Y29.0000
 X13.5000 Y31.0000
 X12.7500 Y31.5000
 Y32.2500
 X13.2500 Y32.0000
 X11.2500 Y40.0000
 X3.0000
 X2.7842 Y40.0054
 X2.5551 Y40.0186
 X2.3169 Y40.0354
 X2.0736 Y40.0517
 X1.8292 Y40.0631
 X1.5877 Y40.0656
 X1.3533 Y40.0546
 X1.1300 Y40.0262
 X0.9218 Y39.9760
 X0.7329 Y39.8997
 X0.5671 Y39.7932
 X0.4287 Y39.6523
 X0.3216 Y39.4726
 X0.2500 Y39.2500
 X0.0000
 Y40.0000
 X-30.7500
G0 Z25.0000
 X-39.2500 Y-23.2500
G1 Z0.0000
 X-39.5000 Y-23.5000
 X-39.4275 Y-23.7328
 X-39.3567 Y-23.9664
 X-39.2875 Y-24.2008
 X-39.2200 Y-24.4360
 X-39.1541 Y-24.6720
 X-39.0898 Y-24.9087
 X-39.0272 Y-25.1462
 X-38.9661 Y-25.3844
 X-38.9066 Y-25.6233
 X-38.8486 Y-25.8629
 X-38.7922 Y-26.1031
 X-38.7372 Y-26.3439
 X-38.6838 Y-26.5854
 X-38.6318 Y-26.8275
 X-38.5812 Y-27.0702
 X-38.5321 Y-27.3134
 X-38.4844 Y-27.5572
 X-38.4382 Y-27.8014
 X-38.3932 Y-28.0462
 X-38.3497 Y-28.2914
 X-38.3075 Y-28.5372
 X-38.2666 Y-28.7833
 X-38.2270 Y-29.0299
 X-38.1887 Y-29.2769
 X-38.1517 Y-29.5243
 X-38.1159 Y-29.7720
 X-38.0813 Y-30.0201
 X-38.0480 Y-30.2685
 X-38.0159 Y-30.5172
 X-37.9849 Y-30.7662
 X-37.9551 Y-31.0154
 X-37.9264 Y-31.2649
 X-37.8989 Y-31.5146
 X-37.8725 Y-31.7646
 X-37.8471 Y-32.0147
 X-37.8228 Y-32.2650
 X-37.7996 Y-32.5155
 X-37.7774 Y-32.7660
 X-37.7562 Y-33.0167
 X-37.7360 Y-33.2674
 X-37.7168 Y-33.5183
 X-37.6985 Y-33.7691
 X-37.6812 Y-34.0200
 X-37.6648 Y-34.2710
 X-37.6493 Y-34.5219
 X-37.6347 Y-34.7728
 X-37.6210 Y-35.0236
 X-37.6081 Y-35.2744
 X-37.5960 Y-35.5251
 X-37.5848 Y-35.7756
 X-37.5743 Y-36.0261
 X-37.5646 Y-36.2764
 X-37.5557 Y-36.5265
 X-37.5475 Y-36.7765
 X-37.5401 Y-37.0262
 X-37.5333 Y-37.2757
 X-37.5272 Y-37.5250
 X-37.5218 Y-37.7740
 X-37.5170 Y-38.0228
 X-37.5129 Y-38.2712
 X-37.5094 Y-38.5193
 X-37.5064 Y-38.7670
 X-37.5041 Y-39.0144
 X-37.5023 Y-39.2614
 X-37.5010 Y-39.5080
 X-37.5003 Y-39.7542
 X-37.5000 Y-40.0000
 X-37.3049 Y-40.0045
 X-37.0824 Y-40.0146
 X-36.8407 Y-40.0246
 X-36.5881 Y-40.0288
 X-36.3325 Y-40.0216
 X-36.0823 Y-39.9973
 X-35.8453 Y-39.9501
 X-35.6300 Y-39.8746
 X-35.4442 Y-39.7649
 X-35.2963 Y-39.6154
 X-35.1943 Y-39.4205
 X-35.1424 Y-39.2193
 X-35.1183 Y-39.0014
 Y-38.7695
 X-35.1391 Y-38.5258
 X-35.1772 Y-38.2728
 X-35.2290 Y-38.0127
 X-35.2911 Y-37.7480
 X-35.3601 Y-37.4811
 X-35.4324 Y-37.2142
 X-35.5046 Y-36.9500
 X-35.5731 Y-36.6906
 X-35.6346 Y-36.4384
 X-35.6855 Y-36.1959
 X-35.7224 Y-35.9654
 X-35.7417 Y-35.7493
 X-35.7490 Y-35.5737
 X-35.7553 Y-35.3916
 X-35.7607 Y-35.2034
 X-35.7654 Y-35.0092
 X-35.7695 Y-34.8094
 X-35.7732 Y-34.6043
 X-35.7766 Y-34.3941
 X-35.7797 Y-34.1791
 X-35.7829 Y-33.9596
 X-35.7861 Y-33.7359
 X-35.7896 Y-33.5082
 X-35.7934 Y-33.2769
 X-35.7978 Y-33.0421
 X-35.8028 Y-32.8043
 X-35.8085 Y-32.5636
 X-35.8152 Y-32.3203
 X-35.8229 Y-32.0748
 X-35.8317 Y-31.8272
 X-35.8419 Y-31.5780
 X-35.8535 Y-31.3273
 X-35.8668 Y-31.0754
 X-35.8817 Y-30.8227
 X-35.8985 Y-30.5693
 X-35.9173 Y-30.3156
 X-35.9382 Y-30.0619
 X-35.9614 Y-29.8084
 X-35.9870 Y-29.5555
 X-36.0151 Y-29.3032
 X-36.0458 Y-29.0521
 X-36.0794 Y-28.8024
 X-36.1159 Y-28.5542
 X-36.1555 Y-28.3080
 X-36.1983 Y-28.0639
 X-36.2445 Y-27.8223
 X-36.2941 Y-27.5835
 X-36.3473 Y-27.3476
 X-36.4043 Y-27.1151
 X-36.4652 Y-26.8862
 X-36.5301 Y-26.6611
 X-36.5992 Y-26.4401
 X-36.6725 Y-26.2236
 X-36.7503 Y-26.0117
 X-36.8327 Y-25.8049
 X-36.9197 Y-25.6033
 X-37.0116 Y-25.4072
 X-37.1085 Y-25.2169
 X-37.2105 Y-25.0328
 X-37.3177 Y-24.8550
 X-37.4302 Y-24.6838
 X-37.5483 Y-24.5195
 X-37.6721 Y-24.3625
 X-37.8016 Y-24.2130
 X-37.9370 Y-24.0712
 X-38.0786 Y-23.9375
 X-38.2263 Y-23.8121
 X-38.3803 Y-23.6953
 X-38.5408 Y-23.5873
 X-38.7079 Y-23.4886
 X-38.8817 Y-23.3992
 X-39.0623 Y-23.3196
 X-39.2500 Y-23.2500
G0 Z25.0000
 X-30.0000 Y-27.2500
G1 Z0.0000
 Y-28.0000
 X-29.7500
 X-30.0000 Y-27.2500
G0 Z25.0000
 X-28.2500 Y-21.7500
G1 Z0.0000
 X-29.0000 Y-23.5000
 X-28.7500
 X-28.2500 Y-21.7500
G0 Z25.0000
 X-27.0000 Y-14.5000
G1 Z0.0000
 X-28.5000 Y-18.0000
 X-28.2500
 X-27.0000 Y-14.5000
G0 Z25.0000
 X-25.7500 Y-16.2500
G1 Z0.0000
 Y-17.2500
 X-25.5000
 X-25.7500 Y-16.2500
G0 Z25.0000
 X-16.2500 Y-20.2500
G1 Z0.0000
 Y-20.5000
 X-16.0233 Y-20.7014
 X-15.8267 Y-20.8903
 X-15.6642 Y-21.0755
 X-15.5397 Y-21.2656
 X-15.4571 Y-21.4693
 X-15.4204 Y-21.6955
 X-15.4334 Y-21.9528
 X-15.5000 Y-22.2500
 X-13.0000 Y-25.7500
 X-12.7500
 X-14.7500 Y-21.5000
 X-14.5563 Y-21.6760
 X-14.3708 Y-21.8556
 X-14.1932 Y-22.0389
 X-14.0236 Y-22.2257
 X-13.8619 Y-22.4163
 X-13.7080 Y-22.6105
 X-13.5618 Y-22.8086
 X-13.4233 Y-23.0104
 X-13.2924 Y-23.2160
 X-13.1690 Y-23.4255
 X-13.0531 Y-23.6388
 X-12.9445 Y-23.8560
 X-12.8433 Y-24.0772
 X-12.7493 Y-24.3023
 X-12.6625 Y-24.5314
 X-12.5829 Y-24.7646
 X-12.5102 Y-25.0018
 X-12.4445 Y-25.2431
 X-12.3857 Y-25.4886
 X-12.3337 Y-25.7382
 X-12.2885 Y-25.9920
 X-12.2500 Y-26.2500
 X-12.7500 Y-26.0000
 X-12.7544 Y-26.0841
 X-12.7665 Y-26.2019
 X-12.7860 Y-26.3483
 X-12.8129 Y-26.5176
 X-12.8469 Y-26.7047
 X-12.8880 Y-26.9042
 X-12.9360 Y-27.1106
 X-12.9908 Y-27.3187
 X-13.0523 Y-27.5230
 X-13.1202 Y-27.7181
 X-13.1945 Y-27.8988
 X-13.2750 Y-28.0596
 X-13.3615 Y-28.1952
 X-13.4540 Y-28.3002
 X-13.5524 Y-28.3692
 X-13.6563 Y-28.3969
 X-13.7658 Y-28.3779
 X-13.8807 Y-28.3069
 X-14.0008 Y-28.1784
 X-14.1260 Y-27.9871
 X-14.2213 Y-27.7867
 X-14.2829 Y-27.5868
 X-14.3168 Y-27.3872
 X-14.3291 Y-27.1880
 X-14.3256 Y-26.9890
 X-14.3126 Y-26.7903
 X-14.2958 Y-26.5917
 X-14.2813 Y-26.3931
 X-14.2752 Y-26.1946
 X-14.2835 Y-25.9960
 X-14.3120 Y-25.7973
 X-14.3670 Y-25.5984
 X-14.4543 Y-25.3993
 X-14.5800 Y-25.1998
 X-14.7500 Y-25.0000
 X-15.5000 Y-26.0000
 X-15.7500
 Y-28.5000
 X-15.0000 Y-28.2500
 X-15.5000 Y-30.0000
 X-15.2500
 X-14.7500 Y-28.5000
 X-13.5000 Y-29.2500
 X-11.5000 Y-29.5000
 Y-29.2500
 X-12.7500 Y-29.0000
 X-11.5000 Y-27.7500
 X-12.2500 Y-28.0000
 X-12.2160 Y-27.8001
 X-12.1875 Y-27.5954
 X-12.1644 Y-27.3864
 X-12.1469 Y-27.1734
 X-12.1349 Y-26.9569
 X-12.1285 Y-26.7373
 X-12.1277 Y-26.5151
 X-12.1327 Y-26.2905
 X-12.1434 Y-26.0642
 X-12.1598 Y-25.8363
 X-12.1821 Y-25.6075
 X-12.2102 Y-25.3781
 X-12.2443 Y-25.1485
 X-12.2844 Y-24.9192
 X-12.3305 Y-24.6905
 X-12.3826 Y-24.4628
 X-12.4409 Y-24.2367
 X-12.5053 Y-24.0125
 X-12.5759 Y-23.7906
 X-12.6527 Y-23.5715
 X-12.7359 Y-23.3555
 X-12.8253 Y-23.1431
 X-12.9212 Y-22.9348
 X-13.0235 Y-22.7308
 X-13.1323 Y-22.5316
 X-13.2475 Y-22.3377
 X-13.3694 Y-22.1495
 X-13.4979 Y-21.9674
 X-13.6330 Y-21.7918
 X-13.7749 Y-21.6231
 X-13.9234 Y-21.4617
 X-14.0788 Y-21.3081
 X-14.2411 Y-21.1627
 X-14.4102 Y-21.0258
 X-14.5863 Y-20.8980
 X-14.7693 Y-20.7796
 X-14.9594 Y-20.6711
 X-15.1565 Y-20.5728
 X-15.3608 Y-20.4852
 X-15.5722 Y-20.4087
 X-15.7909 Y-20.3438
 X-16.0168 Y-20.2907
 X-16.2500 Y-20.2500
G0 Z25.0000
 X-22.0000 Y-15.2500
G1 Z0.0000
 X-22.2500 Y-21.2500
 X-22.0000
 Y-20.5000
 X-20.2500 Y-22.0000
 X-21.5000 Y-19.7500
 X-21.7500
 Y-20.2500
 X-22.0000
 X-22.0042 Y-20.0205
 X-22.0148 Y-19.7767
 X-22.0287 Y-19.5243
 X-22.0426 Y-19.2687
 X-22.0536 Y-19.0155
 X-22.0584 Y-18.7700
 X-22.0539 Y-18.5379
 X-22.0371 Y-18.3248
 X-22.0046 Y-18.1359
 X-21.9535 Y-17.9769
 X-21.8807 Y-17.8533
 X-21.7829 Y-17.7707
 X-21.6570 Y-17.7344
 X-21.5000 Y-17.7500
 Y-15.2500
 X-22.0000
G0 Z25.0000
 X-27.2500 Y-5.7500
G1 Z0.0000
 Y-6.0000
 X-23.2500 Y-5.2500
 X-27.2500 Y-5.7500
G0 Z25.0000
 X-26.0000 Y-3.0000
G1 Z0.0000
 Y-3.7500
 X-25.7500
 X-26.0000 Y-3.0000
G0 Z25.0000
 X-19.2500 Y2.7500
G1 Z0.0000
 X-20.2500 Y0.2500
 X-20.4940 Y0.3960
 X-20.7071 Y0.4821
 X-20.8923 Y0.5085
 X-21.0525 Y0.4752
 X-21.1904 Y0.3826
 X-21.3090 Y0.2307
 X-21.4113 Y0.0198
 X-21.5000 Y-0.2500
 X-21.7753 Y-0.2526
 X-22.0213 Y-0.2797
 X-22.2391 Y-0.3300
 X-22.4301 Y-0.4023
 X-22.5952 Y-0.4952
 X-22.7358 Y-0.6076
 X-22.8530 Y-0.7379
 X-22.9480 Y-0.8851
 X-23.0220 Y-1.0477
 X-23.0762 Y-1.2245
 X-23.1117 Y-1.4141
 X-23.1298 Y-1.6154
 X-23.1316 Y-1.8269
 X-23.1184 Y-2.0474
 X-23.0912 Y-2.2756
 X-23.0514 Y-2.5103
 X-23.0000 Y-2.7500
 X-24.5000 Y-3.2500
 X-24.0000 Y-3.7500
 Y-4.0000
 X-25.7500
 X-25.5860 Y-4.1821
 X-25.4137 Y-4.3160
 X-25.2366 Y-4.4038
 X-25.0581 Y-4.4480
 X-24.8817 Y-4.4508
 X-24.7110 Y-4.4144
 X-24.5494 Y-4.3410
 X-24.4004 Y-4.2330
 X-24.2675 Y-4.0927
 X-24.1541 Y-3.9222
 X-24.0638 Y-3.7239
 X-24.0000 Y-3.5000
 X-23.7180 Y-3.4629
 X-23.4475 Y-3.4192
 X-23.1883 Y-3.3686
 X-22.9397 Y-3.3109
 X-22.7013 Y-3.2459
 X-22.4727 Y-3.1732
 X-22.2534 Y-3.0926
 X-22.0429 Y-3.0038
 X-21.8407 Y-2.9065
 X-21.6466 Y-2.8005
 X-21.4598 Y-2.6855
 X-21.2800 Y-2.5613
 X-21.1068 Y-2.4275
 X-20.9397 Y-2.2840
 X-20.7781 Y-2.1303
 X-20.6217 Y-1.9663
 X-20.4699 Y-1.7918
 X-20.3224 Y-1.6063
 X-20.1787 Y-1.4097
 X-20.0382 Y-1.2017
 X-19.9005 Y-0.9819
 X-19.7653 Y-0.7503
 X-19.6319 Y-0.5064
 X-19.5000 Y-0.2500
 X-18.5000 Y-0.5000
 Y0.2500
 X-19.2500 Y0.0000
 X-19.7500 Y1.5000
 X-19.0000 Y1.7500
 X-19.2500 Y2.7500
G0 Z25.0000
 X-17.2500 Y10.7500
G1 Z0.0000
 X-17.5000 Y9.7500
 X-17.2500
 Y10.7500
G0 Z25.0000
 X-40.0000 Y40.0000
G1 Z0.0000
 Y26.0000
 X-35.2500 Y32.0000
 X-34.8086 Y-9.2598
 X-35.2461 Y-15.7502
 X-34.2500 Y-40.0000
 X-30.5000
 X-30.2500 Y-31.5000
 X-30.0000
 X-29.7500 Y-32.2500
 X-29.5000
 Y-29.2500
 X-30.2500 Y-29.5000
 Y-25.7500
 X-30.0000
 X-29.7500 Y-26.5000
 X-29.5000
 X-29.2500 Y-23.0000
 X-29.5000
 X-30.0000 Y-23.2500
 X-30.2500 Y-24.2500
 X-30.5000
 X-30.4588 Y-23.9546
 X-30.4064 Y-23.6801
 X-30.3434 Y-23.4245
 X-30.2701 Y-23.1858
 X-30.1871 Y-22.9620
 X-30.0947 Y-22.7510
 X-29.9934 Y-22.5508
 X-29.8837 Y-22.3593
 X-29.7660 Y-22.1746
 X-29.6408 Y-21.9946
 X-29.5085 Y-21.8173
 X-29.3696 Y-21.6405
 X-29.2246 Y-21.4624
 X-29.0738 Y-21.2808
 X-28.9177 Y-21.0937
 X-28.7569 Y-20.8991
 X-28.5917 Y-20.6950
 X-28.4226 Y-20.4793
 X-28.2500 Y-20.2500
 X-30.5000 Y-21.5000
 Y-16.5000
 X-28.2500 Y-14.2500
 X-30.2500 Y-16.2500
 X-30.5000 Y-5.2500
 X-30.7500 Y14.0000
 X-31.2500 Y24.7500
 X-30.7500
 X-30.8086 Y30.7926
 X-30.7500 Y40.0000
 X-40.0000
G0 Z25.0000
 X-35.5000 Y32.0000
G1 Z0.0000
 X-35.7010 Y31.8748
 X-35.8963 Y31.7455
 X-36.0861 Y31.6122
 X-36.2704 Y31.4749
 X-36.4492 Y31.3337
 X-36.6227 Y31.1887
 X-36.7910 Y31.0400
 X-36.9541 Y30.8876
 X-37.1120 Y30.7316
 X-37.2649 Y30.5721
 X-37.4129 Y30.4092
 X-37.5560 Y30.2429
 X-37.6942 Y30.0733
 X-37.8278 Y29.9005
 X-37.9566 Y29.7245
 X-38.0810 Y29.5455
 X-38.2008 Y29.3634
 X-38.3162 Y29.1785
 X-38.4273 Y28.9907
 X-38.5341 Y28.8001
 X-38.6367 Y28.6069
 X-38.7352 Y28.4110
 X-38.8297 Y28.2125
 X-38.9202 Y28.0116
 X-39.0069 Y27.8083
 X-39.0897 Y27.6027
 X-39.1688 Y27.3948
 X-39.2443 Y27.1847
 X-39.3161 Y26.9725
 X-39.3845 Y26.7583
 X-39.4495 Y26.5421
 X-39.5111 Y26.3241
 X-39.5695 Y26.1042
 X-39.6247 Y25.8826
 X-39.6767 Y25.6594
 X-39.7257 Y25.4346
 X-39.7718 Y25.2082
 X-39.8150 Y24.9804
 X-39.8554 Y24.7513
 X-39.8931 Y24.5209
 X-39.9281 Y24.2892
 X-39.9605 Y24.0564
 X-39.9905 Y23.8226
 X-40.0180 Y23.5878
 X-40.0432 Y23.3521
 X-40.0661 Y23.1155
 X-40.0868 Y22.8781
 X-40.1054 Y22.6401
 X-40.1220 Y22.4014
 X-40.1367 Y22.1622
 X-40.1494 Y21.9225
 X-40.1604 Y21.6824
 X-40.1696 Y21.4420
 X-40.1771 Y21.2014
 X-40.1831 Y20.9605
 X-40.1876 Y20.7196
 X-40.1907 Y20.4787
 X-40.1925 Y20.2378
 X-40.1930 Y19.9970
 X-40.1923 Y19.7565
 X-40.1904 Y19.5162
 X-40.1876 Y19.2762
 X-40.1838 Y19.0367
 X-40.1790 Y18.7976
 X-40.1735 Y18.5592
 X-40.1673 Y18.3214
 X-40.1604 Y18.0842
 X-40.1530 Y17.8479
 X-40.1451 Y17.6125
 X-40.1367 Y17.3780
 X-40.1280 Y17.1445
 X-40.1191 Y16.9121
 X-40.1099 Y16.6809
 X-40.1006 Y16.4509
 X-40.0913 Y16.2222
 X-40.0821 Y15.9949
 X-40.0729 Y15.7691
 X-40.0640 Y15.5448
 X-40.0553 Y15.3221
 X-40.0470 Y15.1011
 X-40.0391 Y14.8819
 X-40.0317 Y14.6644
 X-40.0249 Y14.4489
 X-40.0187 Y14.2354
 X-40.0134 Y14.0239
 X-40.0087 Y13.8146
 X-40.0050 Y13.6074
 X-40.0023 Y13.4026
 X-40.0006 Y13.2001
 X-40.0000 Y13.0000
 Y-40.0000
 X-37.5000
 X-37.4999 Y-39.7679
 X-37.4996 Y-39.5340
 X-37.4991 Y-39.2982
 X-37.4986 Y-39.0606
 X-37.4980 Y-38.8214
 X-37.4974 Y-38.5805
 X-37.4969 Y-38.3380
 X-37.4965 Y-38.0941
 X-37.4962 Y-37.8488
 Y-37.6020
 X-37.4964 Y-37.3540
 X-37.4969 Y-37.1048
 X-37.4978 Y-36.8544
 X-37.4992 Y-36.6030
 X-37.5009 Y-36.3505
 X-37.5032 Y-36.0971
 X-37.5061 Y-35.8428
 X-37.5096 Y-35.5877
 X-37.5138 Y-35.3319
 X-37.5186 Y-35.0753
 X-37.5243 Y-34.8182
 X-37.5307 Y-34.5605
 X-37.5381 Y-34.3023
 X-37.5464 Y-34.0438
 X-37.5556 Y-33.7848
 X-37.5659 Y-33.5256
 X-37.5772 Y-33.2662
 X-37.5897 Y-33.0067
 X-37.6034 Y-32.7471
 X-37.6183 Y-32.4875
 X-37.6345 Y-32.2280
 X-37.6520 Y-31.9686
 X-37.6709 Y-31.7094
 X-37.6912 Y-31.4505
 X-37.7130 Y-31.1919
 X-37.7363 Y-30.9337
 X-37.7613 Y-30.6760
 X-37.7878 Y-30.4188
 X-37.8161 Y-30.1623
 X-37.8461 Y-29.9064
 X-37.8779 Y-29.6512
 X-37.9115 Y-29.3969
 X-37.9470 Y-29.1435
 X-37.9845 Y-28.8910
 X-38.0240 Y-28.6395
 X-38.0655 Y-28.3890
 X-38.1091 Y-28.1398
 X-38.1549 Y-27.8917
 X-38.2028 Y-27.6450
 X-38.2530 Y-27.3995
 X-38.3055 Y-27.1555
 X-38.3604 Y-26.9130
 X-38.4177 Y-26.6721
 X-38.4774 Y-26.4328
 X-38.5396 Y-26.1951
 X-38.6043 Y-25.9593
 X-38.6717 Y-25.7252
 X-38.7417 Y-25.4931
 X-38.8145 Y-25.2629
 X-38.8900 Y-25.0347
 X-38.9683 Y-24.8086
 X-39.0495 Y-24.5847
 X-39.1335 Y-24.3630
 X-39.2206 Y-24.1437
 X-39.3107 Y-23.9266
 X-39.4038 Y-23.7121
 X-39.5000 Y-23.5000
 X-39.2500 Y-23.2500
 X-36.8160 Y-25.5098
 X-36.2074 Y-32.0000
 X-35.2500 Y-40.0000
 X-34.2500
 X-35.2390 Y-15.7500
 X-34.7733 Y-9.2598
 X-35.2884 Y9.7500
 X-35.2500 Y25.0000
 X-35.5000 Y32.0000
G0 Z25.0000
 X-19.2500 Y24.0000
G1 Z0.0000
 X-19.3522 Y23.7809
 X-19.4518 Y23.5607
 X-19.5490 Y23.3393
 X-19.6436 Y23.1169
 X-19.7358 Y22.8933
 X-19.8255 Y22.6687
 X-19.9126 Y22.4431
 X-19.9973 Y22.2165
 X-20.0794 Y21.9890
 X-20.1591 Y21.7605
 X-20.2362 Y21.5312
 X-20.3109 Y21.3009
 X-20.3831 Y21.0699
 X-20.4528 Y20.8380
 X-20.5199 Y20.6052
 X-20.5846 Y20.3718
 X-20.6468 Y20.1377
 X-20.7065 Y19.9028
 X-20.7637 Y19.6672
 X-20.8184 Y19.4310
 X-20.8707 Y19.1942
 X-20.9204 Y18.9568
 X-20.9677 Y18.7189
 X-21.0125 Y18.4804
 X-21.0547 Y18.2414
 X-21.0946 Y18.0020
 X-21.1319 Y17.7621
 X-21.1667 Y17.5218
 X-21.1990 Y17.2811
 X-21.2289 Y17.0400
 X-21.2563 Y16.7986
 X-21.2811 Y16.5569
 X-21.3036 Y16.3150
 X-21.3235 Y16.0728
 X-21.3409 Y15.8304
 X-21.3559 Y15.5878
 X-21.3684 Y15.3450
 X-21.3784 Y15.1021
 X-21.3859 Y14.8591
 X-21.3910 Y14.6160
 X-21.3935 Y14.3729
 X-21.3937 Y14.1298
 X-21.3913 Y13.8867
 X-21.3864 Y13.6436
 X-21.3791 Y13.4006
 X-21.3693 Y13.1576
 X-21.3570 Y12.9149
 X-21.3423 Y12.6722
 X-21.3251 Y12.4298
 X-21.3054 Y12.1876
 X-21.2832 Y11.9456
 X-21.2586 Y11.7039
 X-21.2315 Y11.4624
 X-21.2020 Y11.2213
 X-21.1700 Y10.9806
 X-21.1355 Y10.7402
 X-21.0985 Y10.5003
 X-21.0591 Y10.2608
 X-21.0172 Y10.0218
 X-20.9729 Y9.7832
 X-20.9260 Y9.5452
 X-20.8768 Y9.3077
 X-20.8250 Y9.0709
 X-20.7708 Y8.8346
 X-20.7142 Y8.5990
 X-20.6550 Y8.3640
 X-20.5935 Y8.1298
 X-20.5295 Y7.8962
 X-20.4629 Y7.6635
 X-20.3940 Y7.4314
 X-20.3226 Y7.2003
 X-20.2487 Y6.9700
 X-20.1724 Y6.7405
 X-20.0936 Y6.5119
 X-20.0124 Y6.2843
 X-19.9287 Y6.0576
 X-19.8426 Y5.8318
 X-19.7540 Y5.6071
 X-19.6630 Y5.3835
 X-19.5695 Y5.1609
 X-19.4735 Y4.9394
 X-19.3752 Y4.7190
 X-19.2743 Y4.4998
 X-19.1710 Y4.2818
 X-19.0653 Y4.0650
 X-18.9571 Y3.8494
 X-18.8466 Y3.6350
 X-18.7335 Y3.4220
 X-18.6180 Y3.2103
 X-18.5000 Y3.0000
 X-18.2500
 X-16.7500 Y8.0000
 X-17.0000
 X-17.5000 Y7.0000
 X-17.7500
 X-17.0000 Y9.0000
 X-17.2500 Y9.7500
 X-17.1022 Y9.7881
 X-16.9880 Y9.8489
 X-16.9056 Y9.9281
 X-16.8532 Y10.0211
 X-16.8291 Y10.1234
 X-16.8313 Y10.2304
 X-16.8581 Y10.3378
 X-16.9075 Y10.4410
 X-16.9779 Y10.5354
 X-17.0674 Y10.6166
 X-17.1740 Y10.6801
 X-17.2961 Y10.7214
 X-17.4318 Y10.7359
 X-17.5792 Y10.7192
 X-17.7366 Y10.6668
 X-17.9020 Y10.5741
 X-18.0738 Y10.4367
 X-18.2500 Y10.2500
 X-17.5000 Y10.5000
 X-17.7500 Y9.5000
 X-17.9239 Y9.7291
 X-18.0754 Y9.9454
 X-18.2025 Y10.1534
 X-18.3033 Y10.3575
 X-18.3759 Y10.5622
 X-18.4184 Y10.7719
 X-18.4290 Y10.9911
 X-18.4057 Y11.2242
 X-18.3467 Y11.4757
 X-18.2500 Y11.7500
 X-18.0000 Y12.5000
 X-17.7500 Y11.5000
 X-17.0000 Y12.2500
 X-17.2500 Y13.5000
 X-17.7500 Y15.2500
 X-18.5000 Y14.7500
 X-19.7434 Y18.2510
 X-19.2500 Y24.0000
G0 Z25.0000
 X-19.5000 Y16.0000
G1 Z0.0000
 X-19.2500 Y14.5000
 X-18.9678 Y14.4376
 X-18.7652 Y14.3351
 X-18.6294 Y14.1932
 X-18.5478 Y14.0128
 X-18.5075 Y13.7949
 X-18.4958 Y13.5403
 X-18.5000 Y13.2500
 X-18.2500
 X-18.0000 Y14.7500
 X-18.5000 Y15.5000
 X-19.5000 Y16.0000
G0 Z25.0000
 X-11.5000 Y16.2500
G1 Z0.0000
 X-13.0000 Y14.5000
 Y14.2500
 X-12.7867 Y14.3530
 X-12.5714 Y14.4654
 X-12.3596 Y14.5877
 X-12.1566 Y14.7207
 X-11.9679 Y14.8650
 X-11.7989 Y15.0214
 X-11.6548 Y15.1904
 X-11.5414 Y15.3729
 X-11.4637 Y15.5694
 X-11.4273 Y15.7806
 X-11.4376 Y16.0073
 X-11.5000 Y16.2500
G0 Z25.0000
 X-10.5000 Y17.5000
G1 Z0.0000
 Y17.0000
 X-10.0000
 Y17.5000
 X-10.5000
G0 Z25.0000
 X-7.7500 Y16.5000
G1 Z0.0000
 X-8.0000 Y15.5000
 X-7.7500
 X-7.0000 Y16.0000
 X-7.7500 Y16.5000
G0 Z25.0000
 X-6.7500 Y15.7500
G1 Z0.0000
 Y15.2500
 X-6.2500
 X-6.7500 Y15.7500
G0 Z25.0000
 X-6.5000 Y12.2500
G1 Z0.0000
 X-6.7500 Y11.2500
 X-6.5000
 X-5.7500 Y12.0000
 X-6.5000 Y12.2500
 X-5.7500 Y12.7500
 X-5.2500 Y12.2500
 Y12.7500
 X-5.7500
G0 Z25.0000
 X-2.2500 Y13.5000
G1 Z0.0000
 Y11.7500
 X-1.2500 Y12.0000
 X-1.5000 Y11.5000
 X-1.3422 Y11.7403
 X-1.2409 Y11.9679
 X-1.1922 Y12.1832
 X-1.1925 Y12.3864
 X-1.2379 Y12.5778
 X-1.3248 Y12.7580
 X-1.4494 Y12.9271
 X-1.6080 Y13.0855
 X-1.7968 Y13.2335
 X-2.0120 Y13.3716
 X-2.2500 Y13.5000
G0 Z25.0000
 X-7.2500 Y24.0000
G1 Z0.0000
 X-7.0000
 X-6.5000 Y24.5000
 X-7.2500 Y24.0000
G0 Z25.0000
 X-8.0000 Y29.7500
G1 Z0.0000
 X-9.2500 Y28.0000
 X-9.0000
 X-8.5000 Y28.5000
 X-8.0000 Y29.7500
G0 Z25.0000
 X-15.2500 Y30.2500
G1 Z0.0000
 X-15.5000 Y29.2500
 X-15.2500
 Y30.2500
G0 Z25.0000
 X-16.0000 Y29.0000
G1 Z0.0000
 X-16.7500 Y27.2500
 X-16.5000
 X-16.0000 Y29.0000
G0 Z25.0000
 X-14.5000 Y30.7500
G1 Z0.0000
 X-14.3019 Y30.5616
 X-14.0947 Y30.4320
 X-13.8796 Y30.3548
 X-13.6578 Y30.3238
 X-13.4304 Y30.3324
 X-13.1985 Y30.3745
 X-12.9634 Y30.4436
 X-12.7262 Y30.5335
 X-12.4880 Y30.6377
 X-12.2500 Y30.7500
 X-14.5000
G0 Z25.0000
 X0.0000 Y40.0000
G1 Z0.0000
 Y39.2500
 X0.2500
 X0.0000 Y40.0000
G0 Z25.0000
 X16.2500 Y29.2500
G1 Z0.0000
 X15.7500 Y18.5000
 X22.2500 Y22.7500
 X18.2500 Y29.2500
 X16.2500
G0 Z25.0000
 X38.7500 Y40.0000
G1 Z0.0000
 X39.0000 Y39.0000
 X39.5000
 X39.7500 Y40.0000
 X38.7500
G0 Z25.0000
 X39.2500 Y26.0000
G1 Z0.0000
 X38.7500 Y25.0000
 X39.7500 Y26.0000
 X39.2500
G0 Z25.0000
 X35.7500 Y21.5000
G1 Z0.0000
 X37.7500 Y23.7500
 X37.4953 Y23.6418
 X37.2597 Y23.5177
 X37.0422 Y23.3780
 X36.8418 Y23.2233
 X36.6578 Y23.0539
 X36.4892 Y22.8704
 X36.3351 Y22.6733
 X36.1946 Y22.4631
 X36.0667 Y22.2402
 X35.9506 Y22.0050
 X35.8453 Y21.7581
 X35.7500 Y21.5000
 X35.0000 Y21.0000
 Y20.5000
 X35.5000 Y21.0000
 X35.0000
G0 Z25.0000
 X36.2500 Y-2.0000
G1 Z0.0000
 X35.7500 Y-2.2500
 Y-2.5000
 X36.2500 Y-2.0000
G0 Z25.0000
 X26.5000 Y6.2500
G1 Z0.0000
 X24.7500 Y1.7500
 X24.9075 Y1.8850
 X25.0606 Y2.0409
 X25.2089 Y2.2158
 X25.3519 Y2.4078
 X25.4890 Y2.6150
 X25.6197 Y2.8354
 X25.7436 Y3.0672
 X25.8602 Y3.3085
 X25.9688 Y3.5573
 X26.0691 Y3.8118
 X26.1605 Y4.0701
 X26.2425 Y4.3302
 X26.3146 Y4.5903
 X26.3763 Y4.8484
 X26.4271 Y5.1028
 X26.4665 Y5.3513
 X26.4941 Y5.5922
 X26.5091 Y5.8236
 X26.5113 Y6.0435
 X26.5000 Y6.2500
G0 Z25.0000
 X14.5000 Y9.0000
G1 Z0.0000
 X15.0000 Y8.0000
 X15.2500
 X14.5000 Y9.0000
G0 Z25.0000
 X15.2500 Y7.7500
G1 Z0.0000
 X15.7500 Y6.7500
 X16.0000
 X15.2500 Y7.7500
G0 Z25.0000
 X1.0000
G1 Z0.0000
 Y7.0000
 X1.2500
 X1.0000 Y7.7500
G0 Z25.0000
 X-1.2500 Y5.7500
G1 Z0.0000
 X-3.7500 Y2.7500
 X-3.5664 Y2.8484
 X-3.3749 Y2.9619
 X-3.1780 Y3.0894
 X-2.9783 Y3.2298
 X-2.7781 Y3.3821
 X-2.5800 Y3.5452
 X-2.3865 Y3.7181
 X-2.2001 Y3.8996
 X-2.0232 Y4.0888
 X-1.8584 Y4.2846
 X-1.7080 Y4.4859
 X-1.5747 Y4.6916
 X-1.4608 Y4.9007
 X-1.3689 Y5.1122
 X-1.3015 Y5.3249
 X-1.2610 Y5.5379
 X-1.2500 Y5.7500
G0 Z25.0000
 X1.0000 Y3.5000
G1 Z0.0000
 Y2.7500
 X1.2500
 X1.0000 Y3.5000
G0 Z25.0000
 Y0.5000
G1 Z0.0000
 X2.2500 Y0.7500
 X2.5000 Y0.0000
 X2.7500
 X3.0000 Y1.0000
 X2.7158 Y1.0498
 X2.4513 Y1.0910
 X2.2047 Y1.1161
 X1.9742 Y1.1174
 X1.7580 Y1.0874
 X1.5543 Y1.0182
 X1.3613 Y0.9024
 X1.1771 Y0.7322
 X1.0000 Y0.5000
G0 Z25.0000
 X-4.0000 Y2.5000
G1 Z0.0000
 X-6.5000 Y-1.7500
 X-6.2500
 X-4.0000 Y2.5000
G0 Z25.0000
 X-7.0000 Y-2.2500
G1 Z0.0000
 X-10.2500 Y-8.7500
 X-10.0000
 X-7.0000 Y-2.2500
G0 Z25.0000
 X-14.7500 Y-12.7500
G1 Z0.0000
 X-14.2500 Y-13.2500
 X-15.7500 Y-13.7500
 Y-14.7500
 X-16.7500 Y-14.5000
 X-15.5000 Y-19.0000
 X-11.7500 Y-13.5000
 X-12.0000
 X-15.2500 Y-16.7500
 X-12.0000 Y-11.5000
 X-14.7500 Y-12.7500
G0 Z25.0000
 X-1.2500 Y-12.0000
G1 Z0.0000
 X-0.5000 Y-12.7500
 Y-12.5000
 X-1.2500 Y-12.0000
G0 Z25.0000
 X-0.2500 Y-12.7500
G1 Z0.0000
 Y-13.7500
 X0.0000
 X-0.2500 Y-12.7500
G0 Z25.0000
 X-0.5000 Y-14.0000
G1 Z0.0000
 X0.5000 Y-16.5000
 X1.5000 Y-17.2500
 X2.2500 Y-17.0000
 X1.2500 Y-14.2500
 X0.2500 Y-14.7500
 X-0.5000 Y-14.0000
G0 Z25.0000
 X1.0000
G1 Z0.0000
 X1.7500
 X1.5000 Y-13.5000
 X1.0000 Y-14.0000
G0 Z25.0000
 X5.5000 Y-15.2500
G1 Z0.0000
 X5.2500 Y-16.2500
 X6.7500 Y-16.7500
 X7.0000 Y-16.0000
 X7.3031 Y-16.0372
 X7.5470 Y-16.0382
 X7.7425 Y-15.9957
 X7.9000 Y-15.9028
 X8.0300 Y-15.7522
 X8.1432 Y-15.5370
 X8.2500 Y-15.2500
 X5.5000
G0 Z25.0000
 X10.5000 Y-14.2500
G1 Z0.0000
 X9.0000 Y-15.2500
 X8.8999 Y-15.4554
 X8.7874 Y-15.6507
 X8.6630 Y-15.8363
 X8.5272 Y-16.0123
 X8.3807 Y-16.1790
 X8.2239 Y-16.3365
 X8.0576 Y-16.4852
 X7.8821 Y-16.6253
 X7.6982 Y-16.7569
 X7.5063 Y-16.8804
 X7.3072 Y-16.9960
 X7.1012 Y-17.1039
 X6.8889 Y-17.2042
 X6.6711 Y-17.2974
 X6.4481 Y-17.3836
 X6.2206 Y-17.4630
 X5.9892 Y-17.5358
 X5.7543 Y-17.6024
 X5.5167 Y-17.6628
 X5.2768 Y-17.7175
 X5.0352 Y-17.7665
 X4.7925 Y-17.8102
 X4.5493 Y-17.8487
 X4.3061 Y-17.8823
 X4.0635 Y-17.9113
 X3.8220 Y-17.9358
 X3.5822 Y-17.9561
 X3.3448 Y-17.9724
 X3.1102 Y-17.9851
 X2.8790 Y-17.9941
 X2.6519 Y-17.9999
 X2.4293 Y-18.0027
 X2.2118 Y-18.0026
 X2.0000 Y-18.0000
 X1.5000 Y-19.0000
 X3.5000 Y-20.2500
 Y-20.5000
 X3.2486 Y-20.5935
 X3.0554 Y-20.7066
 X2.9156 Y-20.8374
 X2.8242 Y-20.9841
 X2.7764 Y-21.1448
 X2.7672 Y-21.3176
 X2.7918 Y-21.5004
 X2.8452 Y-21.6915
 X2.9226 Y-21.8889
 X3.0192 Y-22.0907
 X3.1300 Y-22.2951
 X3.2500 Y-22.5000
 X5.2500 Y-22.0000
 X5.1185 Y-22.1991
 X4.9864 Y-22.4023
 X4.8548 Y-22.6094
 X4.7246 Y-22.8201
 X4.5972 Y-23.0342
 X4.4736 Y-23.2515
 X4.3548 Y-23.4717
 X4.2419 Y-23.6946
 X4.1360 Y-23.9201
 X4.0383 Y-24.1478
 X3.9499 Y-24.3776
 X3.8717 Y-24.6092
 X3.8050 Y-24.8424
 X3.7508 Y-25.0769
 X3.7103 Y-25.3126
 X3.6844 Y-25.5492
 X3.6743 Y-25.7864
 X3.6812 Y-26.0241
 X3.7061 Y-26.2621
 X3.7500 Y-26.5000
 X3.0000 Y-26.7500
 X4.2500
 X4.1208 Y-26.9541
 X4.0070 Y-27.1615
 X3.9121 Y-27.3692
 X3.8395 Y-27.5739
 X3.7925 Y-27.7724
 X3.7747 Y-27.9614
 X3.7893 Y-28.1378
 X3.8398 Y-28.2983
 X3.9297 Y-28.4397
 X4.0622 Y-28.5587
 X4.2408 Y-28.6523
 X4.4689 Y-28.7172
 X4.7500 Y-28.7500
 X4.2500 Y-29.7500
 X5.5000 Y-30.5000
 X4.7500 Y-30.2500
 X5.7500 Y-32.5000
 X5.5000 Y-33.2500
 X6.5000 Y-34.5000
 X7.2500 Y-34.2500
 X7.7500 Y-36.5000
 X6.2500
 Y-37.7500
 X5.2500 Y-37.2500
 X5.5000 Y-36.0000
 X4.0000
 Y-35.7500
 X4.5000 Y-35.5000
 X4.2500 Y-34.5000
 X3.0000 Y-35.5000
 X3.5000 Y-34.7500
 X2.7500 Y-33.5000
 X2.0000 Y-34.0000
 Y-33.0000
 X3.0000 Y-32.7500
 Y-32.5000
 X2.2500 Y-31.5000
 X2.0000
 X2.2500 Y-32.5000
 X1.0000 Y-32.2500
 Y-32.0000
 X1.7500
 Y-31.7500
 X0.7500 Y-31.5000
 X0.5000 Y-30.7500
 X-1.2500
 X0.2500 Y-31.5000
 Y-32.5000
 X0.0000
 X-0.2500 Y-31.7500
 X-0.5000
 X-1.0000 Y-33.0000
 X0.5000 Y-34.2500
 X0.7500
 Y-32.5000
 X1.5000
 Y-32.7500
 X1.2500 Y-36.0000
 X0.5000 Y-35.7500
 X1.0000 Y-37.5000
 X0.7500 Y-36.7500
 X1.7500 Y-37.0000
 Y-37.2500
 X1.0000 Y-37.0000
 Y-38.2500
 X2.5000 Y-38.5000
 X1.7500 Y-39.7500
 X1.9881 Y-39.7931
 X2.2272 Y-39.8340
 X2.4671 Y-39.8729
 X2.7079 Y-39.9097
 X2.9495 Y-39.9445
 X3.1918 Y-39.9774
 X3.4350 Y-40.0084
 X3.6789 Y-40.0375
 X3.9235 Y-40.0648
 X4.1688 Y-40.0904
 X4.4148 Y-40.1142
 X4.6614 Y-40.1363
 X4.9087 Y-40.1567
 X5.1566 Y-40.1756
 X5.4050 Y-40.1929
 X5.6540 Y-40.2087
 X5.9036 Y-40.2230
 X6.1536 Y-40.2359
 X6.4041 Y-40.2474
 X6.6551 Y-40.2575
 X6.9065 Y-40.2664
 X7.1583 Y-40.2739
 X7.4106 Y-40.2803
 X7.6632 Y-40.2855
 X7.9161 Y-40.2896
 X8.1694 Y-40.2926
 X8.4229 Y-40.2945
 X8.6767 Y-40.2955
 X8.9308
 X9.1851 Y-40.2945
 X9.4395 Y-40.2927
 X9.6942 Y-40.2901
 X9.9490 Y-40.2867
 X10.2040 Y-40.2825
 X10.4590 Y-40.2777
 X10.7141 Y-40.2722
 X10.9693 Y-40.2660
 X11.2245 Y-40.2593
 X11.4797 Y-40.2521
 X11.7349 Y-40.2444
 X11.9900 Y-40.2363
 X12.2451 Y-40.2278
 X12.5001 Y-40.2189
 X12.7550 Y-40.2096
 X13.0098 Y-40.2002
 X13.2644 Y-40.1904
 X13.5188 Y-40.1806
 X13.7730 Y-40.1705
 X14.0270 Y-40.1604
 X14.2807 Y-40.1502
 X14.5341 Y-40.1401
 X14.7873 Y-40.1299
 X15.0401 Y-40.1198
 X15.2925 Y-40.1099
 X15.5447 Y-40.1001
 X15.7963 Y-40.0905
 X16.0476 Y-40.0811
 X16.2985 Y-40.0721
 X16.5488 Y-40.0634
 X16.7987 Y-40.0550
 X17.0480 Y-40.0471
 X17.2968 Y-40.0397
 X17.5451 Y-40.0327
 X17.7927 Y-40.0263
 X18.0398 Y-40.0205
 X18.2862 Y-40.0153
 X18.5320 Y-40.0108
 X18.7770 Y-40.0070
 X19.0214 Y-40.0040
 X19.2650 Y-40.0018
 X19.5079 Y-40.0005
 X19.7500 Y-40.0000
 X19.7336 Y-39.8060
 X19.7159 Y-39.6099
 X19.6968 Y-39.4118
 X19.6764 Y-39.2118
 X19.6547 Y-39.0100
 X19.6316 Y-38.8064
 X19.6071 Y-38.6010
 X19.5813 Y-38.3940
 X19.5541 Y-38.1853
 X19.5255 Y-37.9752
 X19.4954 Y-37.7636
 X19.4639 Y-37.5506
 X19.4310 Y-37.3363
 X19.3967 Y-37.1207
 X19.3609 Y-36.9039
 X19.3237 Y-36.6860
 X19.2849 Y-36.4670
 X19.2447 Y-36.2470
 X19.2030 Y-36.0261
 X19.1597 Y-35.8043
 X19.1149 Y-35.5817
 X19.0686 Y-35.3584
 X19.0208 Y-35.1344
 X18.9714 Y-34.9098
 X18.9204 Y-34.6847
 X18.8679 Y-34.4590
 X18.8137 Y-34.2330
 X18.7580 Y-34.0067
 X18.7007 Y-33.7800
 X18.6417 Y-33.5532
 X18.5811 Y-33.3262
 X18.5189 Y-33.0991
 X18.4549 Y-32.8721
 X18.3894 Y-32.6450
 X18.3221 Y-32.4181
 X18.2532 Y-32.1914
 X18.1826 Y-31.9649
 X18.1102 Y-31.7388
 X18.0362 Y-31.5130
 X17.9603 Y-31.2877
 X17.8828 Y-31.0629
 X17.8035 Y-30.8387
 X17.7225 Y-30.6151
 X17.6396 Y-30.3922
 X17.5550 Y-30.1701
 X17.4686 Y-29.9489
 X17.3803 Y-29.7286
 X17.2903 Y-29.5092
 X17.1984 Y-29.2909
 X17.1046 Y-29.0737
 X17.0091 Y-28.8577
 X16.9116 Y-28.6429
 X16.8123 Y-28.4294
 X16.7111 Y-28.2173
 X16.6079 Y-28.0066
 X16.5029 Y-27.7974
 X16.3959 Y-27.5898
 X16.2871 Y-27.3839
 X16.1763 Y-27.1796
 X16.0635 Y-26.9770
 X15.9487 Y-26.7764
 X15.8320 Y-26.5776
 X15.7133 Y-26.3808
 X15.5926 Y-26.1860
 X15.4699 Y-25.9933
 X15.3451 Y-25.8028
 X15.2184 Y-25.6145
 X15.0896 Y-25.4285
 X14.9587 Y-25.2449
 X14.8258 Y-25.0636
 X14.6908 Y-24.8849
 X14.5537 Y-24.7087
 X14.4145 Y-24.5352
 X14.2732 Y-24.3643
 X14.1298 Y-24.1962
 X13.9843 Y-24.0310
 X13.8366 Y-23.8686
 X13.6868 Y-23.7091
 X13.5348 Y-23.5527
 X13.3806 Y-23.3993
 X13.2242 Y-23.2492
 X13.0656 Y-23.1022
 X12.9049 Y-22.9585
 X12.7419 Y-22.8181
 X12.5767 Y-22.6812
 X12.4092 Y-22.5477
 X12.2395 Y-22.4178
 X12.0675 Y-22.2915
 X11.8933 Y-22.1689
 X11.7167 Y-22.0500
 X11.5379 Y-21.9349
 X11.3567 Y-21.8237
 X11.1733 Y-21.7164
 X10.9875 Y-21.6132
 X10.7993 Y-21.5140
 X10.6088 Y-21.4189
 X10.4160 Y-21.3281
 X10.2208 Y-21.2415
 X10.0232 Y-21.1593
 X9.8232 Y-21.0815
 X9.6208 Y-21.0081
 X9.4159 Y-20.9393
 X9.2086 Y-20.8750
 X8.9990 Y-20.8154
 X8.7868 Y-20.7606
 X8.5722 Y-20.7105
 X8.3551 Y-20.6654
 X8.1355 Y-20.6251
 X7.9134 Y-20.5898
 X7.6889 Y-20.5596
 X7.4618 Y-20.5345
 X7.2321 Y-20.5146
 X7.0000 Y-20.5000
 Y-20.2500
 X7.2685 Y-20.1775
 X7.5073 Y-20.0837
 X7.7189 Y-19.9700
 X7.9060 Y-19.8373
 X8.0712 Y-19.6871
 X8.2171 Y-19.5206
 X8.3462 Y-19.3390
 X8.4612 Y-19.1437
 X8.5646 Y-18.9356
 X8.6592 Y-18.7162
 X8.7474 Y-18.4868
 X8.8319 Y-18.2484
 X8.9152 Y-18.0024
 X9.0000 Y-17.7500
 X8.2500
 X8.5000 Y-17.0000
 X9.0000 Y-17.5000
 X10.5000 Y-14.2500
G0 Z25.0000
 X6.2500 Y-9.7500
G1 Z0.0000
 Y-10.0000
 X7.0000
 X6.2500 Y-9.7500
G0 Z25.0000
 X18.2500 Y-7.5000
G1 Z0.0000
 Y-8.2500
 X18.5000
 X18.2500 Y-7.5000
G0 Z25.0000
 X18.7500 Y-10.5000
G1 Z0.0000
 Y-12.0000
 X19.0000
 X18.7500 Y-10.5000
G0 Z25.0000
 X28.0000 Y-20.7500
G1 Z0.0000
 X27.7500 Y-21.5000
 X28.0000
 Y-20.7500
G0 Z25.0000
 X28.2500 Y-24.7500
G1 Z0.0000
 X28.0000 Y-25.5000
 X28.7500
 X28.2500 Y-24.7500
G0 Z25.0000
 X18.7500
G1 Z0.0000
 Y-27.0000
 X19.0000
 X18.7500 Y-24.7500
G0 Z25.0000
 X21.5000 Y-29.5000
G1 Z0.0000
 X21.7500 Y-30.2500
 X22.0000
 X21.5000 Y-29.5000
 X22.0000 Y-29.0000
 X22.2500 Y-29.7500
 X22.5000
 Y-29.0000
 X22.0000
G0 Z25.0000
 X23.0000 Y-29.5000
G1 Z0.0000
 X23.2500 Y-30.2500
 X23.5000
 X23.0000 Y-29.5000
G0 Z25.0000
 X27.2500 Y-31.2500
G1 Z0.0000
 X27.5000 Y-32.0000
 X26.7500 Y-32.7500
 X27.0401 Y-32.6857
 X27.2779 Y-32.6005
 X27.4696 Y-32.4925
 X27.6214 Y-32.3597
 X27.7395 Y-32.1998
 X27.8302 Y-32.0110
 X27.8996 Y-31.7911
 X27.9542 Y-31.5382
 X28.0000 Y-31.2500
 X27.2500
G0 Z25.0000
 X39.5000 Y1.7500
G1 Z0.0000
 X38.7500 Y0.2500
 X39.5000
 X39.7500 Y-0.7500
 X39.0000 Y-1.2500
 X37.5000
 X36.0000 Y-3.2500
 X35.7404 Y-3.2093
 X35.4986 Y-3.1930
 X35.2772 Y-3.2036
 X35.0786 Y-3.2438
 X34.9051 Y-3.3162
 X34.7592 Y-3.4232
 X34.6432 Y-3.5675
 X34.5598 Y-3.7517
 X34.5113 Y-3.9784
 X34.5000 Y-4.2500
 X32.2500 Y-5.5000
 X31.5000 Y-6.7500
 X31.0000 Y-8.0000
 Y-9.5000
 X30.7540 Y-9.5736
 X30.5691 Y-9.6740
 X30.4397 Y-9.7980
 X30.3605 Y-9.9423
 X30.3259 Y-10.1037
 X30.3305 Y-10.2790
 X30.3688 Y-10.4649
 X30.4354 Y-10.6581
 X30.5247 Y-10.8556
 X30.6315 Y-11.0539
 X30.7500 Y-11.2500
 X30.6667 Y-11.2675
 X30.5812 Y-11.3188
 X30.4938 Y-11.4017
 X30.4052 Y-11.5141
 X30.3156 Y-11.6540
 X30.2255 Y-11.8192
 X30.1355 Y-12.0077
 X30.0458 Y-12.2174
 X29.9571 Y-12.4462
 X29.8696 Y-12.6921
 X29.7840 Y-12.9529
 X29.7005 Y-13.2265
 X29.6197 Y-13.5109
 X29.5421 Y-13.8040
 X29.4680 Y-14.1037
 X29.3978 Y-14.4079
 X29.3322 Y-14.7146
 X29.2714 Y-15.0216
 X29.2159 Y-15.3268
 X29.1663 Y-15.6283
 X29.1228 Y-15.9237
 X29.0861 Y-16.2113
 X29.0564 Y-16.4887
 X29.0344 Y-16.7540
 X29.0203 Y-17.0050
 X29.0148 Y-17.2397
 X29.0181 Y-17.4560
 X29.0307 Y-17.6517
 X29.0532 Y-17.8249
 X29.0859 Y-17.9734
 X29.1293 Y-18.0951
 X29.1839 Y-18.1880
 X29.2500 Y-18.2500
 Y-18.5000
 X27.5000 Y-21.5000
 X27.3783 Y-21.4459
 X27.2355 Y-21.3856
 X27.0728 Y-21.3199
 X26.8919 Y-21.2496
 X26.6941 Y-21.1752
 X26.4807 Y-21.0974
 X26.2534 Y-21.0171
 X26.0134 Y-20.9349
 X25.7622 Y-20.8514
 X25.5013 Y-20.7675
 X25.2320 Y-20.6837
 X24.9558 Y-20.6008
 X24.6742 Y-20.5195
 X24.3885 Y-20.4406
 X24.1001 Y-20.3646
 X23.8105 Y-20.2923
 X23.5212 Y-20.2244
 X23.2335 Y-20.1616
 X22.9489 Y-20.1046
 X22.6688 Y-20.0541
 X22.3946 Y-20.0108
 X22.1278 Y-19.9754
 X21.8698 Y-19.9487
 X21.6220 Y-19.9312
 X21.3858 Y-19.9237
 X21.1626 Y-19.9270
 X20.9540 Y-19.9416
 X20.7613 Y-19.9684
 X20.5860 Y-20.0080
 X20.4293 Y-20.0611
 X20.2930 Y-20.1284
 X20.1782 Y-20.2107
 X20.0316 Y-20.3587
 X19.9014 Y-20.5313
 X19.7867 Y-20.7261
 X19.6864 Y-20.9404
 X19.5996 Y-21.1717
 X19.5253 Y-21.4173
 X19.4624 Y-21.6747
 X19.4102 Y-21.9414
 X19.3675 Y-22.2148
 X19.3333 Y-22.4923
 X19.3067 Y-22.7713
 X19.2868 Y-23.0492
 X19.2725 Y-23.3236
 X19.2628 Y-23.5918
 X19.2568 Y-23.8512
 X19.2535 Y-24.0993
 X19.2520 Y-24.3335
 X19.2511 Y-24.5513
 X19.2500 Y-24.7500
 X19.5000
 X20.5000 Y-22.0000
 X21.5000 Y-22.2500
 X21.6223 Y-22.5310
 X21.7533 Y-22.7587
 X21.8970 Y-22.9378
 X22.0574 Y-23.0730
 X22.2385 Y-23.1687
 X22.4443 Y-23.2297
 X22.6788 Y-23.2605
 X22.9461 Y-23.2658
 X23.2500 Y-23.2500
 X23.3494 Y-23.5355
 X23.4680 Y-23.7509
 X23.6087 Y-23.9040
 X23.7747 Y-24.0023
 X23.9688 Y-24.0534
 X24.1941 Y-24.0650
 X24.4535 Y-24.0447
 X24.7500 Y-24.0000
 Y-24.5000
 X24.0000
 X25.0000 Y-25.5000
 X24.5000 Y-26.2500
 X24.0000 Y-26.0000
 X24.2500 Y-26.7500
 X23.2500 Y-28.0000
 X23.7500
 X23.5000 Y-28.7500
 X24.2500 Y-28.5000
 Y-28.7500
 X23.7500 Y-29.0000
 X24.2500 Y-29.2500
 X23.7500 Y-29.5000
 X24.5000 Y-31.0000
 X24.0000 Y-30.7500
 Y-31.0000
 X25.0000 Y-31.7500
 X25.5000 Y-31.5000
 Y-31.0000
 X26.7500 Y-31.2500
 X26.7884 Y-30.9960
 X26.8176 Y-30.7416
 X26.8399 Y-30.4870
 X26.8573 Y-30.2325
 X26.8719 Y-29.9782
 X26.8858 Y-29.7243
 X26.9012 Y-29.4710
 X26.9202 Y-29.2186
 X26.9449 Y-28.9672
 X26.9773 Y-28.7169
 X27.0197 Y-28.4680
 X27.0742 Y-28.2208
 X27.1427 Y-27.9752
 X27.2275 Y-27.7316
 X27.3307 Y-27.4902
 X27.4545 Y-27.2512
 X27.5906 Y-27.0256
 X27.7335 Y-26.8154
 X27.8817 Y-26.6182
 X28.0340 Y-26.4320
 X28.1891 Y-26.2547
 X28.3456 Y-26.0840
 X28.5023 Y-25.9179
 X28.6577 Y-25.7542
 X28.8108 Y-25.5908
 X28.9600 Y-25.4255
 X29.1042 Y-25.2562
 X29.2421 Y-25.0807
 X29.3722 Y-24.8970
 X29.4933 Y-24.7027
 X29.6042 Y-24.4959
 X29.7034 Y-24.2744
 X29.7898 Y-24.0360
 X29.8619 Y-23.7786
 X29.9186 Y-23.5000
 X29.9575 Y-23.2590
 X29.9939 Y-23.0174
 X30.0279 Y-22.7752
 X30.0596 Y-22.5324
 X30.0891 Y-22.2891
 X30.1166 Y-22.0453
 X30.1422 Y-21.8011
 X30.1660 Y-21.5564
 X30.1881 Y-21.3113
 X30.2087 Y-21.0658
 X30.2279 Y-20.8200
 X30.2457 Y-20.5739
 X30.2624 Y-20.3275
 X30.2780 Y-20.0808
 X30.2927 Y-19.8339
 X30.3066 Y-19.5868
 X30.3198 Y-19.3395
 X30.3324 Y-19.0921
 X30.3447 Y-18.8445
 X30.3565 Y-18.5968
 X30.3682 Y-18.3492
 X30.3799 Y-18.1014
 X30.3915 Y-17.8537
 X30.4034 Y-17.6060
 X30.4156 Y-17.3583
 X30.4282 Y-17.1108
 X30.4413 Y-16.8633
 X30.4551 Y-16.6160
 X30.4697 Y-16.3689
 X30.4852 Y-16.1220
 X30.5018 Y-15.8753
 X30.5195 Y-15.6288
 X30.5385 Y-15.3827
 X30.5589 Y-15.1368
 X30.5808 Y-14.8914
 X30.6044 Y-14.6462
 X30.6298 Y-14.4016
 X30.6571 Y-14.1573
 X30.6864 Y-13.9135
 X30.7178 Y-13.6701
 X30.7515 Y-13.4273
 X30.7877 Y-13.1851
 X30.8263 Y-12.9434
 X30.8675 Y-12.7023
 X30.9116 Y-12.4619
 X30.9585 Y-12.2222
 X31.0084 Y-11.9831
 X31.0615 Y-11.7447
 X31.1178 Y-11.5071
 X31.1775 Y-11.2703
 X31.2407 Y-11.0343
 X31.3075 Y-10.7992
 X31.3781 Y-10.5649
 X31.4525 Y-10.3315
 X31.5310 Y-10.0990
 X31.6135 Y-9.8675
 X31.7003 Y-9.6369
 X31.7914 Y-9.4074
 X31.8871 Y-9.1789
 X31.9873 Y-8.9515
 X32.0923 Y-8.7252
 X32.2022 Y-8.5000
 X32.3209 Y-8.2663
 X32.4422 Y-8.0353
 X32.5662 Y-7.8070
 X32.6930 Y-7.5817
 X32.8228 Y-7.3593
 X32.9557 Y-7.1399
 X33.0918 Y-6.9235
 X33.2313 Y-6.7103
 X33.3743 Y-6.5002
 X33.5209 Y-6.2934
 X33.6713 Y-6.0900
 X33.8256 Y-5.8900
 X33.9840 Y-5.6935
 X34.1465 Y-5.5005
 X34.3134 Y-5.3111
 X34.4848 Y-5.1253
 X34.6607 Y-4.9434
 X34.8414 Y-4.7653
 X35.0269 Y-4.5910
 X35.2174 Y-4.4207
 X35.4131 Y-4.2544
 X35.6141 Y-4.0922
 X35.8204 Y-3.9342
 X36.0324 Y-3.7803
 X36.2500 Y-3.6308
 X36.4422 Y-3.5112
 X36.6517 Y-3.3954
 X36.8756 Y-3.2826
 X37.1110 Y-3.1715
 X37.3547 Y-3.0611
 X37.6039 Y-2.9504
 X37.8557 Y-2.8383
 X38.1069 Y-2.7236
 X38.3547 Y-2.6054
 X38.5961 Y-2.4826
 X38.8281 Y-2.3540
 X39.0477 Y-2.2186
 X39.2519 Y-2.0754
 X39.4379 Y-1.9233
 X39.6026 Y-1.7612
 X39.7430 Y-1.5880
 X39.8512 Y-1.4057
 X39.9352 Y-1.2017
 X39.9976 Y-0.9793
 X40.0411 Y-0.7416
 X40.0681 Y-0.4920
 X40.0814 Y-0.2338
 X40.0834 Y0.0298
 X40.0768 Y0.2955
 X40.0640 Y0.5600
 X40.0479 Y0.8201
 X40.0308 Y1.0723
 X40.0154 Y1.3136
 X40.0043 Y1.5406
 X40.0000 Y1.7500
 X39.5000
G0 Z25.0000
M5 (stop spindle)
G04 P3 (wait for 3 seconds)
G0 Z25.0000
M2 (end program)
