;PYCAM-META-DATA: Filename: /home/matt/Documents/delta-cnc/code/maker.dxf
;PYCAM-META-DATA: Timestamp: 2012-07-12 21:54:23.948036
;PYCAM-META-DATA: Version: 0.5.1
;Estimated machine time: 19 minutes
G40 (disable tool radius compensation)
G49 (disable tool length compensation)
G80 (cancel modal motion)
G54 (select coordinate system 1)
G90 (disable incremental moves)
G21 (metric)
G61 (exact path mode)
F200.00000
S1000.00000
;PYCAM_TOOLPATH_SETTINGS: START
;[Bounds]
;maxz = 0.0
;maxx = 38.38
;maxy = 41.44
;minx = -57.58
;miny = -36.04
;minz = 0.0
;
;[Tool]
;torus_radius = 0.25
;speed = 1000.0
;shape = SphericalCutter
;tool_radius = 0.5
;feedrate = 200.0
;
;[Process]
;engrave_offset = 0.0
;step_down = 1.0
;generator = EngraveCutter
;postprocessor = SimpleCutter
;overlap_percent = 0
;milling_style = conventional
;material_allowance = 0.0
;pocketing_type = none
;path_direction = x
;
;PYCAM_TOOLPATH_SETTINGS: END
T3 M6
G0 Z25.0000
M3 (start spindle)
G04 P3 (wait for 3 seconds)
 X-4.2793 Y16.7969
G1 Z0.0000
 X-4.2117 Y16.9494
 X-4.1266 Y17.0989
 X-4.0254 Y17.2440
 X-3.9098 Y17.3832
 X-3.7812 Y17.5150
 X-3.6414 Y17.6378
 X-3.4918 Y17.7504
 X-3.3339 Y17.8510
 X-3.1694 Y17.9383
 X-2.9998 Y18.0108
 X-2.8266 Y18.0670
 X-2.6514 Y18.1054
 X-2.4758 Y18.1245
 X-2.3013 Y18.1228
 X-2.1295 Y18.0988
 X-1.9619 Y18.0511
 X-1.8001 Y17.9782
 X-1.6457 Y17.8785
 X-1.5414 Y17.7901
 X-1.4455 Y17.6891
 X-1.3575 Y17.5762
 X-1.2772 Y17.4520
 X-1.2043 Y17.3172
 X-1.1385 Y17.1722
 X-1.0795 Y17.0178
 X-1.0270 Y16.8546
 X-0.9807 Y16.6832
 X-0.9403 Y16.5042
 X-0.9055 Y16.3183
 X-0.8760 Y16.1260
 X-0.8515 Y15.9279
 X-0.8317 Y15.7248
 X-0.8164 Y15.5172
 X-0.8051 Y15.3057
 X-0.7977 Y15.0910
 X-0.7938 Y14.8736
 X-0.7932 Y14.6542
 X-0.7955 Y14.4335
 X-0.8004 Y14.2120
 X-0.8076 Y13.9903
 X-0.8169 Y13.7691
 X-0.8279 Y13.5490
 X-0.8404 Y13.3306
 X-0.8540 Y13.1146
 X-0.8685 Y12.9015
 X-0.8835 Y12.6919
 X-0.8987 Y12.4866
 X-0.9140 Y12.2860
 X-0.9289 Y12.0909
 X-0.9431 Y11.9019
 X-0.9564 Y11.7195
 X-0.9685 Y11.5444
 X-0.9791 Y11.3772
 X-0.9878 Y11.2186
 X-0.9944 Y11.0691
 X-0.9986 Y10.9293
 X-1.0000 Y10.8000
 X1.8000
 X1.8005 Y10.9080
 X1.8020 Y11.0200
 X1.8044 Y11.1359
 X1.8077 Y11.2557
 X1.8117 Y11.3791
 X1.8164 Y11.5059
 X1.8218 Y11.6362
 X1.8276 Y11.7696
 X1.8340 Y11.9061
 X1.8407 Y12.0455
 X1.8477 Y12.1878
 X1.8550 Y12.3326
 X1.8625 Y12.4800
 X1.8700 Y12.6297
 X1.8775 Y12.7816
 X1.8850 Y12.9356
 X1.8924 Y13.0915
 X1.8995 Y13.2492
 X1.9064 Y13.4086
 X1.9129 Y13.5694
 X1.9189 Y13.7316
 X1.9245 Y13.8950
 X1.9294 Y14.0595
 X1.9337 Y14.2249
 X1.9373 Y14.3911
 X1.9401 Y14.5579
 X1.9419 Y14.7253
 X1.9429 Y14.8930
 X1.9427 Y15.0609
 X1.9415 Y15.2288
 X1.9391 Y15.3967
 X1.9354 Y15.5644
 X1.9304 Y15.7317
 X1.9240 Y15.8985
 X1.9161 Y16.0647
 X1.9066 Y16.2301
 X1.8955 Y16.3946
 X1.8827 Y16.5580
 X1.8681 Y16.7202
 X1.8517 Y16.8810
 X1.8333 Y17.0403
 X1.8129 Y17.1980
 X1.7904 Y17.3539
 X1.7658 Y17.5078
 X1.7389 Y17.6597
 X1.7097 Y17.8094
 X1.6782 Y17.9567
 X1.6441 Y18.1015
 X1.6076 Y18.2437
 X1.5684 Y18.3831
 X1.5266 Y18.5195
 X1.4819 Y18.6529
 X1.4345 Y18.7831
 X1.3842 Y18.9099
 X1.3308 Y19.0332
 X1.2744 Y19.1529
 X1.2149 Y19.2688
 X1.1522 Y19.3808
 X1.0861 Y19.4887
 X1.0167 Y19.5924
 X0.9439 Y19.6917
 X0.8676 Y19.7865
 X0.7877 Y19.8767
 X0.7041 Y19.9621
 X0.6168 Y20.0426
 X0.5257 Y20.1180
 X0.4307 Y20.1881
 X0.3318 Y20.2530
 X0.2288 Y20.3123
 X0.1217 Y20.3660
 X0.0104 Y20.4139
 X-0.1051 Y20.4559
 X-0.2249 Y20.4918
 X-0.3492 Y20.5215
 X-0.4780 Y20.5448
 X-0.6113 Y20.5617
 X-0.7492 Y20.5719
 X-0.8919 Y20.5753
 X-1.0393 Y20.5718
 X-1.1916 Y20.5612
 X-1.3489 Y20.5435
 X-1.5111 Y20.5183
 X-1.6784 Y20.4857
 X-1.8509 Y20.4454
 X-2.0286 Y20.3973
 X-2.2116 Y20.3413
 X-2.4000 Y20.2773
 X-2.5853 Y20.2042
 X-2.7647 Y20.1202
 X-2.9390 Y20.0267
 X-3.1088 Y19.9253
 X-3.2750 Y19.8174
 X-3.4383 Y19.7043
 X-3.5994 Y19.5876
 X-3.7592 Y19.4687
 X-3.9184 Y19.3491
 X-4.0778 Y19.2301
 X-4.2381 Y19.1133
 X-4.4000 Y19.0000
 Y20.4000
 X-7.2000
 Y10.8000
 X-4.4000
 X-4.4016 Y10.9766
 X-4.4062 Y11.1587
 X-4.4133 Y11.3459
 X-4.4227 Y11.5379
 X-4.4340 Y11.7341
 X-4.4468 Y11.9342
 X-4.4608 Y12.1378
 X-4.4756 Y12.3443
 X-4.4909 Y12.5535
 X-4.5062 Y12.7648
 X-4.5212 Y12.9779
 X-4.5357 Y13.1923
 X-4.5491 Y13.4076
 X-4.5612 Y13.6234
 X-4.5716 Y13.8393
 X-4.5800 Y14.0547
 X-4.5859 Y14.2694
 X-4.5890 Y14.4829
 Y14.6948
 X-4.5855 Y14.9046
 X-4.5782 Y15.1119
 X-4.5666 Y15.3164
 X-4.5505 Y15.5175
 X-4.5294 Y15.7149
 X-4.5030 Y15.9081
 X-4.4710 Y16.0967
 X-4.4330 Y16.2803
 X-4.3886 Y16.4585
 X-4.3375 Y16.6308
 X-4.2793 Y16.7969
G0 Z25.0000
 X10.4935 Y-15.2370
G1 Z0.0000
 X10.3742 Y-15.1077
 X10.2486 Y-14.9855
 X10.1169 Y-14.8705
 X9.9795 Y-14.7627
 X9.8367 Y-14.6618
 X9.6888 Y-14.5680
 X9.5362 Y-14.4812
 X9.3791 Y-14.4012
 X9.2179 Y-14.3281
 X9.0529 Y-14.2619
 X8.8845 Y-14.2023
 X8.7129 Y-14.1495
 X8.5385 Y-14.1034
 X8.3616 Y-14.0638
 X8.1826 Y-14.0309
 X8.0017 Y-14.0044
 X7.8192 Y-13.9844
 X7.6356 Y-13.9708
 X7.4510 Y-13.9635
 X7.2660 Y-13.9626
 X7.0806 Y-13.9679
 X6.8954 Y-13.9794
 X6.7106 Y-13.9971
 X6.5265 Y-14.0209
 X6.3434 Y-14.0508
 X6.1618 Y-14.0867
 X5.9818 Y-14.1285
 X5.8039 Y-14.1762
 X5.6283 Y-14.2298
 X5.4553 Y-14.2892
 X5.2854 Y-14.3544
 X5.1188 Y-14.4253
 X4.9558 Y-14.5018
 X4.7968 Y-14.5840
 X4.6420 Y-14.6717
 X4.4919 Y-14.7649
 X4.3467 Y-14.8635
 X4.2067 Y-14.9676
 X4.0723 Y-15.0771
 X3.9438 Y-15.1918
 X3.8216 Y-15.3118
 X3.7059 Y-15.4370
 X3.5766 Y-15.5908
 X3.4550 Y-15.7489
 X3.3411 Y-15.9111
 X3.2346 Y-16.0773
 X3.1357 Y-16.2470
 X3.0441 Y-16.4202
 X2.9597 Y-16.5966
 X2.8825 Y-16.7759
 X2.8124 Y-16.9580
 X2.7493 Y-17.1426
 X2.6930 Y-17.3294
 X2.6435 Y-17.5183
 X2.6008 Y-17.7089
 X2.5646 Y-17.9011
 X2.5350 Y-18.0947
 X2.5118 Y-18.2893
 X2.4950 Y-18.4848
 X2.4843 Y-18.6810
 X2.4799 Y-18.8776
 X2.4815 Y-19.0743
 X2.4890 Y-19.2710
 X2.5024 Y-19.4673
 X2.5216 Y-19.6632
 X2.5465 Y-19.8583
 X2.5770 Y-20.0524
 X2.6130 Y-20.2453
 X2.6544 Y-20.4367
 X2.7011 Y-20.6265
 X2.7531 Y-20.8143
 X2.8102 Y-21.0000
 X2.8752 Y-21.1856
 X2.9484 Y-21.3656
 X3.0295 Y-21.5401
 X3.1183 Y-21.7090
 X3.2145 Y-21.8721
 X3.3177 Y-22.0295
 X3.4278 Y-22.1812
 X3.5444 Y-22.3271
 X3.6674 Y-22.4670
 X3.7963 Y-22.6011
 X3.9310 Y-22.7292
 X4.0712 Y-22.8512
 X4.2166 Y-22.9672
 X4.3669 Y-23.0771
 X4.5219 Y-23.1809
 X4.6812 Y-23.2784
 X4.8447 Y-23.3697
 X5.0121 Y-23.4546
 X5.1830 Y-23.5332
 X5.3572 Y-23.6055
 X5.5345 Y-23.6712
 X5.7145 Y-23.7305
 X5.8971 Y-23.7832
 X6.0818 Y-23.8293
 X6.2685 Y-23.8688
 X6.4569 Y-23.9016
 X6.6467 Y-23.9277
 X6.8377 Y-23.9470
 X7.0295 Y-23.9594
 X7.2219 Y-23.9649
 X7.4146 Y-23.9636
 X7.6074 Y-23.9552
 X7.8000 Y-23.9398
 X8.0074 Y-23.9181
 X8.2110 Y-23.8938
 X8.4103 Y-23.8668
 X8.6050 Y-23.8368
 X8.7946 Y-23.8036
 X8.9789 Y-23.7669
 X9.1574 Y-23.7265
 X9.3297 Y-23.6821
 X9.4954 Y-23.6335
 X9.6541 Y-23.5805
 X9.8055 Y-23.5227
 X9.9492 Y-23.4601
 X10.0848 Y-23.3923
 X10.2118 Y-23.3190
 X10.3299 Y-23.2402
 X10.4388 Y-23.1554
 X10.5379 Y-23.0645
 X10.6270 Y-22.9672
 X10.7057 Y-22.8633
 X10.7735 Y-22.7525
 X10.8301 Y-22.6346
 X10.8750 Y-22.5094
 X10.9080 Y-22.3766
 X10.9285 Y-22.2359
 X10.9363 Y-22.0872
 X10.9309 Y-21.9302
 X10.9119 Y-21.7646
 X10.8790 Y-21.5903
 X10.8317 Y-21.4069
 X10.7697 Y-21.2142
 X10.6926 Y-21.0120
 X10.6000 Y-20.8000
 X10.4591 Y-20.8536
 X10.3158 Y-20.9092
 X10.1703 Y-20.9662
 X10.0227 Y-21.0243
 X9.8735 Y-21.0829
 X9.7227 Y-21.1417
 X9.5707 Y-21.2001
 X9.4177 Y-21.2578
 X9.2639 Y-21.3143
 X9.1096 Y-21.3691
 X8.9551 Y-21.4219
 X8.8005 Y-21.4720
 X8.6461 Y-21.5192
 X8.4922 Y-21.5629
 X8.3390 Y-21.6027
 X8.1867 Y-21.6382
 X8.0356 Y-21.6688
 X7.8859 Y-21.6943
 X7.7379 Y-21.7140
 X7.5919 Y-21.7276
 X7.4480 Y-21.7346
 X7.3065 Y-21.7345
 X7.1677 Y-21.7270
 X7.0317 Y-21.7115
 X6.8989 Y-21.6877
 X6.7695 Y-21.6550
 X6.6437 Y-21.6130
 X6.5218 Y-21.5613
 X6.4040 Y-21.4995
 X6.2905 Y-21.4270
 X6.1817 Y-21.3434
 X6.0777 Y-21.2483
 X5.9788 Y-21.1412
 X5.8852 Y-21.0218
 X5.7972 Y-20.8894
 X5.7150 Y-20.7437
 X5.6389 Y-20.5843
 X5.5691 Y-20.4107
 X5.5059 Y-20.2224
 X5.4494 Y-20.0190
 X5.4000 Y-19.8000
 X11.6000
 Y-19.5996
 X11.5997 Y-19.3986
 X11.5985 Y-19.1973
 X11.5960 Y-18.9957
 X11.5917 Y-18.7942
 X11.5850 Y-18.5929
 X11.5755 Y-18.3921
 X11.5627 Y-18.1919
 X11.5460 Y-17.9925
 X11.5250 Y-17.7941
 X11.4991 Y-17.5969
 X11.4679 Y-17.4012
 X11.4308 Y-17.2071
 X11.3874 Y-17.0149
 X11.3371 Y-16.8247
 X11.2795 Y-16.6367
 X11.2140 Y-16.4511
 X11.1402 Y-16.2682
 X11.0575 Y-16.0881
 X10.9654 Y-15.9110
 X10.8635 Y-15.7372
 X10.7512 Y-15.5668
 X10.6280 Y-15.4000
 X10.4935 Y-15.2370
G0 Z25.0000
 X-28.0000 Y7.0000
G1 Z0.0000
 Y-6.2000
 X-25.4000
 Y2.6000
 X-25.2000
 X-23.4660 Y-3.8000
 X-22.4980 Y-5.9944
 X-20.0000 Y-6.2000
 X-17.4000 Y2.4000
 X-17.2000
 Y-6.2000
 X-14.4000
 Y7.0000
 X-18.2873 Y6.7944
 X-19.2582 Y4.2000
 X-21.2000 Y-2.6000
 X-23.3151 Y4.2000
 X-24.3127 Y6.7944
 X-28.0000 Y7.0000
G0 Z25.0000
 X-27.8000 Y24.0000
G1 Z0.0000
 Y10.8000
 X-25.2000
 Y19.8000
 X-25.0000
 X-23.2002 Y13.2000
 X-22.2974 Y11.0056
 X-19.8000 Y10.8000
 X-17.2000 Y19.6000
 X-17.0000
 Y10.8000
 X-14.4000
 Y24.0000
 X-18.0594 Y23.7944
 X-18.9719 Y21.4000
 X-20.8000 Y14.4000
 X-21.2000
 X-23.1151 Y21.2000
 X-24.1404 Y23.7944
 X-27.8000 Y24.0000
G0 Z25.0000
 X-12.0000 Y20.4000
G1 Z0.0000
 Y10.8000
 X-9.2000
 Y20.4000
 X-12.0000
G0 Z25.0000
 Y24.0000
G1 Z0.0000
 Y21.8000
 X-9.2000
 Y24.0000
 X-12.0000
G0 Z25.0000
 X3.6000
G1 Z0.0000
 Y21.8000
 X6.4000
 Y24.0000
 X3.6000
G0 Z25.0000
 Y20.4000
G1 Z0.0000
 Y10.8000
 X6.4000
 Y20.4000
 X3.6000
G0 Z25.0000
 X-1.6000 Y7.0000
G1 Z0.0000
 Y-6.2000
 X1.2000
 X2.2000 Y-2.4000
 X2.6000
 X2.6706 Y-2.6383
 X2.7424 Y-2.8674
 X2.8158 Y-3.0874
 X2.8909 Y-3.2983
 X2.9679 Y-3.5005
 X3.0469 Y-3.6940
 X3.1283 Y-3.8790
 X3.2122 Y-4.0556
 X3.2988 Y-4.2240
 X3.3883 Y-4.3843
 X3.4809 Y-4.5366
 X3.5769 Y-4.6812
 X3.6763 Y-4.8182
 X3.7795 Y-4.9476
 X3.8866 Y-5.0698
 X3.9978 Y-5.1847
 X4.1134 Y-5.2926
 X4.2335 Y-5.3935
 X4.3583 Y-5.4878
 X4.4880 Y-5.5754
 X4.6229 Y-5.6566
 X4.7631 Y-5.7314
 X4.9089 Y-5.8001
 X5.0604 Y-5.8628
 X5.2178 Y-5.9197
 X5.3814 Y-5.9708
 X5.5514 Y-6.0163
 X5.7279 Y-6.0565
 X5.9111 Y-6.0913
 X6.1013 Y-6.1210
 X6.2987 Y-6.1458
 X6.5034 Y-6.1657
 X6.7157 Y-6.1809
 X6.9358 Y-6.1916
 X7.1638 Y-6.1979
 X7.4000 Y-6.2000
 X4.5014 Y-0.2849
 X7.2000 Y3.4000
 X4.2179 Y3.1944
 X1.2000 Y0.0000
 Y7.0000
 X-1.6000
G0 Z25.0000
 X10.4000 Y-0.6000
G1 Z0.0000
 X14.2000 Y-0.4000
 X14.1428 Y-0.2035
 X14.0777 Y-0.0194
 X14.0050 Y0.1522
 X13.9252 Y0.3115
 X13.8388 Y0.4586
 X13.7463 Y0.5936
 X13.6481 Y0.7166
 X13.5447 Y0.8278
 X13.4367 Y0.9273
 X13.3243 Y1.0151
 X13.2082 Y1.0914
 X13.0887 Y1.1563
 X12.9665 Y1.2099
 X12.8418 Y1.2523
 X12.7153 Y1.2837
 X12.5873 Y1.3040
 X12.4583 Y1.3136
 X12.3288 Y1.3124
 X12.1994 Y1.3006
 X12.0703 Y1.2783
 X11.9422 Y1.2456
 X11.8155 Y1.2026
 X11.6906 Y1.1494
 X11.5680 Y1.0862
 X11.4483 Y1.0130
 X11.3318 Y0.9300
 X11.2190 Y0.8372
 X11.1104 Y0.7349
 X11.0066 Y0.6231
 X10.9078 Y0.5019
 X10.8147 Y0.3714
 X10.7276 Y0.2317
 X10.6471 Y0.0830
 X10.5736 Y-0.0746
 X10.5076 Y-0.2411
 X10.4496 Y-0.4162
 X10.4000 Y-0.6000
G0 Z25.0000
 X21.4000 Y2.0000
G1 Z0.0000
 X21.3841 Y2.2217
 X21.3522 Y2.4198
 X21.3051 Y2.5957
 X21.2437 Y2.7507
 X21.1687 Y2.8859
 X21.0809 Y3.0027
 X20.9810 Y3.1023
 X20.8700 Y3.1861
 X20.7486 Y3.2552
 X20.6176 Y3.3110
 X20.4777 Y3.3546
 X20.3298 Y3.3875
 X20.1747 Y3.4109
 X20.0131 Y3.4260
 X19.8459 Y3.4341
 X19.6739 Y3.4365
 X19.4977 Y3.4344
 X19.3183 Y3.4292
 X19.1364 Y3.4221
 X18.9529 Y3.4143
 X18.7684 Y3.4072
 X18.5838 Y3.4020
 X18.4000 Y3.4000
 Y-6.2000
 X21.4000
 X21.3991 Y-6.0384
 X21.3966 Y-5.8750
 X21.3926 Y-5.7100
 X21.3875 Y-5.5435
 X21.3813 Y-5.3758
 X21.3742 Y-5.2069
 X21.3665 Y-5.0370
 X21.3584 Y-4.8664
 X21.3501 Y-4.6951
 X21.3417 Y-4.5234
 X21.3335 Y-4.3514
 X21.3257 Y-4.1792
 X21.3185 Y-4.0071
 X21.3120 Y-3.8352
 X21.3064 Y-3.6637
 X21.3021 Y-3.4927
 X21.2991 Y-3.3224
 X21.2977 Y-3.1530
 X21.2981 Y-2.9846
 X21.3004 Y-2.8174
 X21.3049 Y-2.6516
 X21.3118 Y-2.4874
 X21.3212 Y-2.3248
 X21.3334 Y-2.1641
 X21.3486 Y-2.0055
 X21.3669 Y-1.8490
 X21.3886 Y-1.6949
 X21.4139 Y-1.5434
 X21.4430 Y-1.3945
 X21.4760 Y-1.2486
 X21.5132 Y-1.1056
 X21.5548 Y-0.9659
 X21.6009 Y-0.8295
 X21.6519 Y-0.6967
 X21.7078 Y-0.5676
 X21.7688 Y-0.4423
 X21.8352 Y-0.3211
 X21.9072 Y-0.2040
 X21.9850 Y-0.0914
 X22.0688 Y0.0167
 X22.1587 Y0.1202
 X22.2550 Y0.2187
 X22.3578 Y0.3123
 X22.4675 Y0.4006
 X22.5841 Y0.4836
 X22.7078 Y0.5610
 X22.8390 Y0.6327
 X22.9777 Y0.6986
 X23.1242 Y0.7584
 X23.2787 Y0.8121
 X23.4413 Y0.8593
 X23.6123 Y0.9001
 X23.7919 Y0.9341
 X23.9803 Y0.9613
 X24.1776 Y0.9814
 X24.3841 Y0.9944
 X24.6000 Y1.0000
 Y3.6000
 X24.3821 Y3.5670
 X24.1716 Y3.5280
 X23.9682 Y3.4829
 X23.7712 Y3.4315
 X23.5802 Y3.3738
 X23.3946 Y3.3097
 X23.2138 Y3.2391
 X23.0375 Y3.1618
 X22.8650 Y3.0777
 X22.6959 Y2.9868
 X22.5295 Y2.8889
 X22.3655 Y2.7840
 X22.2032 Y2.6719
 X22.0421 Y2.5525
 X21.8818 Y2.4257
 X21.7217 Y2.2914
 X21.5613 Y2.1496
 X21.4000 Y2.0000
G0 Z25.0000
 X16.6000 Y-5.0000
G1 Z0.0000
 Y-4.8000
 X15.6000 Y-3.4000
 X15.4415 Y-3.4510
 X15.2825 Y-3.5036
 X15.1232 Y-3.5574
 X14.9637 Y-3.6120
 X14.8042 Y-3.6669
 X14.6448 Y-3.7216
 X14.4857 Y-3.7756
 X14.3270 Y-3.8286
 X14.1689 Y-3.8800
 X14.0115 Y-3.9295
 X13.8551 Y-3.9764
 X13.6997 Y-4.0205
 X13.5454 Y-4.0611
 X13.3926 Y-4.0979
 X13.2412 Y-4.1304
 X13.0916 Y-4.1581
 X12.9437 Y-4.1807
 X12.7978 Y-4.1975
 X12.6540 Y-4.2082
 X12.5126 Y-4.2123
 X12.3735 Y-4.2093
 X12.2371 Y-4.1988
 X12.1034 Y-4.1803
 X11.9726 Y-4.1534
 X11.8448 Y-4.1176
 X11.7203 Y-4.0724
 X11.5991 Y-4.0174
 X11.4815 Y-3.9521
 X11.3675 Y-3.8761
 X11.2573 Y-3.7889
 X11.1511 Y-3.6900
 X11.0491 Y-3.5791
 X10.9513 Y-3.4555
 X10.8580 Y-3.3189
 X10.7693 Y-3.1689
 X10.6853 Y-3.0048
 X10.6062 Y-2.8264
 X10.5322 Y-2.6331
 X10.4634 Y-2.4244
 X10.4000 Y-2.2000
 X16.8000
 X16.7952 Y-2.0091
 X16.7883 Y-1.8162
 X16.7790 Y-1.6216
 X16.7672 Y-1.4256
 X16.7524 Y-1.2286
 X16.7343 Y-1.0309
 X16.7127 Y-0.8329
 X16.6873 Y-0.6350
 X16.6577 Y-0.4375
 X16.6237 Y-0.2408
 X16.5850 Y-0.0452
 X16.5413 Y0.1490
 X16.4922 Y0.3413
 X16.4375 Y0.5314
 X16.3768 Y0.7191
 X16.3100 Y0.9038
 X16.2366 Y1.0853
 X16.1564 Y1.2632
 X16.0691 Y1.4372
 X15.9744 Y1.6068
 X15.8719 Y1.7719
 X15.7615 Y1.9319
 X15.6427 Y2.0865
 X15.5153 Y2.2355
 X15.3790 Y2.3784
 X15.2498 Y2.5006
 X15.1160 Y2.6159
 X14.9778 Y2.7241
 X14.8354 Y2.8255
 X14.6892 Y2.9200
 X14.5392 Y3.0077
 X14.3859 Y3.0886
 X14.2293 Y3.1629
 X14.0698 Y3.2304
 X13.9076 Y3.2914
 X13.7430 Y3.3458
 X13.5761 Y3.3937
 X13.4072 Y3.4351
 X13.2367 Y3.4701
 X13.0646 Y3.4987
 X12.8913 Y3.5210
 X12.7169 Y3.5371
 X12.5419 Y3.5470
 X12.3662 Y3.5506
 X12.1904 Y3.5482
 X12.0144 Y3.5397
 X11.8387 Y3.5252
 X11.6634 Y3.5047
 X11.4888 Y3.4784
 X11.3152 Y3.4461
 X11.1427 Y3.4080
 X10.9716 Y3.3642
 X10.8022 Y3.3146
 X10.6347 Y3.2594
 X10.4693 Y3.1986
 X10.3063 Y3.1322
 X10.1460 Y3.0603
 X9.9885 Y2.9829
 X9.8341 Y2.9001
 X9.6830 Y2.8119
 X9.5356 Y2.7184
 X9.3920 Y2.6197
 X9.2525 Y2.5157
 X9.1172 Y2.4065
 X8.9866 Y2.2923
 X8.8608 Y2.1729
 X8.7400 Y2.0486
 X8.6244 Y1.9193
 X8.5145 Y1.7850
 X8.4103 Y1.6459
 X8.3121 Y1.5020
 X8.2201 Y1.3533
 X8.1347 Y1.1998
 X8.0465 Y1.0273
 X7.9641 Y0.8559
 X7.8877 Y0.6858
 X7.8170 Y0.5168
 X7.7521 Y0.3492
 X7.6928 Y0.1828
 X7.6390 Y0.0178
 X7.5907 Y-0.1459
 X7.5479 Y-0.3081
 X7.5103 Y-0.4690
 X7.4781 Y-0.6283
 X7.4510 Y-0.7862
 X7.4291 Y-0.9426
 X7.4121 Y-1.0973
 X7.4002 Y-1.2505
 X7.3931 Y-1.4021
 X7.3909 Y-1.5520
 X7.3933 Y-1.7002
 X7.4005 Y-1.8467
 X7.4122 Y-1.9915
 X7.4285 Y-2.1344
 X7.4492 Y-2.2755
 X7.4742 Y-2.4148
 X7.5036 Y-2.5522
 X7.5372 Y-2.6877
 X7.5749 Y-2.8212
 X7.6166 Y-2.9527
 X7.6624 Y-3.0822
 X7.7121 Y-3.2097
 X7.7656 Y-3.3351
 X7.8229 Y-3.4584
 X7.8839 Y-3.5795
 X7.9485 Y-3.6985
 X8.0166 Y-3.8152
 X8.0882 Y-3.9297
 X8.1632 Y-4.0419
 X8.2416 Y-4.1518
 X8.3231 Y-4.2594
 X8.4079 Y-4.3646
 X8.4957 Y-4.4674
 X8.5865 Y-4.5677
 X8.6803 Y-4.6656
 X8.7770 Y-4.7610
 X8.8765 Y-4.8538
 X8.9786 Y-4.9441
 X9.0835 Y-5.0318
 X9.1909 Y-5.1168
 X9.3007 Y-5.1991
 X9.4131 Y-5.2788
 X9.5277 Y-5.3557
 X9.6446 Y-5.4299
 X9.7638 Y-5.5013
 X9.8850 Y-5.5698
 X10.0083 Y-5.6355
 X10.1336 Y-5.6983
 X10.2608 Y-5.7581
 X10.3897 Y-5.8150
 X10.5205 Y-5.8690
 X10.6529 Y-5.9198
 X10.7869 Y-5.9677
 X10.9224 Y-6.0124
 X11.0594 Y-6.0540
 X11.1978 Y-6.0925
 X11.3374 Y-6.1277
 X11.4783 Y-6.1598
 X11.6204 Y-6.1886
 X11.7635 Y-6.2141
 X11.9076 Y-6.2363
 X12.0526 Y-6.2551
 X12.1985 Y-6.2706
 X12.3452 Y-6.2826
 X12.4925 Y-6.2912
 X12.6405 Y-6.2963
 X12.7891 Y-6.2979
 X12.9381 Y-6.2960
 X13.0875 Y-6.2905
 X13.2373 Y-6.2813
 X13.3873 Y-6.2686
 X13.5374 Y-6.2521
 X13.6877 Y-6.2320
 X13.8380 Y-6.2081
 X13.9883 Y-6.1804
 X14.1385 Y-6.1489
 X14.2884 Y-6.1136
 X14.4381 Y-6.0744
 X14.5874 Y-6.0313
 X14.7363 Y-5.9843
 X14.8848 Y-5.9333
 X15.0326 Y-5.8783
 X15.1798 Y-5.8193
 X15.3263 Y-5.7562
 X15.4720 Y-5.6890
 X15.6168 Y-5.6177
 X15.7607 Y-5.5422
 X15.9036 Y-5.4625
 X16.0453 Y-5.3786
 X16.1859 Y-5.2904
 X16.3253 Y-5.1980
 X16.4633 Y-5.1012
 X16.6000 Y-5.0000
G0 Z25.0000
 X5.4000 Y-18.0000
G1 Z0.0000
 X9.0000
 X8.9816 Y-17.8092
 X8.9532 Y-17.6290
 X8.9152 Y-17.4592
 X8.8682 Y-17.3000
 X8.8126 Y-17.1510
 X8.7490 Y-17.0125
 X8.6779 Y-16.8841
 X8.5998 Y-16.7660
 X8.5151 Y-16.6580
 X8.4245 Y-16.5600
 X8.3283 Y-16.4721
 X8.2270 Y-16.3941
 X8.1213 Y-16.3260
 X8.0116 Y-16.2678
 X7.8983 Y-16.2193
 X7.7821 Y-16.1805
 X7.6634 Y-16.1513
 X7.5426 Y-16.1317
 X7.4204 Y-16.1217
 X7.2972 Y-16.1211
 X7.1735 Y-16.1299
 X7.0498 Y-16.1480
 X6.9266 Y-16.1754
 X6.8045 Y-16.2120
 X6.6839 Y-16.2577
 X6.5653 Y-16.3126
 X6.4493 Y-16.3764
 X6.3362 Y-16.4493
 X6.2268 Y-16.5310
 X6.1213 Y-16.6216
 X6.0204 Y-16.7209
 X5.9246 Y-16.8290
 X5.8343 Y-16.9457
 X5.7501 Y-17.0710
 X5.6724 Y-17.2049
 X5.6018 Y-17.3472
 X5.5387 Y-17.4980
 X5.4837 Y-17.6570
 X5.4373 Y-17.8244
 X5.4000 Y-18.0000
G0 Z25.0000
 X-1.4000 Y-15.6000
G1 Z0.0000
 Y-14.2000
 X-4.2000
 Y-23.8000
 X-1.4000
 X-1.4007 Y-23.6720
 X-1.4025 Y-23.5399
 X-1.4054 Y-23.4037
 X-1.4092 Y-23.2639
 X-1.4137 Y-23.1205
 X-1.4188 Y-22.9739
 X-1.4243 Y-22.8242
 X-1.4302 Y-22.6717
 X-1.4361 Y-22.5167
 X-1.4421 Y-22.3592
 X-1.4479 Y-22.1997
 X-1.4534 Y-22.0382
 X-1.4584 Y-21.8751
 X-1.4628 Y-21.7106
 X-1.4665 Y-21.5448
 X-1.4692 Y-21.3780
 X-1.4709 Y-21.2105
 X-1.4713 Y-21.0425
 X-1.4704 Y-20.8741
 X-1.4680 Y-20.7057
 X-1.4639 Y-20.5375
 X-1.4579 Y-20.3696
 X-1.4500 Y-20.2024
 X-1.4400 Y-20.0360
 X-1.4277 Y-19.8707
 X-1.4130 Y-19.7067
 X-1.3958 Y-19.5442
 X-1.3758 Y-19.3835
 X-1.3529 Y-19.2247
 X-1.3270 Y-19.0682
 X-1.2979 Y-18.9142
 X-1.2655 Y-18.7628
 X-1.2296 Y-18.6143
 X-1.1901 Y-18.4690
 X-1.1468 Y-18.3270
 X-1.0996 Y-18.1886
 X-1.0483 Y-18.0540
 X-0.9928 Y-17.9235
 X-0.9329 Y-17.7972
 X-0.8685 Y-17.6755
 X-0.7994 Y-17.5585
 X-0.7254 Y-17.4464
 X-0.6465 Y-17.3396
 X-0.5625 Y-17.2381
 X-0.4731 Y-17.1423
 X-0.3784 Y-17.0524
 X-0.2780 Y-16.9686
 X-0.1719 Y-16.8912
 X-0.0599 Y-16.8203
 X0.0581 Y-16.7562
 X0.1823 Y-16.6991
 X0.3128 Y-16.6492
 X0.4499 Y-16.6069
 X0.5935 Y-16.5722
 X0.7440 Y-16.5455
 X0.9014 Y-16.5270
 X1.0659 Y-16.5168
 X1.2376 Y-16.5153
 X1.4168 Y-16.5226
 X1.6034 Y-16.5390
 X1.7978 Y-16.5648
 X2.0000 Y-16.6000
 Y-14.0000
 X1.7734 Y-14.0094
 X1.5558 Y-14.0278
 X1.3463 Y-14.0549
 X1.1446 Y-14.0907
 X0.9498 Y-14.1350
 X0.7613 Y-14.1879
 X0.5786 Y-14.2491
 X0.4009 Y-14.3186
 X0.2277 Y-14.3963
 X0.0583 Y-14.4821
 X-0.1079 Y-14.5758
 X-0.2716 Y-14.6774
 X-0.4334 Y-14.7867
 X-0.5940 Y-14.9037
 X-0.7539 Y-15.0283
 X-0.9138 Y-15.1603
 X-1.0744 Y-15.2996
 X-1.2362 Y-15.4463
 X-1.4000 Y-15.6000
G0 Z25.0000
 X-6.6000 Y-1.6000
G1 Z0.0000
 X-6.8024 Y-1.6173
 X-7.0038 Y-1.6373
 X-7.2044 Y-1.6610
 X-7.4042 Y-1.6891
 X-7.6034 Y-1.7226
 X-7.8021 Y-1.7622
 X-8.0003 Y-1.8088
 X-8.2066 Y-1.8644
 X-8.4106 Y-1.9282
 X-8.6102 Y-2.0035
 X-8.8034 Y-2.0935
 X-8.9883 Y-2.2017
 X-9.1302 Y-2.3011
 X-9.2546 Y-2.4006
 X-9.3621 Y-2.4999
 X-9.4533 Y-2.5988
 X-9.5288 Y-2.6971
 X-9.5893 Y-2.7944
 X-9.6352 Y-2.8905
 X-9.6673 Y-2.9851
 X-9.6861 Y-3.0780
 X-9.6923 Y-3.1689
 X-9.6864 Y-3.2576
 X-9.6691 Y-3.3437
 X-9.6410 Y-3.4270
 X-9.6027 Y-3.5073
 X-9.5547 Y-3.5842
 X-9.4978 Y-3.6575
 X-9.4325 Y-3.7270
 X-9.3593 Y-3.7924
 X-9.2791 Y-3.8534
 X-9.1922 Y-3.9098
 X-9.0994 Y-3.9612
 X-9.0012 Y-4.0074
 X-8.8984 Y-4.0483
 X-8.7913 Y-4.0834
 X-8.6808 Y-4.1125
 X-8.5673 Y-4.1354
 X-8.4516 Y-4.1518
 X-8.3341 Y-4.1614
 X-8.2156 Y-4.1640
 X-8.0966 Y-4.1593
 X-7.9777 Y-4.1470
 X-7.8595 Y-4.1270
 X-7.7427 Y-4.0988
 X-7.6278 Y-4.0622
 X-7.5155 Y-4.0171
 X-7.4064 Y-3.9630
 X-7.3011 Y-3.8999
 X-7.2001 Y-3.8272
 X-7.1042 Y-3.7450
 X-7.0138 Y-3.6527
 X-6.9297 Y-3.5503
 X-6.8524 Y-3.4374
 X-6.7825 Y-3.3137
 X-6.7207 Y-3.1790
 X-6.6595 Y-2.9954
 X-6.6196 Y-2.8025
 X-6.5969 Y-2.6031
 X-6.5873 Y-2.3997
 X-6.5869 Y-2.1950
 X-6.5916 Y-1.9917
 X-6.5973 Y-1.7925
 X-6.6000 Y-1.6000
G0 Z25.0000
 X-12.2000 Y2.0000
G1 Z0.0000
 X-11.0000 Y0.2000
 X-10.8000
 X-10.6732 Y0.2886
 X-10.5415 Y0.3773
 X-10.4053 Y0.4655
 X-10.2651 Y0.5526
 X-10.1214 Y0.6379
 X-9.9745 Y0.7209
 X-9.8251 Y0.8008
 X-9.6735 Y0.8772
 X-9.5202 Y0.9493
 X-9.3657 Y1.0165
 X-9.2104 Y1.0783
 X-9.0548 Y1.1339
 X-8.8995 Y1.1828
 X-8.7447 Y1.2243
 X-8.5911 Y1.2578
 X-8.4390 Y1.2827
 X-8.2890 Y1.2984
 X-8.1415 Y1.3042
 X-7.9970 Y1.2995
 X-7.8559 Y1.2837
 X-7.7187 Y1.2561
 X-7.5858 Y1.2162
 X-7.4578 Y1.1633
 X-7.3351 Y1.0968
 X-7.2182 Y1.0161
 X-7.1074 Y0.9205
 X-7.0034 Y0.8095
 X-6.9066 Y0.6823
 X-6.8173 Y0.5384
 X-6.7362 Y0.3771
 X-6.6636 Y0.1978
 X-6.6000 Y0.0000
 X-6.7817 Y-0.0147
 X-6.9676 Y-0.0307
 X-7.1573 Y-0.0482
 X-7.3502 Y-0.0674
 X-7.5460 Y-0.0886
 X-7.7442 Y-0.1120
 X-7.9443 Y-0.1379
 X-8.1459 Y-0.1665
 X-8.3485 Y-0.1980
 X-8.5517 Y-0.2328
 X-8.7550 Y-0.2709
 X-8.9580 Y-0.3128
 X-9.1602 Y-0.3585
 X-9.3612 Y-0.4084
 X-9.5605 Y-0.4627
 X-9.7577 Y-0.5217
 X-9.9523 Y-0.5856
 X-10.1438 Y-0.6545
 X-10.3319 Y-0.7289
 X-10.5160 Y-0.8088
 X-10.6957 Y-0.8947
 X-10.8706 Y-0.9866
 X-11.0402 Y-1.0848
 X-11.2040 Y-1.1896
 X-11.3617 Y-1.3013
 X-11.5127 Y-1.4200
 X-11.6565 Y-1.5461
 X-11.7929 Y-1.6796
 X-11.9212 Y-1.8210
 X-12.0340 Y-1.9618
 X-12.1364 Y-2.1074
 X-12.2284 Y-2.2573
 X-12.3101 Y-2.4109
 X-12.3815 Y-2.5678
 X-12.4429 Y-2.7275
 X-12.4942 Y-2.8895
 X-12.5355 Y-3.0533
 X-12.5671 Y-3.2184
 X-12.5888 Y-3.3843
 X-12.6009 Y-3.5505
 X-12.6034 Y-3.7166
 X-12.5964 Y-3.8820
 X-12.5800 Y-4.0463
 X-12.5543 Y-4.2089
 X-12.5193 Y-4.3694
 X-12.4752 Y-4.5272
 X-12.4221 Y-4.6819
 X-12.3600 Y-4.8331
 X-12.2890 Y-4.9801
 X-12.2093 Y-5.1225
 X-12.1208 Y-5.2598
 X-12.0238 Y-5.3915
 X-11.9182 Y-5.5172
 X-11.8043 Y-5.6362
 X-11.6819 Y-5.7482
 X-11.5514 Y-5.8527
 X-11.4127 Y-5.9491
 X-11.2659 Y-6.0370
 X-11.1112 Y-6.1158
 X-10.9486 Y-6.1851
 X-10.7781 Y-6.2444
 X-10.6000 Y-6.2932
 X-10.3994 Y-6.3345
 X-10.1995 Y-6.3630
 X-10.0003 Y-6.3791
 X-9.8021 Y-6.3833
 X-9.6050 Y-6.3762
 X-9.4093 Y-6.3583
 X-9.2150 Y-6.3300
 X-9.0224 Y-6.2918
 X-8.8317 Y-6.2443
 X-8.6429 Y-6.1879
 X-8.4564 Y-6.1231
 X-8.2723 Y-6.0505
 X-8.0906 Y-5.9704
 X-7.9118 Y-5.8835
 X-7.7358 Y-5.7902
 X-7.5629 Y-5.6911
 X-7.3932 Y-5.5865
 X-7.2270 Y-5.4770
 X-7.0644 Y-5.3631
 X-6.9056 Y-5.2453
 X-6.7507 Y-5.1241
 X-6.6000 Y-5.0000
 X-6.4000 Y-6.2000
 X-3.6000
 X-3.6059 Y-6.0335
 X-3.6097 Y-5.8618
 X-3.6116 Y-5.6854
 X-3.6117 Y-5.5044
 X-3.6103 Y-5.3192
 X-3.6075 Y-5.1301
 X-3.6035 Y-4.9372
 X-3.5986 Y-4.7410
 X-3.5928 Y-4.5417
 X-3.5864 Y-4.3395
 X-3.5796 Y-4.1348
 X-3.5726 Y-3.9278
 X-3.5655 Y-3.7188
 X-3.5586 Y-3.5081
 X-3.5520 Y-3.2960
 X-3.5459 Y-3.0827
 X-3.5406 Y-2.8686
 X-3.5361 Y-2.6538
 X-3.5327 Y-2.4388
 X-3.5306 Y-2.2238
 X-3.5300 Y-2.0090
 X-3.5310 Y-1.7947
 X-3.5338 Y-1.5813
 X-3.5387 Y-1.3690
 X-3.5458 Y-1.1580
 X-3.5553 Y-0.9487
 X-3.5673 Y-0.7414
 X-3.5822 Y-0.5363
 X-3.6001 Y-0.3337
 X-3.6211 Y-0.1338
 X-3.6454 Y0.0629
 X-3.6733 Y0.2563
 X-3.7049 Y0.4461
 X-3.7404 Y0.6319
 X-3.7801 Y0.8136
 X-3.8240 Y0.9908
 X-3.8724 Y1.1632
 X-3.9254 Y1.3306
 X-3.9834 Y1.4927
 X-4.0463 Y1.6492
 X-4.1145 Y1.7998
 X-4.2018 Y1.9700
 X-4.2952 Y2.1306
 X-4.3946 Y2.2818
 X-4.4998 Y2.4237
 X-4.6105 Y2.5566
 X-4.7265 Y2.6807
 X-4.8476 Y2.7960
 X-4.9736 Y2.9029
 X-5.1043 Y3.0015
 X-5.2395 Y3.0920
 X-5.3788 Y3.1746
 X-5.5223 Y3.2494
 X-5.6695 Y3.3167
 X-5.8203 Y3.3767
 X-5.9744 Y3.4295
 X-6.1318 Y3.4754
 X-6.2921 Y3.5144
 X-6.4551 Y3.5469
 X-6.6206 Y3.5730
 X-6.7884 Y3.5928
 X-6.9583 Y3.6067
 X-7.1301 Y3.6147
 X-7.3035 Y3.6170
 X-7.4783 Y3.6139
 X-7.6544 Y3.6055
 X-7.8314 Y3.5921
 X-8.0093 Y3.5738
 X-8.1877 Y3.5507
 X-8.3664 Y3.5232
 X-8.5453 Y3.4913
 X-8.7241 Y3.4553
 X-8.9026 Y3.4154
 X-9.0806 Y3.3717
 X-9.2579 Y3.3244
 X-9.4342 Y3.2737
 X-9.6094 Y3.2199
 X-9.7832 Y3.1631
 X-9.9554 Y3.1034
 X-10.1257 Y3.0412
 X-10.2941 Y2.9765
 X-10.4602 Y2.9095
 X-10.6239 Y2.8405
 X-10.7848 Y2.7697
 X-10.9429 Y2.6971
 X-11.0979 Y2.6231
 X-11.2496 Y2.5478
 X-11.3977 Y2.4713
 X-11.5421 Y2.3940
 X-11.6825 Y2.3159
 X-11.8187 Y2.2372
 X-11.9505 Y2.1583
 X-12.0777 Y2.0791
 X-12.2000 Y2.0000
G0 Z25.0000
 X-9.0000 Y-10.6000
G1 Z0.0000
 Y-12.8000
 X-6.2000
 Y-10.6000
 X-9.0000
G0 Z25.0000
 Y-14.2000
G1 Z0.0000
 Y-23.8000
 X-6.2000
 Y-14.2000
 X-9.0000
G0 Z25.0000
 X-14.0000 Y-19.0000
G1 Z0.0000
 X-14.1983 Y-19.0584
 X-14.3986 Y-19.1102
 X-14.6001 Y-19.1579
 X-14.8020 Y-19.2040
 X-15.0037 Y-19.2509
 X-15.2043 Y-19.3012
 X-15.4033 Y-19.3573
 X-15.5999 Y-19.4216
 X-15.7612 Y-19.4821
 X-15.9099 Y-19.5443
 X-16.0462 Y-19.6080
 X-16.1705 Y-19.6730
 X-16.2830 Y-19.7391
 X-16.3841 Y-19.8063
 X-16.4742 Y-19.8744
 X-16.5534 Y-19.9431
 X-16.6223 Y-20.0124
 X-16.6811 Y-20.0820
 X-16.7300 Y-20.1519
 X-16.7695 Y-20.2219
 X-16.7999 Y-20.2917
 X-16.8215 Y-20.3613
 X-16.8345 Y-20.4305
 X-16.8394 Y-20.4991
 X-16.8365 Y-20.5670
 X-16.8260 Y-20.6340
 X-16.8083 Y-20.6999
 X-16.7838 Y-20.7647
 X-16.7527 Y-20.8280
 X-16.7154 Y-20.8898
 X-16.6721 Y-20.9500
 X-16.6233 Y-21.0083
 X-16.5693 Y-21.0646
 X-16.5103 Y-21.1187
 X-16.4467 Y-21.1706
 X-16.3788 Y-21.2199
 X-16.3069 Y-21.2666
 X-16.2314 Y-21.3105
 X-16.1526 Y-21.3514
 X-16.0708 Y-21.3892
 X-15.9863 Y-21.4238
 X-15.8994 Y-21.4549
 X-15.8106 Y-21.4824
 X-15.7200 Y-21.5062
 X-15.6281 Y-21.5261
 X-15.5351 Y-21.5418
 X-15.4414 Y-21.5534
 X-15.3473 Y-21.5606
 X-15.2530 Y-21.5632
 X-15.1591 Y-21.5611
 X-15.0657 Y-21.5542
 X-14.9731 Y-21.5422
 X-14.8818 Y-21.5250
 X-14.7920 Y-21.5025
 X-14.7041 Y-21.4745
 X-14.6184 Y-21.4409
 X-14.5351 Y-21.4014
 X-14.4547 Y-21.3560
 X-14.3774 Y-21.3044
 X-14.3036 Y-21.2465
 X-14.2336 Y-21.1822
 X-14.1677 Y-21.1112
 X-14.1063 Y-21.0335
 X-14.0496 Y-20.9488
 X-13.9981 Y-20.8571
 X-13.9519 Y-20.7581
 X-13.9115 Y-20.6517
 X-13.8771 Y-20.5377
 X-13.8491 Y-20.4160
 X-13.8278 Y-20.2864
 X-13.8136 Y-20.1488
 X-13.8066 Y-20.0029
 X-13.8100 Y-19.7850
 X-13.8300 Y-19.5836
 X-13.8678 Y-19.3907
 X-13.9241 Y-19.1988
 X-14.0000 Y-19.0000
G0 Z25.0000
 X-18.4000 Y-17.2000
G1 Z0.0000
 X-18.2760 Y-17.1622
 X-18.1464 Y-17.1189
 X-18.0118 Y-17.0710
 X-17.8726 Y-17.0190
 X-17.7293 Y-16.9639
 X-17.5824 Y-16.9062
 X-17.4322 Y-16.8468
 X-17.2794 Y-16.7862
 X-17.1243 Y-16.7254
 X-16.9675 Y-16.6649
 X-16.8093 Y-16.6055
 X-16.6504 Y-16.5479
 X-16.4910 Y-16.4929
 X-16.3317 Y-16.4412
 X-16.1730 Y-16.3935
 X-16.0154 Y-16.3505
 X-15.8592 Y-16.3130
 X-15.7050 Y-16.2817
 X-15.5533 Y-16.2572
 X-15.4045 Y-16.2404
 X-15.2590 Y-16.2319
 X-15.1174 Y-16.2326
 X-14.9800 Y-16.2430
 X-14.8475 Y-16.2639
 X-14.7202 Y-16.2961
 X-14.5986 Y-16.3403
 X-14.4832 Y-16.3971
 X-14.3745 Y-16.4674
 X-14.2729 Y-16.5519
 X-14.1788 Y-16.6512
 X-14.0928 Y-16.7661
 X-14.0153 Y-16.8973
 X-13.9469 Y-17.0456
 X-13.8878 Y-17.2117
 X-13.8387 Y-17.3962
 X-13.8000 Y-17.6000
 X-13.9818 Y-17.6015
 X-14.1672 Y-17.6052
 X-14.3560 Y-17.6113
 X-14.5477 Y-17.6199
 X-14.7419 Y-17.6313
 X-14.9381 Y-17.6457
 X-15.1361 Y-17.6633
 X-15.3353 Y-17.6843
 X-15.5353 Y-17.7089
 X-15.7359 Y-17.7372
 X-15.9364 Y-17.7696
 X-16.1366 Y-17.8061
 X-16.3360 Y-17.8471
 X-16.5343 Y-17.8926
 X-16.7309 Y-17.9430
 X-16.9255 Y-17.9984
 X-17.1178 Y-18.0589
 X-17.3072 Y-18.1249
 X-17.4934 Y-18.1965
 X-17.6760 Y-18.2739
 X-17.8545 Y-18.3574
 X-18.0286 Y-18.4470
 X-18.1979 Y-18.5431
 X-18.3618 Y-18.6458
 X-18.5201 Y-18.7553
 X-18.6723 Y-18.8719
 X-18.8181 Y-18.9957
 X-18.9569 Y-19.1269
 X-19.0884 Y-19.2658
 X-19.2007 Y-19.4004
 X-19.3035 Y-19.5425
 X-19.3969 Y-19.6912
 X-19.4807 Y-19.8458
 X-19.5550 Y-20.0058
 X-19.6196 Y-20.1703
 X-19.6747 Y-20.3387
 X-19.7200 Y-20.5103
 X-19.7557 Y-20.6843
 X-19.7816 Y-20.8602
 X-19.7978 Y-21.0370
 X-19.8041 Y-21.2143
 X-19.8006 Y-21.3912
 X-19.7872 Y-21.5671
 X-19.7639 Y-21.7413
 X-19.7306 Y-21.9130
 X-19.6874 Y-22.0816
 X-19.6341 Y-22.2464
 X-19.5707 Y-22.4066
 X-19.4973 Y-22.5616
 X-19.4137 Y-22.7107
 X-19.3199 Y-22.8531
 X-19.2160 Y-22.9882
 X-19.1017 Y-23.1152
 X-18.9772 Y-23.2335
 X-18.8424 Y-23.3424
 X-18.6972 Y-23.4411
 X-18.5417 Y-23.5290
 X-18.3757 Y-23.6054
 X-18.1992 Y-23.6695
 X-18.0014 Y-23.7267
 X-17.8047 Y-23.7723
 X-17.6093 Y-23.8068
 X-17.4152 Y-23.8304
 X-17.2226 Y-23.8434
 X-17.0316 Y-23.8462
 X-16.8421 Y-23.8392
 X-16.6544 Y-23.8225
 X-16.4684 Y-23.7967
 X-16.2842 Y-23.7620
 X-16.1020 Y-23.7187
 X-15.9218 Y-23.6672
 X-15.7437 Y-23.6078
 X-15.5678 Y-23.5409
 X-15.3942 Y-23.4667
 X-15.2229 Y-23.3856
 X-15.0540 Y-23.2980
 X-14.8876 Y-23.2041
 X-14.7238 Y-23.1043
 X-14.5627 Y-22.9989
 X-14.4043 Y-22.8883
 X-14.2488 Y-22.7728
 X-14.0962 Y-22.6526
 X-13.9466 Y-22.5283
 X-13.8000 Y-22.4000
 X-13.6000 Y-23.8000
 X-10.8000
 X-10.8048 Y-23.6611
 X-10.8077 Y-23.5153
 X-10.8090 Y-23.3629
 X-10.8086 Y-23.2042
 X-10.8069 Y-23.0395
 X-10.8040 Y-22.8692
 X-10.8001 Y-22.6935
 X-10.7953 Y-22.5129
 X-10.7899 Y-22.3276
 X-10.7839 Y-22.1379
 X-10.7776 Y-21.9442
 X-10.7711 Y-21.7468
 X-10.7647 Y-21.5461
 X-10.7584 Y-21.3422
 X-10.7524 Y-21.1357
 X-10.7470 Y-20.9267
 X-10.7423 Y-20.7156
 X-10.7384 Y-20.5028
 X-10.7356 Y-20.2885
 X-10.7340 Y-20.0731
 X-10.7337 Y-19.8569
 X-10.7350 Y-19.6402
 X-10.7381 Y-19.4233
 X-10.7430 Y-19.2067
 X-10.7500 Y-18.9905
 X-10.7593 Y-18.7751
 X-10.7709 Y-18.5609
 X-10.7851 Y-18.3481
 X-10.8021 Y-18.1371
 X-10.8221 Y-17.9282
 X-10.8451 Y-17.7217
 X-10.8714 Y-17.5180
 X-10.9011 Y-17.3174
 X-10.9345 Y-17.1201
 X-10.9716 Y-16.9266
 X-11.0127 Y-16.7371
 X-11.0579 Y-16.5519
 X-11.1074 Y-16.3715
 X-11.1614 Y-16.1961
 X-11.2201 Y-16.0260
 X-11.2836 Y-15.8615
 X-11.3520 Y-15.7030
 X-11.4256 Y-15.5509
 X-11.5046 Y-15.4053
 X-11.5890 Y-15.2667
 X-11.6792 Y-15.1353
 X-11.7751 Y-15.0116
 X-11.8772 Y-14.8957
 X-11.9853 Y-14.7881
 X-12.0999 Y-14.6891
 X-12.2210 Y-14.5989
 X-12.3160 Y-14.5373
 X-12.4173 Y-14.4788
 X-12.5247 Y-14.4233
 X-12.6377 Y-14.3710
 X-12.7562 Y-14.3217
 X-12.8797 Y-14.2755
 X-13.0081 Y-14.2324
 X-13.1410 Y-14.1925
 X-13.2780 Y-14.1557
 X-13.4190 Y-14.1220
 X-13.5635 Y-14.0915
 X-13.7114 Y-14.0641
 X-13.8622 Y-14.0398
 X-14.0157 Y-14.0188
 X-14.1715 Y-14.0009
 X-14.3295 Y-13.9862
 X-14.4892 Y-13.9747
 X-14.6504 Y-13.9664
 X-14.8127 Y-13.9614
 X-14.9759 Y-13.9595
 X-15.1396 Y-13.9609
 X-15.3036 Y-13.9655
 X-15.4676 Y-13.9734
 X-15.6311 Y-13.9845
 X-15.7941 Y-13.9989
 X-15.9560 Y-14.0166
 X-16.1167 Y-14.0376
 X-16.2759 Y-14.0618
 X-16.4331 Y-14.0893
 X-16.5882 Y-14.1202
 X-16.7408 Y-14.1544
 X-16.8906 Y-14.1919
 X-17.0374 Y-14.2327
 X-17.1807 Y-14.2769
 X-17.3204 Y-14.3244
 X-17.4560 Y-14.3753
 X-17.5874 Y-14.4296
 X-17.7141 Y-14.4872
 X-17.8360 Y-14.5482
 X-17.9526 Y-14.6126
 X-18.0637 Y-14.6805
 X-18.1690 Y-14.7517
 X-18.2682 Y-14.8264
 X-18.3610 Y-14.9045
 X-18.4470 Y-14.9860
 X-18.5260 Y-15.0710
 X-18.5977 Y-15.1594
 X-18.6617 Y-15.2513
 X-18.7178 Y-15.3467
 X-18.7657 Y-15.4455
 X-18.8050 Y-15.5479
 X-18.8354 Y-15.6537
 X-18.8567 Y-15.7631
 X-18.8686 Y-15.8760
 X-18.8706 Y-15.9924
 X-18.8626 Y-16.1123
 X-18.8443 Y-16.2358
 X-18.8153 Y-16.3628
 X-18.7753 Y-16.4934
 X-18.7240 Y-16.6275
 X-18.6611 Y-16.7653
 X-18.5864 Y-16.9066
 X-18.4994 Y-17.0515
 X-18.4000 Y-17.2000
G0 Z25.0000
 X-28.2000 Y-10.4000
G1 Z0.0000
 Y-23.8000
 X-28.0376 Y-23.8036
 X-27.8580 Y-23.8131
 X-27.6645 Y-23.8263
 X-27.4602 Y-23.8409
 X-27.2482 Y-23.8549
 X-27.0317 Y-23.8661
 X-26.8140 Y-23.8723
 X-26.5982 Y-23.8714
 X-26.3874 Y-23.8611
 X-26.1849 Y-23.8394
 X-25.9938 Y-23.8040
 X-25.8173 Y-23.7528
 X-25.6585 Y-23.6837
 X-25.5207 Y-23.5945
 X-25.4325 Y-23.5101
 X-25.3547 Y-23.4060
 X-25.2867 Y-23.2836
 X-25.2280 Y-23.1444
 X-25.1781 Y-22.9898
 X-25.1363 Y-22.8211
 X-25.1022 Y-22.6397
 X-25.0753 Y-22.4471
 X-25.0549 Y-22.2447
 X-25.0406 Y-22.0338
 X-25.0318 Y-21.8159
 X-25.0279 Y-21.5924
 X-25.0285 Y-21.3647
 X-25.0329 Y-21.1342
 X-25.0407 Y-20.9023
 X-25.0513 Y-20.6704
 X-25.0641 Y-20.4399
 X-25.0787 Y-20.2122
 X-25.0945 Y-19.9888
 X-25.1108 Y-19.7710
 X-25.1273 Y-19.5602
 X-25.1434 Y-19.3579
 X-25.1584 Y-19.1654
 X-25.1720 Y-18.9842
 X-25.1834 Y-18.8156
 X-25.1923 Y-18.6612
 X-25.1980 Y-18.5221
 X-25.2000 Y-18.4000
 X-21.0000
 Y-16.2000
 X-25.2000
 Y-12.8000
 X-19.4000
 Y-10.4000
 X-28.2000
G0 Z25.0000
 X-44.4000 Y-20.2000
G1 Z0.0000
 X-44.3953 Y-20.4142
 X-44.3814 Y-20.6193
 X-44.3584 Y-20.8156
 X-44.3266 Y-21.0033
 X-44.2862 Y-21.1826
 X-44.2375 Y-21.3536
 X-44.1806 Y-21.5167
 X-44.1158 Y-21.6721
 X-44.0433 Y-21.8198
 X-43.9634 Y-21.9602
 X-43.8762 Y-22.0935
 X-43.7820 Y-22.2198
 X-43.6809 Y-22.3395
 X-43.5734 Y-22.4526
 X-43.4594 Y-22.5594
 X-43.3393 Y-22.6601
 X-43.2134 Y-22.7550
 X-43.0817 Y-22.8442
 X-42.9446 Y-22.9279
 X-42.8023 Y-23.0064
 X-42.6549 Y-23.0799
 X-42.5028 Y-23.1485
 X-42.3461 Y-23.2125
 X-42.1850 Y-23.2722
 X-42.0198 Y-23.3276
 X-41.8508 Y-23.3791
 X-41.6781 Y-23.4268
 X-41.5019 Y-23.4709
 X-41.3225 Y-23.5117
 X-41.1401 Y-23.5494
 X-40.9549 Y-23.5841
 X-40.7671 Y-23.6161
 X-40.5771 Y-23.6457
 X-40.3849 Y-23.6729
 X-40.1908 Y-23.6980
 X-39.9951 Y-23.7213
 X-39.7979 Y-23.7430
 X-39.5995 Y-23.7631
 X-39.4002 Y-23.7821
 X-39.2000 Y-23.8000
 X-39.3360 Y-23.9134
 X-39.4802 Y-24.0217
 X-39.6323 Y-24.1249
 X-39.7916 Y-24.2234
 X-39.9576 Y-24.3173
 X-40.1298 Y-24.4068
 X-40.3076 Y-24.4919
 X-40.4906 Y-24.5730
 X-40.6781 Y-24.6501
 X-40.8696 Y-24.7235
 X-41.0647 Y-24.7933
 X-41.2628 Y-24.8597
 X-41.4633 Y-24.9229
 X-41.6657 Y-24.9830
 X-41.8694 Y-25.0402
 X-42.0740 Y-25.0947
 X-42.2789 Y-25.1466
 X-42.4836 Y-25.1962
 X-42.6875 Y-25.2436
 X-42.8901 Y-25.2890
 X-43.0909 Y-25.3325
 X-43.2893 Y-25.3744
 X-43.4848 Y-25.4147
 X-43.6768 Y-25.4537
 X-43.8649 Y-25.4916
 X-44.0485 Y-25.5285
 X-44.2270 Y-25.5646
 X-44.4000 Y-25.6000
 Y-27.8000
 X-37.0000
 Y-26.4000
 X-41.6000
 Y-26.2000
 X-41.4825 Y-26.1825
 X-41.3497 Y-26.1621
 X-41.2032 Y-26.1388
 X-41.0443 Y-26.1124
 X-40.8743 Y-26.0829
 X-40.6946 Y-26.0502
 X-40.5066 Y-26.0140
 X-40.3116 Y-25.9745
 X-40.1111 Y-25.9313
 X-39.9064 Y-25.8844
 X-39.6988 Y-25.8338
 X-39.4898 Y-25.7792
 X-39.2807 Y-25.7206
 X-39.0729 Y-25.6580
 X-38.8677 Y-25.5911
 X-38.6666 Y-25.5198
 X-38.4709 Y-25.4441
 X-38.2819 Y-25.3639
 X-38.1011 Y-25.2790
 X-37.9297 Y-25.1894
 X-37.7693 Y-25.0948
 X-37.6211 Y-24.9954
 X-37.4866 Y-24.8908
 X-37.3670 Y-24.7810
 X-37.2638 Y-24.6659
 X-37.1784 Y-24.5454
 X-37.1120 Y-24.4194
 X-37.0662 Y-24.2878
 X-37.0422 Y-24.1505
 X-37.0414 Y-24.0073
 X-37.0633 Y-23.8756
 X-37.1074 Y-23.7491
 X-37.1723 Y-23.6278
 X-37.2566 Y-23.5115
 X-37.3588 Y-23.4002
 X-37.4777 Y-23.2938
 X-37.6118 Y-23.1923
 X-37.7598 Y-23.0954
 X-37.9202 Y-23.0032
 X-38.0916 Y-22.9155
 X-38.2727 Y-22.8323
 X-38.4621 Y-22.7535
 X-38.6584 Y-22.6790
 X-38.8601 Y-22.6086
 X-39.0660 Y-22.5424
 X-39.2745 Y-22.4803
 X-39.4844 Y-22.4220
 X-39.6942 Y-22.3677
 X-39.9026 Y-22.3171
 X-40.1081 Y-22.2702
 X-40.3093 Y-22.2269
 X-40.5050 Y-22.1871
 X-40.6936 Y-22.1508
 X-40.8738 Y-22.1178
 X-41.0442 Y-22.0881
 X-41.2034 Y-22.0615
 X-41.3500 Y-22.0380
 X-41.4827 Y-22.0176
 X-41.6000 Y-22.0000
 Y-21.8000
 X-37.0000
 Y-20.2000
 X-44.4000
G0 Z25.0000
 X-39.6000 Y-16.0000
G1 Z0.0000
 X-39.5455 Y-16.2156
 X-39.4879 Y-16.4170
 X-39.4247 Y-16.6039
 X-39.3534 Y-16.7761
 X-39.2716 Y-16.9335
 X-39.1769 Y-17.0757
 X-39.0668 Y-17.2026
 X-38.9388 Y-17.3140
 X-38.7907 Y-17.4097
 X-38.6197 Y-17.4894
 X-38.4237 Y-17.5529
 X-38.2000 Y-17.6000
 X-38.2049 Y-17.3942
 X-38.2156 Y-17.1958
 X-38.2337 Y-17.0064
 X-38.2608 Y-16.8274
 X-38.2984 Y-16.6606
 X-38.3481 Y-16.5074
 X-38.4116 Y-16.3694
 X-38.4902 Y-16.2482
 X-38.5857 Y-16.1453
 X-38.6996 Y-16.0623
 X-38.8335 Y-16.0007
 X-38.9889 Y-15.9621
 X-39.1674 Y-15.9481
 X-39.3706 Y-15.9602
 X-39.6000 Y-16.0000
G0 Z25.0000
 X-41.6000 Y-19.0000
G1 Z0.0000
 X-40.4000 Y-15.8000
 X-40.3912 Y-15.9807
 X-40.3798 Y-16.1677
 X-40.3649 Y-16.3598
 X-40.3459 Y-16.5556
 X-40.3219 Y-16.7538
 X-40.2923 Y-16.9530
 X-40.2562 Y-17.1520
 X-40.2129 Y-17.3495
 X-40.1616 Y-17.5440
 X-40.1016 Y-17.7344
 X-40.0322 Y-17.9191
 X-39.9525 Y-18.0970
 X-39.8618 Y-18.2667
 X-39.7594 Y-18.4269
 X-39.6444 Y-18.5762
 X-39.5162 Y-18.7133
 X-39.3773 Y-18.8334
 X-39.2297 Y-18.9346
 X-39.0751 Y-19.0173
 X-38.9151 Y-19.0816
 X-38.7513 Y-19.1277
 X-38.5854 Y-19.1560
 X-38.4190 Y-19.1666
 X-38.2538 Y-19.1597
 X-38.0913 Y-19.1356
 X-37.9333 Y-19.0945
 X-37.7813 Y-19.0367
 X-37.6370 Y-18.9624
 X-37.5020 Y-18.8718
 X-37.3780 Y-18.7651
 X-37.2665 Y-18.6426
 X-37.1693 Y-18.5046
 X-37.0880 Y-18.3511
 X-37.0242 Y-18.1826
 X-36.9795 Y-17.9991
 X-36.9549 Y-17.8020
 X-36.9517 Y-17.6077
 X-36.9675 Y-17.4162
 X-37.0001 Y-17.2272
 X-37.0474 Y-17.0407
 X-37.1070 Y-16.8568
 X-37.1768 Y-16.6752
 X-37.2545 Y-16.4959
 X-37.3379 Y-16.3188
 X-37.4248 Y-16.1438
 X-37.5129 Y-15.9709
 X-37.6000 Y-15.8000
 X-37.4063 Y-15.7401
 X-37.2566 Y-15.6551
 X-37.1454 Y-15.5479
 X-37.0674 Y-15.4209
 X-37.0173 Y-15.2769
 X-36.9896 Y-15.1183
 X-36.9790 Y-14.9479
 X-36.9801 Y-14.7682
 X-36.9876 Y-14.5820
 X-36.9960 Y-14.3917
 X-37.0000 Y-14.2000
 X-37.1489 Y-14.2058
 X-37.3007 Y-14.2108
 X-37.4553 Y-14.2152
 X-37.6122 Y-14.2191
 X-37.7712 Y-14.2228
 X-37.9319 Y-14.2264
 X-38.0942 Y-14.2303
 X-38.2576 Y-14.2347
 X-38.4219 Y-14.2396
 X-38.5868 Y-14.2454
 X-38.7520 Y-14.2522
 X-38.9172 Y-14.2603
 X-39.0821 Y-14.2699
 X-39.2464 Y-14.2812
 X-39.4097 Y-14.2944
 X-39.5719 Y-14.3097
 X-39.7326 Y-14.3273
 X-39.8914 Y-14.3474
 X-40.0482 Y-14.3704
 X-40.2026 Y-14.3962
 X-40.3543 Y-14.4253
 X-40.5030 Y-14.4577
 X-40.6484 Y-14.4937
 X-40.7902 Y-14.5335
 X-40.9282 Y-14.5774
 X-41.0619 Y-14.6255
 X-41.1912 Y-14.6780
 X-41.3157 Y-14.7352
 X-41.4351 Y-14.7972
 X-41.5492 Y-14.8643
 X-41.6576 Y-14.9368
 X-41.7600 Y-15.0147
 X-41.8561 Y-15.0983
 X-41.9457 Y-15.1879
 X-42.0284 Y-15.2836
 X-42.1039 Y-15.3856
 X-42.1720 Y-15.4942
 X-42.2323 Y-15.6096
 X-42.2846 Y-15.7320
 X-42.3285 Y-15.8616
 X-42.3638 Y-15.9985
 X-42.3901 Y-16.1431
 X-42.4071 Y-16.2956
 X-42.4146 Y-16.4560
 X-42.4123 Y-16.6248
 X-42.3998 Y-16.8020
 X-42.3769 Y-16.9879
 X-42.3432 Y-17.1826
 X-42.2985 Y-17.3865
 X-42.2424 Y-17.5997
 X-42.1753 Y-17.8123
 X-42.0975 Y-18.0187
 X-42.0104 Y-18.2202
 X-41.9157 Y-18.4179
 X-41.8147 Y-18.6130
 X-41.7089 Y-18.8067
 X-41.6000 Y-19.0000
G0 Z25.0000
 Y-11.6000
G1 Z0.0000
 X-42.4000
 X-42.3909 Y-11.7842
 X-42.3686 Y-11.9555
 X-42.3336 Y-12.1145
 X-42.2863 Y-12.2615
 X-42.2273 Y-12.3970
 X-42.1572 Y-12.5213
 X-42.0764 Y-12.6350
 X-41.9855 Y-12.7384
 X-41.8850 Y-12.8320
 X-41.7754 Y-12.9162
 X-41.6573 Y-12.9915
 X-41.5312 Y-13.0582
 X-41.3975 Y-13.1168
 X-41.2568 Y-13.1678
 X-41.1097 Y-13.2114
 X-40.9567 Y-13.2483
 X-40.7982 Y-13.2788
 X-40.6349 Y-13.3033
 X-40.4671 Y-13.3223
 X-40.2955 Y-13.3361
 X-40.1206 Y-13.3453
 X-39.9429 Y-13.3503
 X-39.7630 Y-13.3514
 X-39.5812 Y-13.3492
 X-39.3982 Y-13.3439
 X-39.2146 Y-13.3362
 X-39.0307 Y-13.3263
 X-38.8472 Y-13.3148
 X-38.6645 Y-13.3020
 X-38.4832 Y-13.2884
 X-38.3038 Y-13.2744
 X-38.1268 Y-13.2605
 X-37.9528 Y-13.2470
 X-37.7823 Y-13.2344
 X-37.6158 Y-13.2232
 X-37.4537 Y-13.2137
 X-37.2968 Y-13.2064
 X-37.1453 Y-13.2017
 X-37.0000 Y-13.2000
 Y-11.6000
 X-37.1694 Y-11.6014
 X-37.3407 Y-11.6052
 X-37.5136 Y-11.6108
 X-37.6875 Y-11.6174
 X-37.8619 Y-11.6244
 X-38.0364 Y-11.6312
 X-38.2105 Y-11.6371
 X-38.3837 Y-11.6414
 X-38.5555 Y-11.6435
 X-38.7254 Y-11.6427
 X-38.8930 Y-11.6385
 X-39.0577 Y-11.6300
 X-39.2190 Y-11.6167
 X-39.3766 Y-11.5979
 X-39.5298 Y-11.5729
 X-39.6783 Y-11.5411
 X-39.8215 Y-11.5019
 X-39.9589 Y-11.4545
 X-40.0900 Y-11.3984
 X-40.2145 Y-11.3328
 X-40.3317 Y-11.2571
 X-40.4412 Y-11.1706
 X-40.5425 Y-11.0727
 X-40.6352 Y-10.9628
 X-40.7187 Y-10.8401
 X-40.7925 Y-10.7041
 X-40.8562 Y-10.5540
 X-40.9093 Y-10.3892
 X-40.9513 Y-10.2090
 X-40.9817 Y-10.0129
 X-41.0000 Y-9.8000
 X-37.0000
 Y-8.2000
 X-37.1326 Y-8.1997
 X-37.2684 Y-8.1987
 X-37.4074 Y-8.1973
 X-37.5491 Y-8.1956
 X-37.6933 Y-8.1937
 X-37.8398 Y-8.1917
 X-37.9881 Y-8.1899
 X-38.1382 Y-8.1883
 X-38.2896 Y-8.1872
 X-38.4422 Y-8.1865
 X-38.5955 Y-8.1866
 X-38.7494 Y-8.1875
 X-38.9036 Y-8.1893
 X-39.0578 Y-8.1923
 X-39.2117 Y-8.1965
 X-39.3650 Y-8.2022
 X-39.5175 Y-8.2093
 X-39.6689 Y-8.2182
 X-39.8188 Y-8.2289
 X-39.9671 Y-8.2416
 X-40.1134 Y-8.2563
 X-40.2575 Y-8.2734
 X-40.3990 Y-8.2928
 X-40.5378 Y-8.3148
 X-40.6734 Y-8.3395
 X-40.8057 Y-8.3670
 X-40.9344 Y-8.3975
 X-41.0592 Y-8.4311
 X-41.1798 Y-8.4680
 X-41.2959 Y-8.5083
 X-41.4073 Y-8.5521
 X-41.5136 Y-8.5996
 X-41.6146 Y-8.6510
 X-41.7101 Y-8.7063
 X-41.7997 Y-8.7658
 X-41.8831 Y-8.8295
 X-41.9601 Y-8.8976
 X-42.0304 Y-8.9703
 X-42.0937 Y-9.0476
 X-42.1498 Y-9.1298
 X-42.1984 Y-9.2170
 X-42.2391 Y-9.3093
 X-42.2717 Y-9.4069
 X-42.2959 Y-9.5099
 X-42.3115 Y-9.6185
 X-42.3182 Y-9.7327
 X-42.3157 Y-9.8528
 X-42.3036 Y-9.9788
 X-42.2818 Y-10.1110
 X-42.2500 Y-10.2495
 X-42.2078 Y-10.3944
 X-42.1550 Y-10.5458
 X-42.0914 Y-10.7039
 X-42.0165 Y-10.8689
 X-41.9303 Y-11.0408
 X-41.8323 Y-11.2199
 X-41.7223 Y-11.4062
 X-41.6000 Y-11.6000
G0 Z25.0000
 X-41.0000 Y-2.2000
G1 Z0.0000
 X-41.1676 Y-2.3325
 X-41.3311 Y-2.4657
 X-41.4889 Y-2.6018
 X-41.6392 Y-2.7430
 X-41.7804 Y-2.8915
 X-41.9109 Y-3.0493
 X-42.0290 Y-3.2187
 X-42.1330 Y-3.4018
 X-42.2213 Y-3.6008
 X-42.2749 Y-3.7471
 X-42.3220 Y-3.8901
 X-42.3626 Y-4.0298
 X-42.3969 Y-4.1662
 X-42.4251 Y-4.2993
 X-42.4473 Y-4.4291
 X-42.4636 Y-4.5556
 X-42.4741 Y-4.6789
 X-42.4791 Y-4.7989
 X-42.4785 Y-4.9157
 X-42.4727 Y-5.0292
 X-42.4616 Y-5.1396
 X-42.4455 Y-5.2467
 X-42.4244 Y-5.3506
 X-42.3986 Y-5.4514
 X-42.3681 Y-5.5489
 X-42.3330 Y-5.6433
 X-42.2936 Y-5.7346
 X-42.2500 Y-5.8227
 X-42.2022 Y-5.9077
 X-42.1505 Y-5.9895
 X-42.0949 Y-6.0682
 X-42.0356 Y-6.1439
 X-41.9727 Y-6.2164
 X-41.9064 Y-6.2859
 X-41.8368 Y-6.3523
 X-41.7640 Y-6.4156
 X-41.6883 Y-6.4759
 X-41.6096 Y-6.5331
 X-41.5281 Y-6.5873
 X-41.4441 Y-6.6385
 X-41.3576 Y-6.6867
 X-41.2687 Y-6.7319
 X-41.1776 Y-6.7741
 X-41.0844 Y-6.8134
 X-40.9893 Y-6.8496
 X-40.8924 Y-6.8829
 X-40.7938 Y-6.9133
 X-40.6937 Y-6.9407
 X-40.5922 Y-6.9653
 X-40.4894 Y-6.9869
 X-40.3855 Y-7.0056
 X-40.2806 Y-7.0214
 X-40.1748 Y-7.0343
 X-40.0684 Y-7.0444
 X-39.9613 Y-7.0516
 X-39.8538 Y-7.0559
 X-39.7460 Y-7.0575
 X-39.6380 Y-7.0561
 X-39.5300 Y-7.0520
 X-39.4221 Y-7.0451
 X-39.3144 Y-7.0354
 X-39.2071 Y-7.0229
 X-39.1003 Y-7.0076
 X-38.9941 Y-6.9895
 X-38.8887 Y-6.9687
 X-38.7842 Y-6.9452
 X-38.6808 Y-6.9189
 X-38.5785 Y-6.8899
 X-38.4776 Y-6.8582
 X-38.3781 Y-6.8238
 X-38.2802 Y-6.7867
 X-38.1840 Y-6.7469
 X-38.0897 Y-6.7045
 X-37.9974 Y-6.6594
 X-37.9072 Y-6.6116
 X-37.8193 Y-6.5612
 X-37.7338 Y-6.5082
 X-37.6509 Y-6.4526
 X-37.5706 Y-6.3944
 X-37.4931 Y-6.3335
 X-37.4186 Y-6.2701
 X-37.3472 Y-6.2041
 X-37.2790 Y-6.1356
 X-37.2141 Y-6.0645
 X-37.1527 Y-5.9909
 X-37.0950 Y-5.9147
 X-37.0410 Y-5.8360
 X-36.9909 Y-5.7548
 X-36.9449 Y-5.6711
 X-36.9030 Y-5.5849
 X-36.8655 Y-5.4962
 X-36.8323 Y-5.4051
 X-36.8038 Y-5.3115
 X-36.7800 Y-5.2155
 X-36.7610 Y-5.1170
 X-36.7470 Y-5.0161
 X-36.7381 Y-4.9128
 X-36.7345 Y-4.8071
 X-36.7363 Y-4.6990
 X-36.7436 Y-4.5885
 X-36.7565 Y-4.4756
 X-36.7753 Y-4.3604
 X-36.8000 Y-4.2428
 X-36.8308 Y-4.1229
 X-36.8678 Y-4.0007
 X-36.9111 Y-3.8761
 X-36.9609 Y-3.7492
 X-37.0173 Y-3.6201
 X-37.0805 Y-3.4886
 X-37.1506 Y-3.3549
 X-37.2276 Y-3.2188
 X-37.3575 Y-3.0250
 X-37.5026 Y-2.8541
 X-37.6614 Y-2.7022
 X-37.8321 Y-2.5651
 X-38.0133 Y-2.4384
 X-38.2031 Y-2.3181
 X-38.4000 Y-2.2000
 X-39.0000 Y-3.6000
 X-38.8761 Y-3.6752
 X-38.7629 Y-3.7490
 X-38.6600 Y-3.8216
 X-38.5672 Y-3.8929
 X-38.4843 Y-3.9628
 X-38.4108 Y-4.0313
 X-38.3466 Y-4.0985
 X-38.2914 Y-4.1642
 X-38.2449 Y-4.2284
 X-38.2069 Y-4.2912
 X-38.1770 Y-4.3524
 X-38.1550 Y-4.4122
 X-38.1406 Y-4.4703
 X-38.1335 Y-4.5269
 X-38.1336 Y-4.5818
 X-38.1404 Y-4.6351
 X-38.1537 Y-4.6868
 X-38.1733 Y-4.7367
 X-38.1988 Y-4.7849
 X-38.2300 Y-4.8314
 X-38.2667 Y-4.8760
 X-38.3085 Y-4.9189
 X-38.3552 Y-4.9599
 X-38.4064 Y-4.9991
 X-38.4620 Y-5.0364
 X-38.5217 Y-5.0717
 X-38.5851 Y-5.1052
 X-38.6520 Y-5.1366
 X-38.7222 Y-5.1661
 X-38.7953 Y-5.1935
 X-38.8710 Y-5.2189
 X-38.9492 Y-5.2422
 X-39.0295 Y-5.2634
 X-39.1117 Y-5.2824
 X-39.1954 Y-5.2993
 X-39.2805 Y-5.3140
 X-39.3666 Y-5.3266
 X-39.4534 Y-5.3368
 X-39.5407 Y-5.3448
 X-39.6283 Y-5.3505
 X-39.7157 Y-5.3539
 X-39.8029 Y-5.3549
 X-39.8894 Y-5.3536
 X-39.9750 Y-5.3499
 X-40.0595 Y-5.3437
 X-40.1425 Y-5.3350
 X-40.2238 Y-5.3239
 X-40.3032 Y-5.3103
 X-40.3802 Y-5.2941
 X-40.4548 Y-5.2754
 X-40.5265 Y-5.2541
 X-40.5952 Y-5.2302
 X-40.6605 Y-5.2036
 X-40.7221 Y-5.1743
 X-40.7799 Y-5.1424
 X-40.8335 Y-5.1077
 X-40.8826 Y-5.0703
 X-40.9270 Y-5.0300
 X-40.9664 Y-4.9870
 X-41.0005 Y-4.9411
 X-41.0291 Y-4.8924
 X-41.0519 Y-4.8408
 X-41.0685 Y-4.7863
 X-41.0788 Y-4.7288
 X-41.0824 Y-4.6684
 X-41.0792 Y-4.6049
 X-41.0687 Y-4.5385
 X-41.0507 Y-4.4689
 X-41.0250 Y-4.3964
 X-40.9913 Y-4.3207
 X-40.9493 Y-4.2418
 X-40.8987 Y-4.1598
 X-40.8393 Y-4.0747
 X-40.7708 Y-3.9863
 X-40.6929 Y-3.8946
 X-40.6053 Y-3.7997
 X-40.5077 Y-3.7015
 X-40.4000 Y-3.6000
 X-41.0000 Y-2.2000
G0 Z25.0000
 X-41.6000 Y0.2000
G1 Z0.0000
 X-44.4000
 Y-1.4000
 X-37.0000
 Y0.2000
 X-37.0764 Y0.1990
 X-37.1703 Y0.1964
 X-37.2801 Y0.1925
 X-37.4043 Y0.1879
 X-37.5416 Y0.1829
 X-37.6904 Y0.1780
 X-37.8493 Y0.1737
 X-38.0167 Y0.1703
 X-38.1912 Y0.1684
 X-38.3714
 X-38.5557 Y0.1706
 X-38.7427 Y0.1757
 X-38.9308 Y0.1839
 X-39.1187 Y0.1958
 X-39.3049 Y0.2118
 X-39.4878 Y0.2322
 X-39.6661 Y0.2577
 X-39.8381 Y0.2886
 X-40.0025 Y0.3253
 X-40.1578 Y0.3683
 X-40.3025 Y0.4181
 X-40.4351 Y0.4750
 X-40.5542 Y0.5396
 X-40.6582 Y0.6122
 X-40.7458 Y0.6933
 X-40.8153 Y0.7834
 X-40.8655 Y0.8829
 X-40.8947 Y0.9922
 X-40.9015 Y1.1117
 X-40.8844 Y1.2420
 X-40.8420 Y1.3835
 X-40.7727 Y1.5366
 X-40.6936 Y1.6539
 X-40.5894 Y1.7546
 X-40.4626 Y1.8399
 X-40.3156 Y1.9108
 X-40.1506 Y1.9685
 X-39.9701 Y2.0140
 X-39.7763 Y2.0486
 X-39.5718 Y2.0733
 X-39.3587 Y2.0891
 X-39.1396 Y2.0974
 X-38.9167 Y2.0990
 X-38.6924 Y2.0952
 X-38.4690 Y2.0871
 X-38.2490 Y2.0758
 X-38.0346 Y2.0624
 X-37.8283 Y2.0479
 X-37.6324 Y2.0336
 X-37.4493 Y2.0206
 X-37.2813 Y2.0099
 X-37.1307 Y2.0027
 X-37.0000 Y2.0000
 Y3.6000
 X-37.1234 Y3.6003
 X-37.2507 Y3.6010
 X-37.3816 Y3.6020
 X-37.5159 Y3.6033
 X-37.6533 Y3.6046
 X-37.7935 Y3.6059
 X-37.9362 Y3.6070
 X-38.0811 Y3.6077
 X-38.2279 Y3.6080
 X-38.3763 Y3.6078
 X-38.5261 Y3.6068
 X-38.6769 Y3.6050
 X-38.8285 Y3.6022
 X-38.9806 Y3.5984
 X-39.1328 Y3.5933
 X-39.2849 Y3.5868
 X-39.4366 Y3.5789
 X-39.5876 Y3.5694
 X-39.7376 Y3.5581
 X-39.8863 Y3.5450
 X-40.0335 Y3.5299
 X-40.1788 Y3.5126
 X-40.3220 Y3.4931
 X-40.4628 Y3.4712
 X-40.6008 Y3.4468
 X-40.7358 Y3.4198
 X-40.8675 Y3.3900
 X-40.9956 Y3.3573
 X-41.1198 Y3.3215
 X-41.2398 Y3.2826
 X-41.3554 Y3.2404
 X-41.4662 Y3.1948
 X-41.5720 Y3.1457
 X-41.6724 Y3.0928
 X-41.7672 Y3.0362
 X-41.8561 Y2.9756
 X-41.9388 Y2.9110
 X-42.0150 Y2.8422
 X-42.0844 Y2.7690
 X-42.1467 Y2.6914
 X-42.2016 Y2.6093
 X-42.2489 Y2.5224
 X-42.2883 Y2.4307
 X-42.3194 Y2.3340
 X-42.3420 Y2.2322
 X-42.3557 Y2.1252
 X-42.3604 Y2.0129
 X-42.3556 Y1.8950
 X-42.3412 Y1.7716
 X-42.3167 Y1.6424
 X-42.2821 Y1.5073
 X-42.2368 Y1.3663
 X-42.1807 Y1.2191
 X-42.1135 Y1.0656
 X-42.0348 Y0.9058
 X-41.9444 Y0.7394
 X-41.8420 Y0.5664
 X-41.7273 Y0.3867
 X-41.6000 Y0.2000
G0 Z25.0000
 X-40.2000 Y6.2000
G1 Z0.0000
 Y8.2000
 X-40.3834 Y8.1220
 X-40.5464 Y8.0314
 X-40.6890 Y7.9298
 X-40.8107 Y7.8188
 X-40.9115 Y7.7001
 X-40.9910 Y7.5754
 X-41.0490 Y7.4461
 X-41.0853 Y7.3141
 X-41.0996 Y7.1809
 X-41.0917 Y7.0482
 X-41.0613 Y6.9176
 X-41.0083 Y6.7907
 X-40.9323 Y6.6693
 X-40.8331 Y6.5548
 X-40.7106 Y6.4490
 X-40.5643 Y6.3535
 X-40.3942 Y6.2700
 X-40.2000 Y6.2000
G0 Z25.0000
 X-37.4000 Y9.4000
G1 Z0.0000
 X-38.6000 Y9.0000
 X-38.5176 Y8.7946
 X-38.4416 Y8.5969
 X-38.3730 Y8.4063
 X-38.3131 Y8.2224
 X-38.2629 Y8.0450
 X-38.2235 Y7.8735
 X-38.1960 Y7.7076
 X-38.1816 Y7.5467
 X-38.1813 Y7.3907
 X-38.1963 Y7.2389
 X-38.2276 Y7.0911
 X-38.2764 Y6.9467
 X-38.3438 Y6.8055
 X-38.4308 Y6.6669
 X-38.5386 Y6.5306
 X-38.6684 Y6.3962
 X-38.8211 Y6.2632
 X-38.9979 Y6.1313
 X-39.2000 Y6.0000
 Y9.6000
 X-39.4036 Y9.5983
 X-39.6070 Y9.5954
 X-39.8100 Y9.5889
 X-40.0121 Y9.5767
 X-40.2131 Y9.5566
 X-40.4124 Y9.5265
 X-40.6097 Y9.4842
 X-40.8047 Y9.4276
 X-40.9969 Y9.3543
 X-41.1376 Y9.2905
 X-41.2704 Y9.2240
 X-41.3956 Y9.1548
 X-41.5132 Y9.0831
 X-41.6235 Y9.0090
 X-41.7264 Y8.9326
 X-41.8222 Y8.8539
 X-41.9109 Y8.7732
 X-41.9927 Y8.6905
 X-42.0678 Y8.6060
 X-42.1361 Y8.5197
 X-42.1980 Y8.4318
 X-42.2534 Y8.3424
 X-42.3025 Y8.2516
 X-42.3455 Y8.1595
 X-42.3824 Y8.0662
 X-42.4134 Y7.9719
 X-42.4387 Y7.8766
 X-42.4582 Y7.7805
 X-42.4723 Y7.6837
 X-42.4809 Y7.5862
 X-42.4842 Y7.4883
 X-42.4824 Y7.3899
 X-42.4755 Y7.2913
 X-42.4638 Y7.1926
 X-42.4472 Y7.0938
 X-42.4260 Y6.9951
 X-42.4003 Y6.8965
 X-42.3701 Y6.7983
 X-42.3357 Y6.7004
 X-42.2971 Y6.6031
 X-42.2545 Y6.5065
 X-42.2080 Y6.4105
 X-42.1576 Y6.3155
 X-42.1037 Y6.2214
 X-42.0462 Y6.1284
 X-41.9853 Y6.0366
 X-41.9211 Y5.9461
 X-41.8538 Y5.8571
 X-41.7834 Y5.7696
 X-41.7101 Y5.6837
 X-41.6341 Y5.5996
 X-41.5554 Y5.5174
 X-41.4741 Y5.4372
 X-41.3905 Y5.3591
 X-41.3046 Y5.2832
 X-41.2165 Y5.2097
 X-41.1264 Y5.1386
 X-41.0344 Y5.0701
 X-40.9406 Y5.0042
 X-40.8452 Y4.9411
 X-40.7483 Y4.8809
 X-40.6499 Y4.8238
 X-40.5503 Y4.7697
 X-40.4495 Y4.7190
 X-40.3477 Y4.6715
 X-40.2450 Y4.6275
 X-40.1415 Y4.5871
 X-40.0374 Y4.5504
 X-39.9328 Y4.5175
 X-39.8277 Y4.4886
 X-39.7224 Y4.4636
 X-39.6169 Y4.4428
 X-39.5115 Y4.4263
 X-39.4061 Y4.4141
 X-39.3009 Y4.4064
 X-39.1961 Y4.4033
 X-39.0918 Y4.4050
 X-38.9881 Y4.4114
 X-38.8851 Y4.4228
 X-38.7829 Y4.4392
 X-38.6818 Y4.4608
 X-38.5817 Y4.4877
 X-38.4829 Y4.5200
 X-38.3854 Y4.5578
 X-38.2895 Y4.6012
 X-38.1951 Y4.6503
 X-38.1024 Y4.7053
 X-38.0116 Y4.7662
 X-37.9228 Y4.8332
 X-37.8361 Y4.9063
 X-37.7517 Y4.9858
 X-37.6696 Y5.0717
 X-37.5900 Y5.1641
 X-37.5129 Y5.2631
 X-37.4387 Y5.3689
 X-37.3672 Y5.4816
 X-37.2988 Y5.6012
 X-37.2335 Y5.7279
 X-37.1714 Y5.8618
 X-37.1127 Y6.0031
 X-37.0434 Y6.1930
 X-36.9833 Y6.3885
 X-36.9333 Y6.5881
 X-36.8942 Y6.7904
 X-36.8672 Y6.9941
 X-36.8530 Y7.1977
 X-36.8528 Y7.4000
 X-36.8676 Y7.6078
 X-36.8960 Y7.8135
 X-36.9364 Y8.0174
 X-36.9869 Y8.2195
 X-37.0457 Y8.4198
 X-37.1109 Y8.6186
 X-37.1807 Y8.8159
 X-37.2534 Y9.0119
 X-37.3271 Y9.2065
 X-37.4000 Y9.4000
G0 Z25.0000
 X-41.2000 Y11.8000
G1 Z0.0000
 X-40.8000 Y14.2000
 X-41.8000 Y14.6000
 X-41.8865 Y14.4294
 X-41.9690 Y14.2544
 X-42.0468 Y14.0756
 X-42.1191 Y13.8933
 X-42.1852 Y13.7080
 X-42.2443 Y13.5201
 X-42.2957 Y13.3300
 X-42.3386 Y13.1382
 X-42.3723 Y12.9451
 X-42.3961 Y12.7510
 X-42.4092 Y12.5565
 X-42.4108 Y12.3620
 X-42.4003 Y12.1679
 X-42.3768 Y11.9746
 X-42.3396 Y11.7825
 X-42.2881 Y11.5921
 X-42.2213 Y11.4038
 X-42.1441 Y11.2384
 X-42.0499 Y11.0843
 X-41.9404 Y10.9424
 X-41.8172 Y10.8137
 X-41.6819 Y10.6990
 X-41.5363 Y10.5993
 X-41.3821 Y10.5153
 X-41.2208 Y10.4481
 X-41.0542 Y10.3984
 X-40.8840 Y10.3673
 X-40.7118 Y10.3555
 X-40.5393 Y10.3639
 X-40.3681 Y10.3935
 X-40.1999 Y10.4452
 X-40.0365 Y10.5198
 X-39.8794 Y10.6182
 X-39.7304 Y10.7413
 X-39.5994 Y10.8810
 X-39.4836 Y11.0371
 X-39.3816 Y11.2075
 X-39.2922 Y11.3899
 X-39.2140 Y11.5823
 X-39.1458 Y11.7825
 X-39.0862 Y11.9881
 X-39.0338 Y12.1972
 X-38.9875 Y12.4074
 X-38.9459 Y12.6167
 X-38.9076 Y12.8227
 X-38.8714 Y13.0234
 X-38.8360 Y13.2166
 X-38.8000 Y13.4000
 X-38.6152 Y13.2909
 X-38.4587 Y13.1753
 X-38.3290 Y13.0535
 X-38.2245 Y12.9260
 X-38.1435 Y12.7931
 X-38.0845 Y12.6553
 X-38.0460 Y12.5130
 X-38.0263 Y12.3666
 X-38.0238 Y12.2165
 X-38.0370 Y12.0630
 X-38.0643 Y11.9067
 X-38.1041 Y11.7478
 X-38.1549 Y11.5869
 X-38.2149 Y11.4243
 X-38.2828 Y11.2604
 X-38.3568 Y11.0956
 X-38.4354 Y10.9303
 X-38.5170 Y10.7650
 X-38.6000 Y10.6000
 X-37.4000 Y10.2000
 X-37.3741 Y10.2856
 X-37.3481 Y10.3801
 X-37.3223 Y10.4830
 X-37.2968 Y10.5937
 X-37.2720 Y10.7116
 X-37.2479 Y10.8362
 X-37.2247 Y10.9668
 X-37.2028 Y11.1029
 X-37.1822 Y11.2439
 X-37.1632 Y11.3893
 X-37.1459 Y11.5385
 X-37.1306 Y11.6909
 X-37.1174 Y11.8459
 X-37.1067 Y12.0030
 X-37.0984 Y12.1616
 X-37.0929 Y12.3211
 X-37.0904 Y12.4809
 X-37.0911 Y12.6405
 X-37.0950 Y12.7993
 X-37.1026 Y12.9567
 X-37.1139 Y13.1122
 X-37.1291 Y13.2651
 X-37.1485 Y13.4150
 X-37.1722 Y13.5612
 X-37.2004 Y13.7032
 X-37.2334 Y13.8403
 X-37.2714 Y13.9721
 X-37.3145 Y14.0979
 X-37.3629 Y14.2172
 X-37.4168 Y14.3293
 X-37.4765 Y14.4338
 X-37.5421 Y14.5301
 X-37.6139 Y14.6175
 X-37.6920 Y14.6955
 X-37.7766 Y14.7636
 X-37.8679 Y14.8211
 X-37.9662 Y14.8675
 X-38.0715 Y14.9023
 X-38.1843 Y14.9247
 X-38.3045 Y14.9344
 X-38.4324 Y14.9306
 X-38.5683 Y14.9128
 X-38.7123 Y14.8806
 X-38.8646 Y14.8331
 X-39.0254 Y14.7700
 X-39.1949 Y14.6906
 X-39.3733 Y14.5944
 X-39.5268 Y14.4935
 X-39.6596 Y14.3804
 X-39.7741 Y14.2563
 X-39.8727 Y14.1227
 X-39.9576 Y13.9809
 X-40.0313 Y13.8323
 X-40.0961 Y13.6782
 X-40.1543 Y13.5200
 X-40.2084 Y13.3592
 X-40.2606 Y13.1969
 X-40.3134 Y13.0347
 X-40.3690 Y12.8739
 X-40.4299 Y12.7158
 X-40.4983 Y12.5617
 X-40.5767 Y12.4132
 X-40.6673 Y12.2714
 X-40.7726 Y12.1379
 X-40.8950 Y12.0139
 X-41.0366 Y11.9008
 X-41.2000 Y11.8000
G0 Z25.0000
 X-42.4000 Y19.0000
G1 Z0.0000
 Y17.8000
 X-42.6388 Y17.7965
 X-42.8577 Y17.7868
 X-43.0576 Y17.7694
 X-43.2389 Y17.7430
 X-43.4023 Y17.7060
 X-43.5485 Y17.6572
 X-43.6780 Y17.5950
 X-43.7916 Y17.5181
 X-43.8897 Y17.4250
 X-43.9732 Y17.3142
 X-44.0426 Y17.1844
 X-44.0985 Y17.0342
 X-44.1415 Y16.8620
 X-44.1724 Y16.6666
 X-44.1917 Y16.4464
 X-44.2000 Y16.2000
 X-42.4000
 Y15.2000
 X-41.2000
 X-41.1354 Y15.3831
 X-41.0606 Y15.5427
 X-40.9761 Y15.6804
 X-40.8826 Y15.7977
 X-40.7807 Y15.8961
 X-40.6709 Y15.9771
 X-40.5539 Y16.0421
 X-40.4302 Y16.0928
 X-40.3006 Y16.1306
 X-40.1654 Y16.1569
 X-40.0255 Y16.1735
 X-39.8813 Y16.1816
 X-39.7335 Y16.1829
 X-39.5826 Y16.1789
 X-39.4293 Y16.1710
 X-39.2741 Y16.1608
 X-39.1177 Y16.1498
 X-38.9607 Y16.1395
 X-38.8036 Y16.1313
 X-38.6471 Y16.1269
 X-38.4917 Y16.1276
 X-38.3381 Y16.1351
 X-38.1868 Y16.1508
 X-38.0385 Y16.1763
 X-37.8937 Y16.2129
 X-37.7531 Y16.2624
 X-37.6173 Y16.3261
 X-37.4867 Y16.4055
 X-37.3461 Y16.5246
 X-37.2322 Y16.6664
 X-37.1424 Y16.8277
 X-37.0741 Y17.0056
 X-37.0248 Y17.1968
 X-36.9917 Y17.3982
 X-36.9723 Y17.6067
 X-36.9640 Y17.8191
 X-36.9641 Y18.0322
 X-36.9701 Y18.2430
 X-36.9792 Y18.4484
 X-36.9890 Y18.6450
 X-36.9968 Y18.8300
 X-37.0000 Y19.0000
 X-38.0000
 X-38.0432 Y18.7956
 X-38.1032 Y18.6144
 X-38.1788 Y18.4549
 X-38.2691 Y18.3160
 X-38.3730 Y18.1962
 X-38.4894 Y18.0942
 X-38.6172 Y18.0087
 X-38.7555 Y17.9383
 X-38.9032 Y17.8818
 X-39.0593 Y17.8378
 X-39.2226 Y17.8049
 X-39.3921 Y17.7819
 X-39.5669 Y17.7674
 X-39.7458 Y17.7600
 X-39.9278 Y17.7585
 X-40.1118 Y17.7616
 X-40.2968 Y17.7678
 X-40.4818 Y17.7758
 X-40.6656 Y17.7844
 X-40.8473 Y17.7922
 X-41.0258 Y17.7978
 X-41.2000 Y17.8000
 Y19.0000
 X-42.4000
G0 Z25.0000
 X-40.2000 Y21.4000
G1 Z0.0000
 Y23.4000
 X-40.3834 Y23.3220
 X-40.5464 Y23.2314
 X-40.6890 Y23.1298
 X-40.8107 Y23.0188
 X-40.9115 Y22.9001
 X-40.9910 Y22.7753
 X-41.0490 Y22.6461
 X-41.0853 Y22.5141
 X-41.0996 Y22.3809
 X-41.0917 Y22.2482
 X-41.0613 Y22.1176
 X-41.0083 Y21.9907
 X-40.9323 Y21.8693
 X-40.8331 Y21.7548
 X-40.7106 Y21.6490
 X-40.5643 Y21.5535
 X-40.3942 Y21.4700
 X-40.2000 Y21.4000
G0 Z25.0000
 X-37.4000 Y24.6000
G1 Z0.0000
 X-38.6000 Y24.2000
 X-38.5176 Y23.9946
 X-38.4416 Y23.7968
 X-38.3730 Y23.6063
 X-38.3131 Y23.4224
 X-38.2629 Y23.2450
 X-38.2235 Y23.0735
 X-38.1960 Y22.9076
 X-38.1816 Y22.7467
 X-38.1813 Y22.5907
 X-38.1963 Y22.4389
 X-38.2276 Y22.2911
 X-38.2764 Y22.1467
 X-38.3438 Y22.0055
 X-38.4308 Y21.8669
 X-38.5386 Y21.7306
 X-38.6684 Y21.5962
 X-38.8211 Y21.4632
 X-38.9979 Y21.3313
 X-39.2000 Y21.2000
 Y24.8000
 X-39.4060 Y24.7944
 X-39.6102 Y24.7855
 X-39.8127 Y24.7717
 X-40.0135 Y24.7515
 X-40.2128 Y24.7235
 X-40.4107 Y24.6862
 X-40.6073 Y24.6381
 X-40.8026 Y24.5776
 X-40.9969 Y24.5034
 X-41.1355 Y24.4419
 X-41.2665 Y24.3775
 X-41.3899 Y24.3104
 X-41.5061 Y24.2406
 X-41.6149 Y24.1683
 X-41.7167 Y24.0935
 X-41.8115 Y24.0165
 X-41.8993 Y23.9373
 X-41.9805 Y23.8560
 X-42.0550 Y23.7728
 X-42.1229 Y23.6877
 X-42.1845 Y23.6009
 X-42.2398 Y23.5125
 X-42.2889 Y23.4226
 X-42.3320 Y23.3314
 X-42.3692 Y23.2389
 X-42.4006 Y23.1452
 X-42.4263 Y23.0506
 X-42.4465 Y22.9550
 X-42.4612 Y22.8586
 X-42.4706 Y22.7615
 X-42.4748 Y22.6639
 X-42.4740 Y22.5659
 X-42.4681 Y22.4675
 X-42.4575 Y22.3689
 X-42.4421 Y22.2702
 X-42.4222 Y22.1715
 X-42.3977 Y22.0730
 X-42.3690 Y21.9747
 X-42.3359 Y21.8768
 X-42.2988 Y21.7794
 X-42.2577 Y21.6825
 X-42.2127 Y21.5864
 X-42.1640 Y21.4911
 X-42.1116 Y21.3968
 X-42.0557 Y21.3035
 X-41.9965 Y21.2114
 X-41.9339 Y21.1206
 X-41.8682 Y21.0312
 X-41.7995 Y20.9433
 X-41.7279 Y20.8571
 X-41.6535 Y20.7726
 X-41.5764 Y20.6900
 X-41.4967 Y20.6094
 X-41.4147 Y20.5309
 X-41.3303 Y20.4547
 X-41.2438 Y20.3807
 X-41.1551 Y20.3093
 X-41.0646 Y20.2404
 X-40.9722 Y20.1741
 X-40.8781 Y20.1107
 X-40.7824 Y20.0502
 X-40.6853 Y19.9928
 X-40.5868 Y19.9384
 X-40.4871 Y19.8874
 X-40.3862 Y19.8397
 X-40.2844 Y19.7955
 X-40.1818 Y19.7550
 X-40.0783 Y19.7182
 X-39.9743 Y19.6852
 X-39.8698 Y19.6562
 X-39.7648 Y19.6312
 X-39.6597 Y19.6105
 X-39.5543 Y19.5940
 X-39.4490 Y19.5820
 X-39.3438 Y19.5746
 X-39.2387 Y19.5718
 X-39.1340 Y19.5737
 X-39.0298 Y19.5806
 X-38.9262 Y19.5924
 X-38.8232 Y19.6094
 X-38.7211 Y19.6316
 X-38.6199 Y19.6592
 X-38.5198 Y19.6922
 X-38.4208 Y19.7309
 X-38.3232 Y19.7752
 X-38.2270 Y19.8253
 X-38.1323 Y19.8814
 X-38.0393 Y19.9435
 X-37.9481 Y20.0118
 X-37.8587 Y20.0864
 X-37.7714 Y20.1674
 X-37.6863 Y20.2548
 X-37.6034 Y20.3490
 X-37.5229 Y20.4498
 X-37.4449 Y20.5575
 X-37.3695 Y20.6722
 X-37.2969 Y20.7940
 X-37.2271 Y20.9230
 X-37.1603 Y21.0593
 X-37.0966 Y21.2031
 X-37.0226 Y21.3943
 X-36.9601 Y21.5892
 X-36.9098 Y21.7873
 X-36.8722 Y21.9881
 X-36.8481 Y22.1908
 X-36.8381 Y22.3950
 X-36.8428 Y22.6000
 X-36.8620 Y22.8077
 X-36.8936 Y23.0134
 X-36.9360 Y23.2170
 X-36.9876 Y23.4189
 X-37.0468 Y23.6190
 X-37.1119 Y23.8177
 X-37.1814 Y24.0150
 X-37.2537 Y24.2110
 X-37.3271 Y24.4060
 X-37.4000 Y24.6000
G0 Z25.0000
 X-42.4000 Y29.2000
G1 Z0.0000
 X-41.6000 Y27.4000
 X-41.8188 Y27.3112
 X-41.9931 Y27.2060
 X-42.1279 Y27.0847
 X-42.2285 Y26.9474
 X-42.3000 Y26.7944
 X-42.3474 Y26.6258
 X-42.3760 Y26.4419
 X-42.3909 Y26.2428
 X-42.3972 Y26.0288
 X-42.4000 Y25.8000
 X-37.0000
 Y27.4000
 X-37.1715 Y27.3988
 X-37.3448 Y27.3955
 X-37.5195 Y27.3909
 X-37.6950 Y27.3857
 X-37.8709 Y27.3804
 X-38.0468 Y27.3758
 X-38.2221 Y27.3725
 X-38.3964 Y27.3712
 X-38.5691 Y27.3726
 X-38.7399 Y27.3773
 X-38.9081 Y27.3860
 X-39.0735 Y27.3994
 X-39.2354 Y27.4181
 X-39.3934 Y27.4428
 X-39.5470 Y27.4742
 X-39.6957 Y27.5129
 X-39.8391 Y27.5596
 X-39.9767 Y27.6150
 X-40.1080 Y27.6798
 X-40.2326 Y27.7546
 X-40.3498 Y27.8400
 X-40.4594 Y27.9368
 X-40.5607 Y28.0456
 X-40.6533 Y28.1671
 X-40.7368 Y28.3020
 X-40.8107 Y28.4509
 X-40.8744 Y28.6145
 X-40.9275 Y28.7934
 X-40.9695 Y28.9883
 X-41.0000 Y29.2000
 X-42.4000
G0 Z25.0000
 X-31.6000 Y32.2000
G1 Z0.0000
 Y-22.2000
 X-31.6022 Y-22.3641
 X-31.6082 Y-22.5378
 X-31.6176 Y-22.7202
 X-31.6297 Y-22.9103
 X-31.6440 Y-23.1074
 X-31.6599 Y-23.3105
 X-31.6767 Y-23.5187
 X-31.6939 Y-23.7312
 X-31.7110 Y-23.9470
 X-31.7272 Y-24.1653
 X-31.7421 Y-24.3852
 X-31.7551 Y-24.6059
 X-31.7655 Y-24.8263
 X-31.7728 Y-25.0457
 X-31.7764 Y-25.2632
 X-31.7757 Y-25.4778
 X-31.7701 Y-25.6887
 X-31.7590 Y-25.8951
 X-31.7419 Y-26.0959
 X-31.7182 Y-26.2904
 X-31.6872 Y-26.4777
 X-31.6484 Y-26.6568
 X-31.6012 Y-26.8269
 X-31.5451 Y-26.9870
 X-31.4793 Y-27.1364
 X-31.4007 Y-27.2588
 X-31.2968 Y-27.3625
 X-31.1701 Y-27.4487
 X-31.0234 Y-27.5191
 X-30.8592 Y-27.5748
 X-30.6801 Y-27.6173
 X-30.4889 Y-27.6480
 X-30.2881 Y-27.6683
 X-30.0804 Y-27.6796
 X-29.8683 Y-27.6832
 X-29.6546 Y-27.6805
 X-29.4418 Y-27.6730
 X-29.2327 Y-27.6619
 X-29.0297 Y-27.6488
 X-28.8356 Y-27.6349
 X-28.6529 Y-27.6217
 X-28.4843 Y-27.6106
 X-28.3325 Y-27.6029
 X-28.2000 Y-27.6000
 X25.2000
 X25.3478 Y-27.6034
 X25.5164 Y-27.6125
 X25.7026 Y-27.6253
 X25.9030 Y-27.6400
 X26.1142 Y-27.6547
 X26.3329 Y-27.6675
 X26.5558 Y-27.6765
 X26.7794 Y-27.6799
 X27.0004 Y-27.6758
 X27.2156 Y-27.6623
 X27.4214 Y-27.6376
 X27.6147 Y-27.5997
 X27.7919 Y-27.5468
 X27.9499 Y-27.4770
 X28.0852 Y-27.3885
 X28.1944 Y-27.2793
 X28.2775 Y-27.1557
 X28.3471 Y-27.0134
 X28.4043 Y-26.8542
 X28.4500 Y-26.6800
 X28.4852 Y-26.4926
 X28.5108 Y-26.2939
 X28.5279 Y-26.0857
 X28.5372 Y-25.8698
 X28.5400 Y-25.6480
 X28.5369 Y-25.4223
 X28.5291 Y-25.1944
 X28.5175 Y-24.9662
 X28.5031 Y-24.7394
 X28.4868 Y-24.5160
 X28.4695 Y-24.2978
 X28.4523 Y-24.0866
 X28.4360 Y-23.8843
 X28.4217 Y-23.6926
 X28.4103 Y-23.5134
 X28.4027 Y-23.3486
 X28.4000 Y-23.2000
 Y32.2000
 X-31.6000
G0 Z25.0000
 X-50.0000 Y35.4000
G1 Z0.0000
 Y-30.0000
 X30.8000
 Y35.4000
 X-50.0000
G0 Z25.0000
M5 (stop spindle)
G04 P3 (wait for 3 seconds)
G0 Z25.0000
M2 (end program)
